; generated by PrusaSlicer 2.9.0 on 2025-01-10 at 23:53:02 UTC


;
;
; 

; external perimeters extrusion width = 0.45mm
; perimeters extrusion width = 0.70mm
; infill extrusion width = 0.45mm
; solid infill extrusion width = 0.45mm
; top infill extrusion width = 0.40mm
; first layer extrusion width = 0.42mm

M73 P0 R96
M73 Q0 S97
M201 X1000 Y1000 Z200 E5000 ; sets maximum accelerations, mm/sec^2
M203 X200 Y200 Z12 E120 ; sets maximum feedrates, mm / sec
M204 S1250 T1250 ; sets acceleration (S) and retract acceleration (R), mm/sec^2
M205 X8.00 Y8.00 Z0.40 E4.50 ; sets the jerk limits, mm/sec
M205 S0 T0 ; sets the minimum extruding and travel feed rate, mm/sec

; printing object Low_Poly_Bowl.stl id:0 copy 0
; stop printing object Low_Poly_Bowl.stl id:0 copy 0

;TYPE:Custom
M862.3 P "MK3S" ; printer model check
M862.1 P0.4 ; nozzle diameter check
M115 U3.13.0 ; tell printer latest fw version
G90 ; use absolute coordinates
M83 ; extruder relative mode
M104 S215 ; set extruder temp
M140 S60 ; set bed temp
M190 S60 ; wait for bed temp
M109 S215 ; wait for extruder temp
G28 W ; home all without mesh bed level
G80 ; mesh bed leveling

G1 Z0.2 F720
G1 Y-3 F1000 ; go outside print area
G92 E0
G1 X60 E9 F1000 ; intro line
G1 X100 E12.5 F1000 ; intro line

G92 E0
M221 S95

; Don't change E values below. Excessive value can damage the printer.
M907 E430 ; set extruder motor current
G21 ; set units to millimeters
G90 ; use absolute coordinates
M83 ; use relative distances for extrusion
M900 K0.05 ; Filament gcode LA 1.5
M900 K30 ; Filament gcode LA 1.0
M107
;LAYER_CHANGE
;Z:0.2
;HEIGHT:0.2
G1 E-.8 F2100
G1 Z.6 F720
; printing object Low_Poly_Bowl.stl id:0 copy 0
G1 X138.626 Y88.792 F10800
G1 Z.2 F720
G1 E.8 F2100
M204 S800
;TYPE:Perimeter
;WIDTH:0.419999
G1 F1200
G1 X140.519 Y116.926 E.88411
G1 X140.447 Y116.954 E.00242
G1 X112.95 Y112.852 E.87169
G1 X112.491 Y112.703 E.01513
G1 X112.406 Y112.571 E.00492
G1 X111.418 Y92.395 E.63336
G1 X138.589 Y88.772 E.85947
M204 S1000
G1 X138.589 Y88.772 F10800
G1 X138.945 Y88.397
M204 S800
;TYPE:External perimeter
G1 F1200
G1 X138.983 Y88.487 E.00306
G1 X140.901 Y117.129 E.90006
G1 X140.882 Y117.193 E.00209
G1 X140.488 Y117.341 E.0132
G1 X112.796 Y113.211 E.87786
G1 X112.245 Y113.016 E.01833
G1 X112.034 Y112.691 E.01215
G1 X111.036 Y92.316 E.63961
G1 X111.133 Y92.094 E.0076
G1 X111.234 Y92.039 E.00361
G1 X138.698 Y88.377 E.86873
G1 X138.885 Y88.392 E.00588
M204 S1000
;WIPE_START
G1 F8640
G1 X138.945 Y88.397 E-.0139
G1 X138.983 Y88.487 E-.02256
G1 X139.204 Y91.786 E-.76354
;WIPE_END
G1 Z.6 F720
G1 X138.523 Y89.784 F10800
G1 Z.2 F720
G1 E.8 F2100
M204 S800
;TYPE:Solid infill
;WIDTH:0.423806
G1 F1200
G1 X137.94 Y89.201 E.02611
G1 X137.464 Y89.265 E.01521
G1 X138.379 Y90.18 E.04098
G1 X138.418 Y90.757 E.01832
G1 X136.989 Y89.328 E.064
G1 X136.514 Y89.391 E.01518
G1 X138.457 Y91.335 E.08705
G1 X138.496 Y91.912 E.01832
G1 X136.038 Y89.455 E.11007
G1 X135.563 Y89.518 E.01518
G1 X138.535 Y92.49 E.13311
G1 X138.573 Y93.067 E.01831
G1 X135.088 Y89.581 E.15611
G1 X134.612 Y89.645 E.01521
G1 X138.612 Y93.645 E.17916
G1 X138.651 Y94.222 E.01832
G1 X134.137 Y89.708 E.20218
G1 X133.662 Y89.772 E.01518
G1 X138.69 Y94.8 E.2252
G1 X138.729 Y95.377 E.01832
G1 X133.187 Y89.835 E.24822
G1 X132.711 Y89.898 E.01521
G1 X138.768 Y95.955 E.27129
G1 X138.807 Y96.532 E.01832
G1 X132.236 Y89.962 E.29429
G1 X131.761 Y90.025 E.01518
G1 X138.845 Y97.11 E.31731
G1 X138.884 Y97.687 E.01832
G1 X131.285 Y90.088 E.34035
G1 X130.81 Y90.152 E.01518
G1 X138.923 Y98.265 E.36338
G1 X138.962 Y98.842 E.01832
G1 X130.335 Y90.215 E.3864
G1 X129.86 Y90.278 E.01518
G1 X139.001 Y99.42 E.40944
G1 X139.04 Y99.997 E.01832
G1 X129.384 Y90.342 E.43246
G1 X128.909 Y90.405 E.01518
G1 X139.079 Y100.575 E.45551
G1 X139.117 Y101.152 E.01831
G1 X128.434 Y90.469 E.47848
G1 X127.958 Y90.532 E.01521
G1 X139.156 Y101.73 E.50155
G1 X139.195 Y102.307 E.01832
G1 X127.483 Y90.595 E.52457
G1 X127.008 Y90.659 E.01518
M73 Q0 S96
G1 X139.234 Y102.885 E.54759
G1 X139.273 Y103.462 E.01832
G1 X126.533 Y90.722 E.57062
G1 X126.057 Y90.785 E.01521
G1 X139.312 Y104.04 E.59368
G1 X139.351 Y104.617 E.01832
G1 X125.582 Y90.849 E.61668
G1 X125.107 Y90.912 E.01518
G1 X139.389 Y105.195 E.6397
G1 X139.428 Y105.772 E.01832
G1 X124.631 Y90.976 E.66272
G1 X124.156 Y91.039 E.01518
G1 X139.467 Y106.35 E.68577
G1 X139.506 Y106.927 E.01832
G1 X123.681 Y91.102 E.70879
G1 X123.206 Y91.166 E.01518
G1 X139.545 Y107.505 E.73181
G1 X139.584 Y108.082 E.01832
G1 X122.73 Y91.229 E.75486
G1 X122.255 Y91.292 E.01518
G1 X139.623 Y108.66 E.7779
G1 X139.661 Y109.237 E.01831
G1 X121.78 Y91.356 E.80088
G1 X121.304 Y91.419 E.01521
G1 X139.7 Y109.815 E.82394
G1 X139.739 Y110.392 E.01832
G1 X120.829 Y91.482 E.84697
G1 X120.354 Y91.546 E.01518
G1 X139.778 Y110.97 E.86999
G1 X139.817 Y111.547 E.01832
G1 X119.879 Y91.609 E.89301
G1 X119.403 Y91.673 E.01521
G1 X139.856 Y112.125 E.91605
G1 X139.895 Y112.703 E.01835
G1 X118.928 Y91.736 E.9391
G1 X118.453 Y91.799 E.01518
G1 X139.933 Y113.28 E.9621
G1 X139.972 Y113.858 E.01835
G1 X117.977 Y91.863 E.98514
G1 X117.502 Y91.926 E.01518
G1 X140.011 Y114.435 E1.00816
G1 X140.05 Y115.013 E.01835
G1 X117.027 Y91.989 E1.03121
G1 X116.551 Y92.053 E.01521
M73 P0 R95
G1 X140.089 Y115.59 E1.05423
G1 X140.128 Y116.168 E.01835
M73 P1 R95
M73 Q1 S96
G1 X116.076 Y92.116 E1.07727
G1 X115.601 Y92.179 E.01518
G1 X139.959 Y116.538 E1.091
G1 X139.326 Y116.443 E.02027
G1 X115.126 Y92.243 E1.0839
G1 X114.65 Y92.306 E.01521
G1 X138.693 Y116.349 E1.07687
G1 X138.06 Y116.254 E.02027
G1 X114.175 Y92.37 E1.06977
G1 X113.7 Y92.433 E.01518
G1 X137.427 Y116.16 E1.06272
G1 X136.794 Y116.066 E.02027
G1 X113.224 Y92.496 E1.05568
G1 X112.749 Y92.56 E.01518
G1 X136.161 Y115.971 E1.04858
G1 X135.528 Y115.877 E.02027
G1 X112.274 Y92.623 E1.04153
G1 X111.799 Y92.686 E.01518
G1 X134.895 Y115.782 E1.03445
G1 X134.261 Y115.688 E.0203
G1 X111.798 Y93.225 E1.0061
G1 X111.826 Y93.791 E.01795
G1 X133.628 Y115.593 E.9765
G1 X132.995 Y115.499 E.02027
G1 X111.854 Y94.357 E.94691
G1 X111.881 Y94.924 E.01798
G1 X132.362 Y115.405 E.91733
G1 X131.729 Y115.31 E.02027
G1 X111.909 Y95.49 E.88772
G1 X111.937 Y96.057 E.01798
G1 X131.096 Y115.216 E.85812
G1 X130.463 Y115.121 E.02027
G1 X111.965 Y96.623 E.82851
G1 X111.992 Y97.189 E.01795
G1 X129.83 Y115.027 E.79895
G1 X129.197 Y114.932 E.02027
G1 X112.02 Y97.756 E.76932
G1 X112.048 Y98.322 E.01795
M73 Q1 S95
G1 X128.564 Y114.838 E.73974
G1 X127.931 Y114.744 E.02027
G1 X112.076 Y98.888 E.71016
G1 X112.103 Y99.455 E.01798
G1 X127.298 Y114.649 E.68055
G1 X126.664 Y114.555 E.0203
G1 X112.131 Y100.021 E.65094
G1 X112.159 Y100.588 E.01798
G1 X126.031 Y114.46 E.62132
G1 X125.398 Y114.366 E.02027
G1 X112.186 Y101.154 E.59176
G1 X112.214 Y101.72 E.01795
G1 X124.765 Y114.271 E.56215
G1 X124.132 Y114.177 E.02027
G1 X112.242 Y102.287 E.53254
G1 X112.27 Y102.853 E.01795
G1 X123.499 Y114.083 E.50296
G1 X122.866 Y113.988 E.02027
G1 X112.297 Y103.42 E.47336
G1 X112.325 Y103.986 E.01795
G1 X122.233 Y113.894 E.44377
G1 X121.6 Y113.799 E.02027
G1 X112.353 Y104.552 E.41417
G1 X112.38 Y105.119 E.01798
G1 X120.967 Y113.705 E.38458
G1 X120.334 Y113.61 E.02027
G1 X112.408 Y105.685 E.35498
G1 X112.436 Y106.251 E.01795
G1 X119.701 Y113.516 E.32539
G1 X119.067 Y113.422 E.0203
G1 X112.464 Y106.818 E.29577
G1 X112.491 Y107.384 E.01795
G1 X118.434 Y113.327 E.26618
G1 X117.801 Y113.233 E.02027
G1 X112.519 Y107.951 E.23658
G1 X112.547 Y108.517 E.01795
G1 X117.168 Y113.138 E.20697
G1 X116.535 Y113.044 E.02027
G1 X112.575 Y109.083 E.17739
G1 X112.602 Y109.65 E.01798
G1 X115.902 Y112.949 E.14778
G1 X115.269 Y112.855 E.02027
G1 X112.63 Y110.216 E.1182
G1 X112.658 Y110.782 E.01795
G1 X114.636 Y112.761 E.08862
G1 X114.003 Y112.666 E.02027
G1 X112.685 Y111.349 E.05901
G1 X112.713 Y111.915 E.01795
G1 X113.571 Y112.773 E.03843
M204 S1000
M106 S84.15
;LAYER_CHANGE
;Z:0.3
;HEIGHT:0.1
;BEFORE_LAYER_CHANGE
G92 E0.0
;0.3


;WIPE_START
G1 F8640
G1 X112.713 Y111.915 E-.28018
G1 X112.685 Y111.349 E-.13085
G1 X113.876 Y112.54 E-.38897
;WIPE_END
G1 Z.3 F720
;AFTER_LAYER_CHANGE
;0.3
M104 S210 ; set temperature
G1 Z.7
G1 X138.667 Y88.624 F10800
G1 Z.3 F720
G1 E.8 F2100
M204 S800
;TYPE:Perimeter
;WIDTH:0.699999
G1 F1283.071
G1 X138.743 Y88.632 E.00216
G1 F1281.745
G1 X138.913 Y89.028 E.01216
G1 F1269.639
G1 X138.973 Y89.91 E.02494
G1 F1283.143
G1 X140.705 Y115.665 E.7282
G1 F1276.576
G1 X140.765 Y116.547 E.02494
G1 F1274.217
G1 X140.745 Y116.738 E.00542
G1 F1287.023
G1 X140.667 Y117.019 E.00823
G1 F1395.176
G1 X139.498 Y117.455 E.0352
G1 F1459.602
G1 X138.263 Y117.27 E.03523
G1 X115.309 Y113.847 E.6547
G1 X114.074 Y113.663 E.03522
G1 F1420.546
G1 X112.586 Y113.138 E.04451
G1 F1345.552
G1 X112.345 Y112.805 E.0116
G1 F1358.435
G1 X111.985 Y112.206 E.01972
G1 F1398.292
G1 X111.935 Y111.192 E.02864
G1 F2700
G1 X111.092 Y93.963 E.48662
G1 F1396.191
G1 X111.042 Y92.949 E.02864
G1 F1340.806
G1 X111.329 Y92.27 E.0208
G1 F1259.809
G1 X111.707 Y92.064 E.01214
G1 F1246.565
G1 X112.601 Y91.945 E.02544
G1 F1260.612
G1 X138.032 Y88.555 E.72376
G1 F1283.071
G1 X138.607 Y88.618 E.01632
M204 S1000
G1 X138.607 Y88.618 F10800
G1 X139.15 Y88.178
M204 S800
;TYPE:External perimeter
;WIDTH:0.449999
G1 F1200
G1 X139.415 Y88.794 E.01195
G1 F1100.709
G1 X139.459 Y88.896 E.00198
G1 X139.522 Y89.832 E.01671
G1 X141.267 Y115.766 E.4631
G1 X141.33 Y116.701 E.0167
G1 X141.3 Y116.81 E.00201
G1 F1200
G1 X141.279 Y116.886 E.0014
G1 F1270.561
G1 X141.126 Y117.357 E.00882
G1 F1346.823
G1 X140.984 Y117.492 E.00349
G1 F1200
G1 X140.337 Y117.733 E.0123
G1 F900
G1 X139.949 Y117.877 E.00737
M204 S1000
;TYPE:Overhang perimeter
G1 X139.557 Y118.023 E.00745
G1 X138.269 Y117.831 E.0232
G1 X115.228 Y114.394 E.41505
G1 X113.94 Y114.202 E.0232
G1 X112.934 Y113.848 E.019
M204 S800
;TYPE:External perimeter
G1 X112.239 Y113.603 E.01313
G1 X112.09 Y113.396 E.00454
G1 F1200
G1 X111.882 Y113.11 E.0063
G1 X111.623 Y112.678 E.00897
G1 F900
G1 X111.439 Y112.372 E.00636
G1 X111.386 Y111.305 E.01903
G1 X110.535 Y93.917 E.31017
G1 X110.483 Y92.85 E.01903
G1 X110.635 Y92.491 E.00695
G1 F1200
G1 X110.846 Y91.99 E.00969
G1 F1298.031
G1 X110.944 Y91.849 E.00306
G1 F1200
G1 X111.395 Y91.604 E.00914
G1 F1051.451
G1 X111.532 Y91.529 E.00278
G1 X112.479 Y91.403 E.01702
G1 X137.078 Y88.123 E.44215
G1 X138.026 Y87.997 E.01704
M73 P2 R94
M73 Q2 S95
G1 X138.257 Y88.023 E.00414
G1 F1200
G1 X139 Y88.104 E.01332
G1 F1337.28
G1 X139.096 Y88.152 E.00191
M204 S1000
;WIPE_START
G1 F8640
G1 X139.15 Y88.178 E-.01384
G1 X139.415 Y88.794 E-.15484
G1 X139.459 Y88.896 E-.02565
G1 X139.522 Y89.832 E-.21661
G1 X139.635 Y91.513 E-.38906
;WIPE_END
G1 Z.7 F720
G1 X112.11 Y92.501 F10800
G1 Z.3 F720
G1 E.8 F2100
;TYPE:Solid infill
G1 F4800
G1 X111.535 Y93.076 E.01449
G1 X111.563 Y93.654 E.01031
G1 X112.81 Y92.407 E.03142
G1 X113.509 Y92.314 E.01256
G1 X111.591 Y94.232 E.04833
G1 X111.619 Y94.81 E.01031
G1 X114.208 Y92.221 E.06523
G1 X114.907 Y92.128 E.01256
G1 X111.648 Y95.387 E.08212
G1 X111.676 Y95.965 E.01031
G1 X115.607 Y92.034 E.09905
G1 X116.306 Y91.941 E.01256
G1 X111.704 Y96.543 E.11595
G1 X111.733 Y97.121 E.01031
G1 X117.005 Y91.848 E.13285
G1 X117.705 Y91.755 E.01258
G1 X111.761 Y97.699 E.14977
G1 X111.789 Y98.276 E.01029
G1 X118.404 Y91.662 E.16666
G1 X119.103 Y91.568 E.01257
G1 X111.817 Y98.854 E.18358
G1 X111.846 Y99.432 E.01031
G1 X119.802 Y91.475 E.20048
G1 X120.502 Y91.382 E.01258
G1 X111.874 Y100.01 E.21739
G1 X111.902 Y100.587 E.01029
G1 X121.201 Y91.289 E.23429
G1 X121.9 Y91.195 E.01257
G1 X111.931 Y101.165 E.2512
G1 X111.959 Y101.743 E.01031
G1 X122.599 Y91.102 E.2681
G1 X123.299 Y91.009 E.01258
G1 X111.987 Y102.321 E.28502
G1 X112.015 Y102.898 E.01029
G1 X123.998 Y90.916 E.30192
G1 X124.697 Y90.823 E.01256
G1 X112.044 Y103.476 E.31881
G1 X112.072 Y104.054 E.01031
G1 X125.397 Y90.729 E.33574
G1 X126.096 Y90.636 E.01256
G1 X112.1 Y104.632 E.35265
G1 X112.129 Y105.209 E.01029
G1 X126.795 Y90.543 E.36953
G1 X127.494 Y90.45 E.01256
G1 X112.157 Y105.787 E.38644
G1 X112.185 Y106.365 E.01031
G1 X128.194 Y90.356 E.40337
G1 X128.893 Y90.263 E.01256
G1 X112.213 Y106.943 E.42028
G1 X112.242 Y107.52 E.01029
G1 X129.592 Y90.17 E.43716
G1 X130.291 Y90.077 E.01256
G1 X112.27 Y108.098 E.45407
G1 X112.298 Y108.676 E.01031
G1 X130.991 Y89.983 E.471
G1 X131.69 Y89.89 E.01256
G1 X112.326 Y109.254 E.4879
G1 X112.355 Y109.832 E.01031
G1 X132.389 Y89.797 E.5048
G1 X133.089 Y89.704 E.01258
G1 X112.383 Y110.409 E.52171
G1 X112.411 Y110.987 E.01031
G1 X133.788 Y89.611 E.53861
G1 X134.487 Y89.517 E.01257
G1 X112.44 Y111.565 E.55552
G1 X112.496 Y112.114 E.00983
G1 X135.186 Y89.424 E.57171
G1 X135.886 Y89.331 E.01258
G1 X112.724 Y112.493 E.5836
G1 X113.039 Y112.783 E.00763
G1 X136.585 Y89.238 E.59326
G1 X137.284 Y89.144 E.01257
G1 X113.488 Y112.941 E.59959
G1 X113.936 Y113.099 E.00846
G1 X137.983 Y89.051 E.60591
G1 X138.549 Y88.939 E.01028
;WIDTH:0.36146
G1 X138.478 Y88.92 E.00104
G1 X138.497 Y88.991 E.00104
G1 X138.538 Y88.98 E.0006
;WIDTH:0.40573
G1 X138.488 Y89.091 E.00194
;WIDTH:0.449999
G1 X138.438 Y89.203 E.00219
G1 X114.418 Y113.223 E.60522
G1 X114.945 Y113.301 E.00949
G1 X138.476 Y89.77 E.5929
G1 X138.515 Y90.338 E.01014
G1 X115.473 Y113.38 E.58058
G1 X116 Y113.459 E.00949
G1 X138.553 Y90.906 E.56826
G1 X138.591 Y91.474 E.01014
G1 X116.527 Y113.537 E.55592
G1 X117.055 Y113.616 E.00951
G1 X138.629 Y92.042 E.54359
G1 X138.667 Y92.61 E.01014
G1 X117.582 Y113.695 E.53127
G1 X118.11 Y113.773 E.00951
G1 X138.706 Y93.177 E.51895
G1 X138.744 Y93.745 E.01014
G1 X118.637 Y113.852 E.50663
G1 X119.164 Y113.931 E.00949
G1 X138.782 Y94.313 E.4943
G1 X138.82 Y94.881 E.01014
G1 X119.692 Y114.009 E.48196
G1 X120.219 Y114.088 E.00949
G1 X138.858 Y95.449 E.46964
G1 X138.897 Y96.017 E.01014
G1 X120.747 Y114.167 E.45732
G1 X121.274 Y114.245 E.00949
G1 X138.935 Y96.584 E.44499
G1 X138.973 Y97.152 E.01014
G1 X121.801 Y114.324 E.43267
G1 X122.329 Y114.403 E.00951
G1 X139.011 Y97.72 E.42034
G1 X139.049 Y98.288 E.01014
G1 X122.856 Y114.481 E.40801
G1 X123.383 Y114.56 E.00949
G1 X139.088 Y98.856 E.3957
G1 X139.126 Y99.424 E.01014
G1 X123.911 Y114.639 E.38336
G1 X124.438 Y114.717 E.00949
G1 X139.164 Y99.991 E.37104
G1 X139.202 Y100.559 E.01014
G1 X124.966 Y114.796 E.35871
G1 X125.493 Y114.875 E.00949
G1 X139.241 Y101.127 E.3464
G1 X139.279 Y101.695 E.01014
G1 X126.02 Y114.953 E.33407
G1 X126.548 Y115.032 E.00951
G1 X139.317 Y102.263 E.32173
G1 X139.355 Y102.831 E.01014
G1 X127.075 Y115.111 E.30941
G1 X127.602 Y115.189 E.00949
G1 X139.393 Y103.399 E.29708
G1 X139.432 Y103.966 E.01013
G1 X128.13 Y115.268 E.28477
G1 X128.657 Y115.347 E.00949
G1 X139.47 Y104.534 E.27245
G1 X139.508 Y105.102 E.01014
G1 X129.185 Y115.425 E.2601
G1 X129.712 Y115.504 E.00949
G1 X139.546 Y105.67 E.24778
G1 X139.584 Y106.238 E.01014
G1 X130.239 Y115.583 E.23546
G1 X130.767 Y115.661 E.00951
G1 X139.623 Y106.806 E.22313
G1 X139.661 Y107.373 E.01012
G1 X131.294 Y115.74 E.21082
G1 X131.822 Y115.819 E.00951
G1 X139.699 Y107.941 E.19849
G1 X139.737 Y108.509 E.01014
G1 X132.349 Y115.897 E.18615
G1 X132.876 Y115.976 E.00949
G1 X139.775 Y109.077 E.17383
G1 X139.814 Y109.645 E.01014
G1 X133.404 Y116.055 E.16151
G1 X133.931 Y116.133 E.00949
G1 X139.852 Y110.213 E.14918
G1 X139.89 Y110.78 E.01012
G1 X134.458 Y116.212 E.13687
G1 X134.986 Y116.291 E.00951
G1 X139.928 Y111.348 E.12453
G1 X139.966 Y111.916 E.01014
G1 X135.513 Y116.369 E.1122
G1 X136.041 Y116.448 E.00951
G1 X140.005 Y112.484 E.09988
G1 X140.043 Y113.052 E.01014
G1 X136.568 Y116.527 E.08756
G1 X137.095 Y116.605 E.00949
G1 X140.081 Y113.62 E.07522
G1 X140.119 Y114.188 E.01014
G1 X137.623 Y116.684 E.06289
G1 X138.15 Y116.763 E.00949
G1 X140.157 Y114.755 E.05058
G1 X140.277 Y116.608 E.03308
G1 X140.265 Y116.651 E.0008
G1 X139.446 Y116.956 E.01557
G1 X138.678 Y116.841 E.01384
G1 X140.044 Y115.475 E.03442
G1 X140.044 Y115.475 F10800
G1 X139.871 Y116.324
;WIDTH:0.490756
G1 F4800
G1 X139.829 Y116.283 E.00115
G1 X139.773 Y116.298 E.00113
G1 X139.757 Y116.355 E.00116
G1 X139.799 Y116.396 E.00115
G1 X139.856 Y116.381 E.00115
M106 S170.85
;LAYER_CHANGE
;Z:0.4
;HEIGHT:0.1
;BEFORE_LAYER_CHANGE
G92 E0.0
