; generated by PrusaSlicer 2.9.0 on 2025-01-10 at 23:49:05 UTC


;
;
; 

; external perimeters extrusion width = 0.45mm
; perimeters extrusion width = 0.45mm
; infill extrusion width = 0.45mm
; solid infill extrusion width = 0.45mm
; top infill extrusion width = 0.40mm
; first layer extrusion width = 0.42mm

M73 P0 R8
M73 Q0 S8
M201 X1000 Y1000 Z200 E5000 ; sets maximum accelerations, mm/sec^2
M203 X200 Y200 Z12 E120 ; sets maximum feedrates, mm / sec
M204 S1250 T1250 ; sets acceleration (S) and retract acceleration (R), mm/sec^2
M205 X8.00 Y8.00 Z0.40 E4.50 ; sets the jerk limits, mm/sec
M205 S0 T0 ; sets the minimum extruding and travel feed rate, mm/sec

; printing object ACLibrary_Bookmark.stl id:0 copy 0
; stop printing object ACLibrary_Bookmark.stl id:0 copy 0

;TYPE:Custom
M862.3 P "MK3S" ; printer model check
M862.1 P0.4 ; nozzle diameter check
M115 U3.13.3 ; tell printer latest fw version
G90 ; use absolute coordinates
M83 ; extruder relative mode
M104 S215 ; set extruder temp
M140 S60 ; set bed temp
M190 S60 ; wait for bed temp
M109 S215 ; wait for extruder temp
G28 W ; home all without mesh bed level
G80 X105 Y80.4339 W40 H49.1531 ; mesh bed levelling

G1 Z0.2 F720
G1 Y-3 F1000 ; go outside print area
G92 E0
G1 X60 E9 F1000 ; intro line
G1 X100 E12.5 F1000 ; intro line

G92 E0
M221 S95

; Don't change E values below. Excessive value can damage the printer.
M907 E430 ; set extruder motor current
G21 ; set units to millimeters
G90 ; use absolute coordinates
M83 ; use relative distances for extrusion

M900 K0.05 ; Filament gcode LA 1.5
M900 K30 ; Filament gcode LA 1.0




M107
;LAYER_CHANGE
;Z:0.2
;HEIGHT:0.2
G1 E-.8 F2100
M73 P1 R8
M73 Q1 S8
G1 Z.6 F720
; printing object ACLibrary_Bookmark.stl id:0 copy 0
G1 X119.855 Y114.94 F10800
G1 Z.2 F720
G1 E.8 F2100
M204 S800
;TYPE:External perimeter
;WIDTH:0.457615
G1 F1200
G1 X119.834 Y114.961 E.00102
;WIDTH:0.419999
G1 X119.723 Y114.997 E.00366
G1 X117.279 Y114.997 E.07663
G1 X117.138 Y114.934 E.00484
G1 X117.09 Y114.808 E.00423
G1 X117.09 Y93.529 E.66719
G1 X116.933 Y92.728 E.02559
G1 X116.661 Y92.033 E.0234
G1 X116.267 Y91.408 E.02317
G1 X115.768 Y90.879 E.0228
G1 X115.183 Y90.465 E.02247
G1 X114.535 Y90.18 E.0222
G1 X113.849 Y90.036 E.02198
G1 X113.151 Y90.036 E.02189
G1 X112.465 Y90.18 E.02198
G1 X112.134 Y90.325 E.01133
G1 X111.817 Y90.465 E.01087
G1 X111.232 Y90.879 E.02247
G1 X110.733 Y91.408 E.0228
G1 X110.339 Y92.033 E.02317
G1 X110.067 Y92.73 E.02346
G1 X109.91 Y93.504 E.02476
G1 X109.91 Y114.808 E.66797
G1 X109.847 Y114.949 E.00484
M73 Q2 S8
G1 X109.721 Y114.997 E.00423
G1 X107.276 Y114.997 E.07666
G1 X107.164 Y114.96 E.0037
M73 P2 R8
;WIDTH:0.469986
G1 X107.113 Y114.91 E.00254
;WIDTH:0.519973
G1 X107.063 Y114.859 E.00283
;WIDTH:0.56996
G1 X107.012 Y114.808 E.00316
G1 X107.012 Y87.071 E1.21553
G1 X107.058 Y87.024 E.00288
;WIDTH:0.519973
G1 X107.103 Y86.977 E.00258
;WIDTH:0.469986
G1 X107.149 Y86.931 E.00231
;WIDTH:0.419999
G1 X107.233 Y86.898 E.00283
G1 X107.363 Y86.396 E.01626
G1 X107.577 Y85.85 E.01839
G1 X107.848 Y85.329 E.01841
G1 X108.174 Y84.837 E.01851
G1 X108.55 Y84.376 E.01865
G1 X108.974 Y83.953 E.01878
G1 X109.44 Y83.568 E.01895
G1 X109.945 Y83.229 E.01907
G1 X110.483 Y82.936 E.01921
G1 X111.051 Y82.692 E.01938
G1 X111.641 Y82.5 E.01945
G1 X112.248 Y82.362 E.01952
G1 X113.483 Y82.25 E.03888
G1 X114.114 Y82.276 E.0198
G1 X114.69 Y82.353 E.01822
G1 X115.251 Y82.475 E.018
G1 X115.79 Y82.64 E.01767
G1 X116.304 Y82.844 E.01734
G1 X116.787 Y83.082 E.01688
G1 X117.235 Y83.35 E.01637
G1 X117.648 Y83.641 E.01584
G1 X118.409 Y84.334 E.03227
G1 X118.815 Y84.821 E.01988
G1 X119.142 Y85.313 E.01852
G1 X119.415 Y85.832 E.01839
G1 X119.63 Y86.374 E.01828
G1 X119.767 Y86.899 E.01701
G1 X119.85 Y86.931 E.00279
;WIDTH:0.457615
G1 X119.884 Y86.966 E.00168
;WIDTH:0.49523
G1 X119.919 Y87.001 E.00186
;WIDTH:0.532845
G1 X119.953 Y87.036 E.00199
;WIDTH:0.57046
G1 X119.987 Y87.071 E.00214
G1 X119.987 Y114.808 E1.21669
G1 X119.949 Y114.847 E.00239
;WIDTH:0.532845
G1 X119.911 Y114.885 E.00219
;WIDTH:0.49523
G1 X119.898 Y114.898 E.00069
M204 S1000
;WIPE_START
G1 F8640
G1 X119.855 Y114.94 E-.01388
G1 X119.834 Y114.961 E-.00686
G1 X119.723 Y114.997 E-.02694
G1 X117.279 Y114.997 E-.56433
G1 X117.138 Y114.934 E-.03566
G1 X117.09 Y114.808 E-.03113
G1 X117.09 Y114.283 E-.1212
;WIPE_END
G1 Z.6 F720
G1 X106.61 Y115.169 F10800
G1 Z.2 F720
G1 E.8 F2100
M204 S800
;TYPE:Perimeter
;WIDTH:0.419999
G1 F1200
G1 X106.749 Y114.923 E.00886
G1 X106.94 Y115.264 E.01225
G1 X107.08 Y115.339 E.00498
G1 X107.276 Y115.374 E.00624
G1 X109.815 Y115.366 E.07961
G1 X110.059 Y115.263 E.0083
G1 X110.237 Y115.04 E.00895
G1 X110.287 Y114.808 E.00744
G1 X110.287 Y93.542 E.66678
G1 X110.43 Y92.837 E.02255
M73 P3 R8
M73 Q3 S8
G1 X110.677 Y92.203 E.02133
G1 X111.032 Y91.64 E.02087
G1 X111.48 Y91.165 E.02047
G1 X112.003 Y90.794 E.02011
G1 X112.58 Y90.541 E.01975
G1 X113.19 Y90.413 E.01954
G1 X113.81 Y90.413 E.01944
G1 X114.42 Y90.541 E.01954
G1 X114.997 Y90.794 E.01975
G1 X115.52 Y91.165 E.02011
G1 X115.968 Y91.64 E.02047
G1 X116.323 Y92.203 E.02087
G1 X116.568 Y92.832 E.02117
G1 X116.713 Y93.592 E.02426
G1 X116.713 Y114.808 E.66521
G1 X116.809 Y115.124 E.01036
G1 X117.003 Y115.303 E.00828
G1 X117.279 Y115.374 E.00894
G1 X119.764 Y115.373 E.07792
G1 X120.056 Y115.266 E.00975
G1 X120.251 Y114.921 E.01243
G1 X120.446 Y115.266 E.01243
G1 X120.586 Y115.34 E.00497
G1 X120.779 Y115.374 E.00614
G1 X144.213 Y115.374 E.73476
G1 X144.213 Y122.087 E.21048
G1 X144.213 Y128.8 E.21048
G1 X105.787 Y128.8 E1.20482
G1 X105.787 Y115.374 E.42096
M73 P4 R8
M73 Q4 S8
G1 X106.417 Y115.339 E.01978
G1 X106.557 Y115.264 E.00498
G1 X106.58 Y115.222 E.0015
M204 S1000
;WIPE_START
G1 F8640
G1 X106.61 Y115.169 E-.01406
G1 X106.749 Y114.923 E-.06524
G1 X106.94 Y115.264 E-.09025
G1 X107.08 Y115.339 E-.03667
G1 X107.276 Y115.374 E-.04597
G1 X109.648 Y115.367 E-.54781
;WIPE_END
G1 Z.6 F720
G1 X120.247 Y87.053 F10800
G1 Z.2 F720
G1 E.8 F2100
M204 S800
;WIDTH:0.351696
G1 F1200
G1 X120.051 Y86.628 E.01202
;WIDTH:0.35828
G1 X119.908 Y86.137 E.01341
;WIDTH:0.384279
G1 X119.827 Y85.898 E.00716
;WIDTH:0.410277
G1 X119.745 Y85.66 E.00769
;WIDTH:0.436068
G1 X119.609 Y85.376 E.01029
;WIDTH:0.461858
G1 X119.474 Y85.092 E.01095
;WIDTH:0.489195
G1 X119.253 Y84.754 E.01499
;WIDTH:0.516531
G1 X119.032 Y84.415 E.01594
;WIDTH:0.535095
G1 X118.716 Y84.026 E.02051
;WIDTH:0.548505
G1 X118.315 Y83.618 E.02405
;WIDTH:0.559817
G1 X117.932 Y83.295 E.02153
;WIDTH:0.565779
G1 X117.486 Y82.976 E.02384
;WIDTH:0.568083
G1 X117.002 Y82.686 E.02464
G1 X116.481 Y82.429 E.02537
;WIDTH:0.567087
G1 X115.929 Y82.212 E.02585
;WIDTH:0.565299
G1 X115.35 Y82.038 E.02626
;WIDTH:0.56254
G1 X114.75 Y81.91 E.02651
;WIDTH:0.559829
G1 X114.134 Y81.831 E.02669
;WIDTH:0.55739
G1 X113.444 Y81.806 E.02954
;WIDTH:0.570461
G1 X112.15 Y81.927 E.05701
;WIDTH:0.55962
G1 X111.559 Y82.06 E.02603
;WIDTH:0.565291
G1 X111.071 Y82.212 E.0222
;WIDTH:0.567086
G1 X110.519 Y82.43 E.02587
;WIDTH:0.568083
G1 X109.998 Y82.686 E.02535
G1 X109.514 Y82.976 E.02464
;WIDTH:0.56578
G1 X109.068 Y83.295 E.02384
;WIDTH:0.559818
G1 X108.662 Y83.64 E.0229
;WIDTH:0.549077
G1 X108.217 Y84.103 E.02703
;WIDTH:0.527423
G1 X107.827 Y84.607 E.02567
;WIDTH:0.497308
G1 X107.497 Y85.146 E.02388
;WIDTH:0.456854
G1 X107.255 Y85.66 E.01955
;WIDTH:0.410278
G1 X107.173 Y85.898 E.00769
;WIDTH:0.384274
G1 X107.092 Y86.137 E.00716
;WIDTH:0.358269
G1 X106.949 Y86.627 E.01338
;WIDTH:0.351682
G1 X106.753 Y87.051 E.01199
G1 X106.753 Y86.275 E.01992
;WIDTH:0.358269
G1 X106.79 Y86.051 E.00595
;WIDTH:0.407927
G1 X106.907 Y85.548 E.01567
;WIDTH:0.453406
G1 X107.083 Y85.058 E.01777
;WIDTH:0.489518
G1 X107.312 Y84.584 E.01955
;WIDTH:0.516533
G1 X107.594 Y84.124 E.02125
;WIDTH:0.535101
G1 X107.928 Y83.686 E.02254
;WIDTH:0.54851
G1 X108.347 Y83.242 E.02566
;WIDTH:0.559818
G1 X108.75 Y82.888 E.02305
;WIDTH:0.56578
G1 X109.233 Y82.535 E.02601
;WIDTH:0.568083
G1 X109.757 Y82.219 E.02672
G1 X110.321 Y81.944 E.0274
;WIDTH:0.567086
G1 X110.918 Y81.713 E.0279
;WIDTH:0.565291
G1 X111.541 Y81.53 E.0282
;WIDTH:0.56254
G1 X112.185 Y81.398 E.0284
;WIDTH:0.570461
G1 X112.845 Y81.324 E.02913
G1 X113.55 Y81.292 E.03096
;WIDTH:0.556295
G1 X114.257 Y81.328 E.03022
;WIDTH:0.557325
G1 X114.958 Y81.424 E.03026
;WIDTH:0.558746
G1 X115.624 Y81.575 E.02929
;WIDTH:0.565299
G1 X116.104 Y81.72 E.02178
;WIDTH:0.567087
G1 X116.7 Y81.953 E.02789
;WIDTH:0.568083
G1 X117.264 Y82.231 E.02746
G1 X117.787 Y82.549 E.02673
;WIDTH:0.565779
G1 X118.269 Y82.904 E.02603
;WIDTH:0.559817
G1 X118.704 Y83.291 E.02502
;WIDTH:0.549069
G1 X119.113 Y83.738 E.0255
;WIDTH:0.531989
G1 X119.42 Y84.146 E.02076
;WIDTH:0.516531
G1 X119.7 Y84.606 E.02121
;WIDTH:0.489522
G1 X119.926 Y85.081 E.01953
;WIDTH:0.453405
G1 X120.017 Y85.349 E.00966
;WIDTH:0.427789
G1 X120.109 Y85.617 E.00907
;WIDTH:0.402173
G1 X120.178 Y85.881 E.00815
;WIDTH:0.376935
G1 X120.247 Y86.145 E.00758
;WIDTH:0.351696
G1 X120.247 Y86.993 E.02177
M204 S1000
;WIPE_START
G1 F8640
G1 X120.247 Y87.053 E-.01385
G1 X120.051 Y86.628 E-.10807
G1 X119.908 Y86.137 E-.11808
G1 X119.827 Y85.898 E-.05827
G1 X119.745 Y85.66 E-.05813
G1 X119.609 Y85.376 E-.07271
G1 X119.474 Y85.092 E-.07261
G1 X119.253 Y84.754 E-.09325
G1 X119.032 Y84.415 E-.09344
G1 X118.727 Y84.04 E-.11159
;WIPE_END
G1 Z.6 F720
G1 X106.353 Y114.94 F10800
G1 Z.2 F720
M73 Q5 S8
G1 E.8 F2100
M204 S800
;TYPE:External perimeter
;WIDTH:0.469986
G1 F1200
G1 X106.384 Y114.91 E.00153
;WIDTH:0.519973
G1 X106.434 Y114.859 E.00283
;WIDTH:0.56996
G1 X106.485 Y114.808 E.00316
G1 X106.485 Y87.071 E1.21553
G1 X106.46 Y86.914 E.00697
M73 P5 R8
;WIDTH:0.519973
G1 X106.435 Y86.758 E.00627
;WIDTH:0.469986
G1 X106.41 Y86.602 E.00561
;WIDTH:0.419999
G1 X106.41 Y86.192 E.01286
G1 X106.543 Y85.47 E.02302
G1 X106.708 Y84.932 E.01764
G1 X106.937 Y84.408 E.01793
G1 X107.23 Y83.902 E.01833
G1 X107.582 Y83.421 E.01869
G1 X107.992 Y82.968 E.01916
G1 X108.457 Y82.549 E.01963
G1 X108.971 Y82.168 E.02006
G1 X109.53 Y81.828 E.02051
G1 X110.13 Y81.535 E.02094
G1 X110.762 Y81.289 E.02126
G1 X111.422 Y81.096 E.02156
G1 X112.103 Y80.957 E.02179
G1 X112.798 Y80.873 E.02195
G1 X113.5 Y80.844 E.02203
G1 X114.202 Y80.873 E.02203
G1 X114.897 Y80.957 E.02195
G1 X115.578 Y81.096 E.02179
G1 X116.238 Y81.289 E.02156
G1 X116.87 Y81.535 E.02126
G1 X117.47 Y81.828 E.02094
G1 X118.029 Y82.168 E.02051
G1 X118.543 Y82.549 E.02006
G1 X119.008 Y82.968 E.01963
G1 X119.418 Y83.421 E.01916
G1 X119.77 Y83.902 E.01869
G1 X120.063 Y84.408 E.01833
G1 X120.292 Y84.932 E.01793
G1 X120.457 Y85.47 E.01764
G1 X120.551 Y85.989 E.01654
G1 X120.59 Y86.042 E.00206
G1 X120.59 Y86.603 E.01759
;WIDTH:0.457615
G1 X120.571 Y86.72 E.00409
;WIDTH:0.49523
G1 X120.552 Y86.837 E.00446
;WIDTH:0.532845
G1 X120.534 Y86.954 E.00482
;WIDTH:0.57046
G1 X120.515 Y87.071 E.0052
G1 X120.515 Y114.808 E1.21669
G1 X120.553 Y114.847 E.00239
;WIDTH:0.532845
G1 X120.591 Y114.885 E.00219
;WIDTH:0.49523
G1 X120.63 Y114.923 E.00205
;WIDTH:0.457615
G1 X120.668 Y114.961 E.00185
;WIDTH:0.419999
G1 X120.779 Y114.997 E.00366
G1 X144.59 Y114.997 E.74658
G1 X144.59 Y122.087 E.2223
M73 P5 R7
M73 Q6 S8
G1 X144.59 Y129.177 E.2223
M73 P6 R7
M73 Q6 S7
G1 X105.41 Y129.177 E1.22846
G1 X105.41 Y114.997 E.4446
G1 X106.221 Y114.997 E.02543
G1 X106.303 Y114.97 E.00271
M204 S1000
;WIPE_START
G1 F8640
G1 X106.353 Y114.94 E-.01346
G1 X106.384 Y114.91 E-.00996
G1 X106.434 Y114.859 E-.01649
G1 X106.485 Y114.808 E-.01665
G1 X106.485 Y111.588 E-.74344
;WIPE_END
G1 Z.6 F720
G1 X144.043 Y116.307 F10800
G1 Z.2 F720
G1 E.8 F2100
M204 S800
;TYPE:Solid infill
;WIDTH:0.420399
G1 F1200
G1 X143.45 Y115.713 E.02634
G1 X142.916 Y115.713 E.01676
G1 X143.874 Y116.671 E.04252
G1 X143.874 Y117.205 E.01676
G1 X142.382 Y115.713 E.06623
G1 X141.848 Y115.713 E.01676
G1 X143.874 Y117.739 E.08993
G1 X143.874 Y118.273 E.01676
G1 X141.314 Y115.713 E.11363
G1 X140.781 Y115.713 E.01673
M73 Q7 S7
G1 X143.874 Y118.806 E.13729
G1 X143.874 Y119.34 E.01676
G1 X140.247 Y115.713 E.161
G1 X139.713 Y115.713 E.01676
M73 P7 R7
G1 X143.874 Y119.874 E.1847
G1 X143.874 Y120.408 E.01676
G1 X139.179 Y115.713 E.2084
G1 X138.645 Y115.713 E.01676
G1 X143.874 Y120.942 E.23211
G1 X143.874 Y121.476 E.01676
G1 X138.111 Y115.713 E.25581
G1 X137.578 Y115.713 E.01673
G1 X143.874 Y122.009 E.27947
G1 X143.874 Y122.543 E.01676
G1 X137.044 Y115.713 E.30317
G1 X136.51 Y115.713 E.01676
G1 X143.874 Y123.077 E.32688
G1 X143.874 Y123.611 E.01676
G1 X135.976 Y115.713 E.35058
G1 X135.442 Y115.713 E.01676
G1 X143.874 Y124.145 E.37428
G1 X143.874 Y124.679 E.01676
G1 X134.908 Y115.713 E.39799
M73 Q8 S7
G1 X134.375 Y115.713 E.01673
M73 P8 R7
G1 X143.874 Y125.212 E.42165
G1 X143.874 Y125.746 E.01676
G1 X133.841 Y115.713 E.44535
G1 X133.307 Y115.713 E.01676
G1 X143.874 Y126.28 E.46905
G1 X143.874 Y126.814 E.01676
G1 X132.773 Y115.713 E.49276
G1 X132.239 Y115.713 E.01676
G1 X143.874 Y127.348 E.51646
G1 X143.874 Y127.882 E.01676
G1 X131.705 Y115.713 E.54017
G1 X131.172 Y115.713 E.01673
M73 Q9 S7
G1 X143.874 Y128.415 E.56382
G1 X143.874 Y128.461 E.00144
M73 P9 R7
G1 X143.385 Y128.461 E.01535
G1 X130.638 Y115.713 E.56584
G1 X130.104 Y115.713 E.01676
G1 X142.851 Y128.461 E.56584
G1 X142.317 Y128.461 E.01676
G1 X129.57 Y115.713 E.56584
G1 X129.036 Y115.713 E.01676
G1 X141.783 Y128.461 E.56584
G1 X141.25 Y128.461 E.01673
M73 Q10 S7
G1 X128.502 Y115.713 E.56587
G1 X127.969 Y115.713 E.01673
M73 P10 R7
G1 X140.716 Y128.461 E.56584
G1 X140.182 Y128.461 E.01676
G1 X127.435 Y115.713 E.56584
G1 X126.901 Y115.713 E.01676
G1 X139.648 Y128.461 E.56584
G1 X139.114 Y128.461 E.01676
G1 X126.367 Y115.713 E.56584
G1 X125.833 Y115.713 E.01676
G1 X138.58 Y128.461 E.56584
G1 X138.046 Y128.461 E.01676
M73 P11 R7
M73 Q11 S7
G1 X125.299 Y115.713 E.56584
G1 X124.766 Y115.713 E.01673
G1 X137.513 Y128.461 E.56584
G1 X136.979 Y128.461 E.01676
G1 X124.232 Y115.713 E.56584
G1 X123.698 Y115.713 E.01676
G1 X136.445 Y128.461 E.56584
G1 X135.911 Y128.461 E.01676
G1 X123.164 Y115.713 E.56584
G1 X122.63 Y115.713 E.01676
M73 Q12 S7
G1 X135.377 Y128.461 E.56584
G1 X134.843 Y128.461 E.01676
M73 P12 R7
G1 X122.096 Y115.713 E.56584
G1 X121.563 Y115.713 E.01673
G1 X134.31 Y128.461 E.56584
G1 X133.776 Y128.461 E.01676
G1 X121.029 Y115.713 E.56584
G1 X120.765 Y115.713 E.00829
G1 X120.472 Y115.662 E.00933
G1 X120.411 Y115.63 E.00216
G1 X133.242 Y128.461 E.56955
G1 X132.708 Y128.461 E.01676
G1 X119.931 Y115.684 E.56715
G1 X119.818 Y115.709 E.00363
M73 P13 R7
M73 Q13 S7
G1 X119.424 Y115.71 E.01237
G1 X132.174 Y128.461 E.56598
G1 X131.64 Y128.461 E.01676
G1 X118.891 Y115.711 E.56593
G1 X118.358 Y115.712 E.01673
G1 X131.107 Y128.461 E.56591
G1 X130.573 Y128.461 E.01676
G1 X117.655 Y115.543 E.57341
M204 S1000
;WIPE_START
G1 F8640
G1 X120.105 Y117.993 E-.8
;WIPE_END
G1 Z.6 F720
G1 X116.418 Y92.953 F10800
G1 Z.2 F720
G1 E.8 F2100
M204 S800
G1 F1200
M73 Q14 S7
G1 X114.345 Y90.879 E.09204
G1 X113.775 Y90.752 E.01833
G1 X113.684 Y90.752 E.00286
G1 X116.329 Y93.397 E.11741
G1 X116.374 Y93.638 E.0077
G1 X116.374 Y93.976 E.01061
G1 X113.163 Y90.765 E.14253
G1 X112.722 Y90.858 E.01415
M73 P14 R7
G1 X116.374 Y94.509 E.16209
G1 X116.374 Y95.043 E.01676
G1 X112.345 Y91.015 E.17882
G1 X112.172 Y91.091 E.00593
G1 X112.005 Y91.209 E.00642
G1 X116.374 Y95.577 E.19391
G1 X116.374 Y96.111 E.01676
G1 X111.695 Y91.432 E.20769
G1 X111.436 Y91.707 E.01186
G1 X116.374 Y96.645 E.21919
G1 X116.374 Y97.179 E.01676
G1 X111.202 Y92.007 E.22958
G1 X110.996 Y92.334 E.01213
G1 X116.374 Y97.712 E.23872
G1 X116.374 Y98.246 E.01676
G1 X110.842 Y92.715 E.24554
G1 X110.757 Y92.933 E.00734
G1 X110.718 Y93.124 E.00612
G1 X116.374 Y98.78 E.25106
G1 X116.374 Y99.314 E.01676
G1 X110.626 Y93.576 E.25492
G1 X110.626 Y94.101 E.01648
G1 X116.374 Y99.848 E.25512
G1 X116.374 Y100.382 E.01676
G1 X110.626 Y94.634 E.25515
G1 X110.626 Y95.168 E.01676
M73 Q15 S7
G1 X116.374 Y100.915 E.25512
G1 X116.374 Y101.449 E.01676
M73 P15 R7
G1 X110.626 Y95.702 E.25512
G1 X110.626 Y96.236 E.01676
G1 X116.374 Y101.983 E.25512
G1 X116.374 Y102.517 E.01676
G1 X110.626 Y96.769 E.25515
G1 X110.626 Y97.303 E.01676
G1 X116.374 Y103.051 E.25515
