; generated by PrusaSlicer 2.9.0 on 2025-01-15 at 02:20:57 UTC


;
;
; 

; external perimeters extrusion width = 0.45mm
; perimeters extrusion width = 0.45mm
; infill extrusion width = 0.45mm
; solid infill extrusion width = 0.45mm
; top infill extrusion width = 0.40mm
; first layer extrusion width = 0.42mm

; external perimeters extrusion width = 0.45mm
; perimeters extrusion width = 0.45mm
; infill extrusion width = 0.45mm
; solid infill extrusion width = 0.45mm
; top infill extrusion width = 0.40mm
; first layer extrusion width = 0.42mm

; external perimeters extrusion width = 0.45mm
; perimeters extrusion width = 0.45mm
; infill extrusion width = 0.45mm
; solid infill extrusion width = 0.45mm
; top infill extrusion width = 0.40mm
; first layer extrusion width = 0.42mm

; external perimeters extrusion width = 0.45mm
; perimeters extrusion width = 0.45mm
; infill extrusion width = 0.45mm
; solid infill extrusion width = 0.45mm
; top infill extrusion width = 0.40mm
; first layer extrusion width = 0.42mm

; external perimeters extrusion width = 0.45mm
; perimeters extrusion width = 0.45mm
; infill extrusion width = 0.45mm
; solid infill extrusion width = 0.45mm
; top infill extrusion width = 0.40mm
; first layer extrusion width = 0.42mm

; external perimeters extrusion width = 0.45mm
; perimeters extrusion width = 0.45mm
; infill extrusion width = 0.45mm
; solid infill extrusion width = 0.45mm
; top infill extrusion width = 0.40mm
; first layer extrusion width = 0.42mm

; external perimeters extrusion width = 0.45mm
; perimeters extrusion width = 0.45mm
; infill extrusion width = 0.45mm
; solid infill extrusion width = 0.45mm
; top infill extrusion width = 0.40mm
; first layer extrusion width = 0.42mm

; external perimeters extrusion width = 0.45mm
; perimeters extrusion width = 0.45mm
; infill extrusion width = 0.45mm
; solid infill extrusion width = 0.45mm
; top infill extrusion width = 0.40mm
; first layer extrusion width = 0.42mm

; external perimeters extrusion width = 0.45mm
; perimeters extrusion width = 0.45mm
; infill extrusion width = 0.45mm
; solid infill extrusion width = 0.45mm
; top infill extrusion width = 0.40mm
; first layer extrusion width = 0.42mm

; external perimeters extrusion width = 0.45mm
; perimeters extrusion width = 0.45mm
; infill extrusion width = 0.45mm
; solid infill extrusion width = 0.45mm
; top infill extrusion width = 0.40mm
; first layer extrusion width = 0.42mm

M73 P0 R75
M73 C66
M73 Q0 S75
M73 D66
M201 X1000 Y1000 Z200 E5000 ; sets maximum accelerations, mm/sec^2
M203 X200 Y200 Z12 E120 ; sets maximum feedrates, mm / sec
M204 S1250 T1250 ; sets acceleration (S) and retract acceleration (R), mm/sec^2
M205 X8.00 Y8.00 Z0.40 E4.50 ; sets the jerk limits, mm/sec
M205 S0 T0 ; sets the minimum extruding and travel feed rate, mm/sec

; printing object ACLibrary_Bookmark.stl id:9 copy 0
; stop printing object ACLibrary_Bookmark.stl id:9 copy 0
; printing object ACLibrary_Bookmark.stl id:3 copy 0
; stop printing object ACLibrary_Bookmark.stl id:3 copy 0
; printing object ACLibrary_Bookmark.stl id:4 copy 0
; stop printing object ACLibrary_Bookmark.stl id:4 copy 0
; printing object ACLibrary_Bookmark.stl id:2 copy 0
; stop printing object ACLibrary_Bookmark.stl id:2 copy 0
; printing object ACLibrary_Bookmark.stl id:5 copy 0
; stop printing object ACLibrary_Bookmark.stl id:5 copy 0
; printing object ACLibrary_Bookmark.stl id:6 copy 0
; stop printing object ACLibrary_Bookmark.stl id:6 copy 0
; printing object Shape-Box id:0 copy 0
; stop printing object Shape-Box id:0 copy 0
; printing object ACLibrary_Bookmark.stl id:1 copy 0
; stop printing object ACLibrary_Bookmark.stl id:1 copy 0
; printing object ACLibrary_Bookmark.stl id:7 copy 0
; stop printing object ACLibrary_Bookmark.stl id:7 copy 0
; printing object ACLibrary_Bookmark.stl id:8 copy 0
; stop printing object ACLibrary_Bookmark.stl id:8 copy 0

;TYPE:Custom
M862.3 P "MK3S" ; printer model check
M862.1 P0.4 ; nozzle diameter check
M115 U3.13.3 ; tell printer latest fw version
G90 ; use absolute coordinates
M83 ; extruder relative mode
M104 S215 ; set extruder temp
M140 S60 ; set bed temp
M190 S60 ; wait for bed temp
M109 S215 ; wait for extruder temp
G28 W ; home all without mesh bed level
G80 X59 Y2 W189 H182.765 ; mesh bed levelling

G1 Z0.2 F720
G1 Y-3 F1000 ; go outside print area
G92 E0
G1 X60 E9 F1000 ; intro line
G1 X100 E12.5 F1000 ; intro line

G92 E0
M221 S95

; Don't change E values below. Excessive value can damage the printer.
M907 E430 ; set extruder motor current
G21 ; set units to millimeters
G90 ; use absolute coordinates
M83 ; use relative distances for extrusion

M900 K0.05 ; Filament gcode LA 1.5
M900 K30 ; Filament gcode LA 1.0




M107
;LAYER_CHANGE
;Z:0.2
;HEIGHT:0.2
G1 E-.8 F2100
G1 Z.6 F720
; printing object Shape-Box id:0 copy 0
G1 X245.045 Y2.815 F10800
G1 Z.2 F720
G1 E.8 F2100
M204 S800
;TYPE:Perimeter
;WIDTH:0.419999
G1 F1200
G1 X245.268 Y2.819 E.00699
G1 X245.704 Y2.916 E.014
G1 X246.078 Y3.082 E.01283
G1 X246.426 Y3.325 E.01331
G1 X246.724 Y3.637 E.01353
G1 X246.971 Y4.023 E.01437
G1 X247.119 Y4.407 E.0129
G1 X247.193 Y4.825 E.01331
G1 X247.186 Y5.248 E.01326
G1 X247.099 Y5.66 E.0132
G1 X246.936 Y6.045 E.01311
G1 X246.695 Y6.399 E.01343
G1 X246.365 Y6.726 E.01457
G1 X246.021 Y6.949 E.01285
G1 X245.631 Y7.108 E.01321
G1 X245.21 Y7.188 E.01344
G1 X244.751 Y7.186 E.01439
G1 X244.344 Y7.098 E.01306
G1 X243.911 Y6.912 E.01478
G1 X243.576 Y6.677 E.01283
G1 X243.279 Y6.367 E.01346
G1 X243.028 Y5.976 E.01457
G1 X242.882 Y5.594 E.01282
G1 X242.807 Y5.179 E.01322
G1 X242.817 Y4.75 E.01345
G1 X242.916 Y4.296 E.01457
G1 X243.082 Y3.922 E.01283
G1 X243.326 Y3.573 E.01335
G1 X243.63 Y3.279 E.01326
G1 X243.982 Y3.05 E.01317
M73 P0 R74
G1 X244.369 Y2.892 E.01311
G1 X244.798 Y2.812 E.01368
G1 X244.985 Y2.814 E.00586
M204 S1000
G1 X244.985 Y2.814 F10800
G1 X245.049 Y2.412
M204 S800
;TYPE:External perimeter
G1 F1200
G1 X245.583 Y2.478 E.01687
G1 X246.053 Y2.635 E.01554
G1 X246.485 Y2.879 E.01556
G1 X246.864 Y3.204 E.01565
G1 X247.196 Y3.629 E.01691
G1 X247.309 Y3.855 E.00792
G1 X247.482 Y4.306 E.01515
G1 X247.569 Y4.796 E.0156
G1 X247.589 Y5.045 E.00783
G1 X247.533 Y5.538 E.01556
G1 X247.383 Y6.012 E.01559
G1 X247.147 Y6.447 E.01552
G1 X246.798 Y6.863 E.01703
G1 X246.41 Y7.171 E.01553
G1 X245.97 Y7.401 E.01557
G1 X245.495 Y7.541 E.01553
G1 X244.954 Y7.589 E.01703
G1 X244.463 Y7.533 E.01549
G1 X243.946 Y7.365 E.01704
G1 X243.515 Y7.121 E.01553
G1 X243.138 Y6.799 E.01555
G1 X242.804 Y6.371 E.01702
G1 X242.583 Y5.928 E.01552
G1 X242.45 Y5.449 E.01559
G1 X242.411 Y4.956 E.01551
G1 X242.478 Y4.417 E.01703
G1 X242.635 Y3.947 E.01554
G1 X242.879 Y3.515 E.01556
G1 X243.202 Y3.137 E.01559
G1 X243.59 Y2.829 E.01553
G1 X244.03 Y2.599 E.01557
G1 X244.505 Y2.459 E.01553
G1 X244.989 Y2.416 E.01524
M204 S1000
;WIPE_START
G1 F8640
G1 X245.049 Y2.412 E-.01388
G1 X245.583 Y2.478 E-.12424
G1 X246.053 Y2.635 E-.11442
G1 X246.485 Y2.879 E-.11456
G1 X246.864 Y3.204 E-.11528
G1 X247.196 Y3.629 E-.12453
G1 X247.309 Y3.855 E-.05834
G1 X247.482 Y4.306 E-.11154
G1 X247.5 Y4.405 E-.02321
;WIPE_END
G1 Z.6 F720
; stop printing object Shape-Box id:0 copy 0
; printing object ACLibrary_Bookmark.stl id:6 copy 0
G1 X165.855 Y170.118 F10800
G1 Z.2 F720
G1 E.8 F2100
M204 S800
;WIDTH:0.457615
G1 F1200
G1 X165.834 Y170.139 E.00102
;WIDTH:0.419999
G1 X165.723 Y170.175 E.00366
G1 X163.279 Y170.175 E.07663
G1 X163.138 Y170.112 E.00484
G1 X163.09 Y169.986 E.00423
G1 X163.09 Y148.706 E.66722
G1 X162.933 Y147.906 E.02556
G1 X162.661 Y147.21 E.02343
G1 X162.267 Y146.586 E.02314
G1 X161.768 Y146.057 E.0228
G1 X161.183 Y145.642 E.02249
G1 X160.535 Y145.358 E.02218
G1 X159.849 Y145.214 E.02198
G1 X159.151 Y145.214 E.02189
G1 X158.465 Y145.358 E.02198
G1 X158.134 Y145.503 E.01133
G1 X157.817 Y145.642 E.01085
G1 X157.232 Y146.057 E.02249
G1 X156.733 Y146.586 E.0228
G1 X156.339 Y147.21 E.02314
G1 X156.067 Y147.908 E.02349
G1 X155.91 Y148.682 E.02476
G1 X155.91 Y169.986 E.66797
G1 X155.847 Y170.127 E.00484
G1 X155.721 Y170.175 E.00423
G1 X153.276 Y170.175 E.07666
G1 X153.164 Y170.138 E.0037
;WIDTH:0.469986
G1 X153.113 Y170.087 E.00256
;WIDTH:0.519973
G1 X153.063 Y170.037 E.0028
;WIDTH:0.56996
G1 X153.012 Y169.986 E.00316
G1 X153.012 Y142.248 E1.21558
G1 X153.058 Y142.202 E.00285
;WIDTH:0.519973
G1 X153.103 Y142.155 E.00258
;WIDTH:0.469986
G1 X153.149 Y142.108 E.00234
;WIDTH:0.419999
G1 X153.233 Y142.076 E.00282
G1 X153.363 Y141.574 E.01626
G1 X153.577 Y141.028 E.01839
G1 X153.848 Y140.507 E.01841
G1 X154.174 Y140.015 E.01851
G1 X154.55 Y139.554 E.01865
G1 X154.974 Y139.13 E.0188
G1 X155.44 Y138.746 E.01893
G1 X155.945 Y138.406 E.01909
G1 X156.483 Y138.113 E.01921
G1 X157.051 Y137.87 E.01937
G1 X157.641 Y137.678 E.01945
G1 X158.248 Y137.54 E.01952
G1 X159.483 Y137.428 E.03888
G1 X160.114 Y137.454 E.0198
G1 X160.69 Y137.531 E.01822
G1 X161.251 Y137.653 E.018
G1 X161.79 Y137.817 E.01766
G1 X162.304 Y138.022 E.01735
G1 X162.787 Y138.26 E.01688
G1 X163.235 Y138.528 E.01637
G1 X163.648 Y138.818 E.01582
G1 X164.409 Y139.512 E.03229
G1 X164.815 Y139.999 E.01988
G1 X165.142 Y140.49 E.0185
G1 X165.415 Y141.01 E.01841
G1 X165.63 Y141.552 E.01828
G1 X165.767 Y142.077 E.01701
G1 X165.85 Y142.109 E.00279
;WIDTH:0.457615
G1 X165.884 Y142.144 E.00168
;WIDTH:0.49523
G1 X165.919 Y142.178 E.00184
;WIDTH:0.532845
G1 X165.953 Y142.213 E.00199
;WIDTH:0.57046
G1 X165.987 Y142.248 E.00214
G1 X165.987 Y169.986 E1.21673
G1 X165.949 Y170.024 E.00236
;WIDTH:0.532845
G1 X165.911 Y170.063 E.00222
;WIDTH:0.49523
G1 X165.898 Y170.076 E.00069
M204 S1000
;WIPE_START
G1 F8640
G1 X165.855 Y170.118 E-.01388
G1 X165.834 Y170.139 E-.00686
G1 X165.723 Y170.175 E-.02694
G1 X163.279 Y170.175 E-.56433
G1 X163.138 Y170.112 E-.03566
G1 X163.09 Y169.986 E-.03113
G1 X163.09 Y169.461 E-.1212
;WIPE_END
G1 Z.6 F720
G1 X152.61 Y170.347 F10800
G1 Z.2 F720
G1 E.8 F2100
M204 S800
;TYPE:Perimeter
;WIDTH:0.419999
G1 F1200
G1 X152.749 Y170.1 E.00889
G1 X152.94 Y170.442 E.01228
G1 X153.08 Y170.517 E.00498
G1 X153.276 Y170.552 E.00624
G1 X155.815 Y170.544 E.07961
G1 X156.059 Y170.44 E.00832
G1 X156.237 Y170.218 E.00892
G1 X156.287 Y169.986 E.00744
G1 X156.287 Y148.72 E.66678
G1 X156.43 Y148.014 E.02259
G1 X156.677 Y147.381 E.0213
G1 X157.032 Y146.818 E.02087
G1 X157.48 Y146.343 E.02047
G1 X158.003 Y145.972 E.02011
G1 X158.58 Y145.719 E.01975
G1 X159.19 Y145.591 E.01954
G1 X159.81 Y145.591 E.01944
G1 X160.42 Y145.719 E.01954
G1 X160.997 Y145.972 E.01975
G1 X161.52 Y146.343 E.02011
G1 X161.968 Y146.818 E.02047
G1 X162.323 Y147.381 E.02087
G1 X162.568 Y148.01 E.02117
G1 X162.713 Y148.77 E.02426
G1 X162.713 Y169.986 E.66521
G1 X162.809 Y170.302 E.01036
M73 C65
G1 X163.003 Y170.48 E.00826
G1 X163.279 Y170.552 E.00894
G1 X165.764 Y170.55 E.07792
G1 X166.056 Y170.444 E.00974
G1 X166.251 Y170.099 E.01243
G1 X166.446 Y170.444 E.01243
G1 X166.586 Y170.518 E.00497
G1 X166.779 Y170.552 E.00614
G1 X190.213 Y170.552 E.73476
G1 X190.213 Y177.265 E.21048
G1 X190.213 Y183.978 E.21048
G1 X151.787 Y183.978 E1.20482
G1 X151.787 Y170.552 E.42096
G1 X152.417 Y170.517 E.01978
G1 X152.557 Y170.442 E.00498
G1 X152.58 Y170.4 E.0015
M204 S1000
;WIPE_START
G1 F8640
G1 X152.61 Y170.347 E-.01406
G1 X152.749 Y170.1 E-.06544
G1 X152.94 Y170.442 E-.09045
G1 X153.08 Y170.517 E-.03667
G1 X153.276 Y170.552 E-.04597
G1 X155.647 Y170.545 E-.54741
;WIPE_END
G1 Z.6 F720
G1 X166.247 Y142.231 F10800
G1 Z.2 F720
G1 E.8 F2100
M204 S800
;WIDTH:0.351696
G1 F1200
G1 X166.051 Y141.806 E.01202
;WIDTH:0.35828
G1 X165.908 Y141.315 E.01341
;WIDTH:0.384279
G1 X165.827 Y141.076 E.00716
;WIDTH:0.410277
G1 X165.745 Y140.838 E.00769
;WIDTH:0.436068
G1 X165.609 Y140.554 E.01029
;WIDTH:0.461858
G1 X165.474 Y140.27 E.01095
;WIDTH:0.489195
G1 X165.253 Y139.931 E.01502
;WIDTH:0.516531
G1 X165.032 Y139.592 E.01594
;WIDTH:0.535095
G1 X164.716 Y139.204 E.02048
;WIDTH:0.548505
G1 X164.315 Y138.796 E.02405
;WIDTH:0.559817
G1 X163.932 Y138.473 E.02153
;WIDTH:0.565779
G1 X163.486 Y138.154 E.02384
;WIDTH:0.568083
G1 X163.002 Y137.864 E.02464
G1 X162.481 Y137.607 E.02537
;WIDTH:0.567087
G1 X161.929 Y137.389 E.02587
;WIDTH:0.565299
G1 X161.35 Y137.215 E.02626
;WIDTH:0.56254
G1 X160.75 Y137.088 E.0265
;WIDTH:0.559829
G1 X160.134 Y137.009 E.02669
;WIDTH:0.55739
G1 X159.444 Y136.984 E.02954
;WIDTH:0.570461
G1 X158.15 Y137.105 E.05701
;WIDTH:0.55962
G1 X157.559 Y137.237 E.02602
;WIDTH:0.565291
G1 X157.071 Y137.389 E.0222
;WIDTH:0.567086
G1 X156.519 Y137.607 E.02587
;WIDTH:0.568083
G1 X155.998 Y137.864 E.02537
G1 X155.514 Y138.154 E.02464
;WIDTH:0.56578
G1 X155.068 Y138.473 E.02384
;WIDTH:0.559818
G1 X154.662 Y138.818 E.0229
;WIDTH:0.549077
G1 X154.217 Y139.281 E.02703
;WIDTH:0.527423
G1 X153.827 Y139.785 E.02567
;WIDTH:0.497308
G1 X153.497 Y140.324 E.02388
;WIDTH:0.456854
G1 X153.255 Y140.838 E.01955
;WIDTH:0.410278
G1 X153.173 Y141.076 E.00769
;WIDTH:0.384274
G1 X153.092 Y141.315 E.00716
;WIDTH:0.358269
G1 X152.949 Y141.805 E.01338
;WIDTH:0.351682
G1 X152.753 Y142.228 E.01197
G1 X152.753 Y141.452 E.01992
;WIDTH:0.358269
G1 X152.79 Y141.229 E.00593
;WIDTH:0.407927
G1 X152.907 Y140.726 E.01567
;WIDTH:0.453406
G1 X153.083 Y140.236 E.01777
;WIDTH:0.489518
G1 X153.312 Y139.762 E.01955
;WIDTH:0.516533
G1 X153.594 Y139.302 E.02125
;WIDTH:0.535101
G1 X153.928 Y138.864 E.02254
;WIDTH:0.54851
G1 X154.347 Y138.42 E.02566
;WIDTH:0.559818
G1 X154.75 Y138.066 E.02305
;WIDTH:0.56578
G1 X155.233 Y137.713 E.02601
;WIDTH:0.568083
G1 X155.757 Y137.397 E.02672
G1 X156.321 Y137.122 E.0274
;WIDTH:0.567086
G1 X156.918 Y136.89 E.02792
;WIDTH:0.565291
G1 X157.541 Y136.707 E.0282
;WIDTH:0.56254
G1 X158.185 Y136.575 E.0284
;WIDTH:0.570461
G1 X158.845 Y136.501 E.02913
G1 X159.55 Y136.47 E.03095
;WIDTH:0.556295
G1 X160.257 Y136.506 E.03022
;WIDTH:0.557325
G1 X160.958 Y136.602 E.03026
;WIDTH:0.558746
G1 X161.624 Y136.753 E.02929
;WIDTH:0.565299
G1 X162.104 Y136.897 E.02177
;WIDTH:0.567087
G1 X162.7 Y137.131 E.02791
;WIDTH:0.568083
G1 X163.264 Y137.408 E.02744
G1 X163.787 Y137.727 E.02675
;WIDTH:0.565779
G1 X164.269 Y138.081 E.026
;WIDTH:0.559817
G1 X164.704 Y138.468 E.02502
;WIDTH:0.549069
G1 X165.113 Y138.915 E.0255
;WIDTH:0.531989
G1 X165.42 Y139.324 E.0208
;WIDTH:0.516531
G1 X165.7 Y139.784 E.02121
;WIDTH:0.489522
G1 X165.926 Y140.258 E.0195
;WIDTH:0.453405
G1 X166.017 Y140.527 E.00969
;WIDTH:0.427789
G1 X166.109 Y140.795 E.00907
;WIDTH:0.402173
G1 X166.178 Y141.059 E.00815
;WIDTH:0.376935
G1 X166.247 Y141.323 E.00758
;WIDTH:0.351696
G1 X166.247 Y142.171 E.02177
M204 S1000
;WIPE_START
G1 F8640
G1 X166.247 Y142.231 E-.01385
G1 X166.051 Y141.806 E-.10807
G1 X165.908 Y141.315 E-.11808
G1 X165.827 Y141.076 E-.05827
G1 X165.745 Y140.838 E-.05813
G1 X165.609 Y140.554 E-.07271
G1 X165.474 Y140.27 E-.07261
G1 X165.253 Y139.931 E-.09344
G1 X165.032 Y139.592 E-.09344
G1 X164.727 Y139.218 E-.1114
;WIPE_END
G1 Z.6 F720
G1 X152.353 Y170.118 F10800
G1 Z.2 F720
G1 E.8 F2100
M204 S800
;TYPE:External perimeter
;WIDTH:0.469986
G1 F1200
G1 X152.384 Y170.087 E.00156
;WIDTH:0.519973
G1 X152.434 Y170.037 E.0028
;WIDTH:0.56996
G1 X152.485 Y169.986 E.00316
G1 X152.485 Y142.248 E1.21558
G1 X152.46 Y142.092 E.00692
;WIDTH:0.519973
G1 X152.435 Y141.936 E.00627
;WIDTH:0.469986
G1 X152.41 Y141.78 E.00561
;WIDTH:0.419999
G1 X152.41 Y141.37 E.01286
G1 X152.543 Y140.648 E.02302
G1 X152.708 Y140.11 E.01764
G1 X152.937 Y139.586 E.01793
G1 X153.23 Y139.08 E.01833
G1 X153.582 Y138.599 E.01869
G1 X153.992 Y138.146 E.01916
G1 X154.457 Y137.727 E.01963
G1 X154.971 Y137.346 E.02006
G1 X155.53 Y137.006 E.02051
G1 X156.13 Y136.713 E.02094
G1 X156.762 Y136.467 E.02126
G1 X157.422 Y136.274 E.02156
G1 X158.103 Y136.135 E.02179
G1 X158.798 Y136.051 E.02195
G1 X159.5 Y136.022 E.02203
G1 X160.202 Y136.051 E.02203
G1 X160.897 Y136.135 E.02195
G1 X161.578 Y136.274 E.02179
G1 X162.238 Y136.467 E.02156
G1 X162.87 Y136.713 E.02126
G1 X163.47 Y137.006 E.02094
G1 X164.029 Y137.346 E.02051
G1 X164.543 Y137.727 E.02006
G1 X165.008 Y138.146 E.01963
G1 X165.418 Y138.599 E.01916
G1 X165.77 Y139.08 E.01869
G1 X166.063 Y139.586 E.01833
G1 X166.292 Y140.11 E.01793
