; generated by PrusaSlicer 2.9.0 on 2025-01-10 at 23:53:43 UTC


;
;
; 

; external perimeters extrusion width = 1.00mm
; perimeters extrusion width = 1.00mm
; infill extrusion width = 0.45mm
; solid infill extrusion width = 0.45mm
; top infill extrusion width = 0.40mm
; first layer extrusion width = 0.42mm

M73 P0 R73
M73 Q0 S73
M201 X1000 Y1000 Z200 E5000 ; sets maximum accelerations, mm/sec^2
M203 X200 Y200 Z12 E120 ; sets maximum feedrates, mm / sec
M204 S1250 T1250 ; sets acceleration (S) and retract acceleration (R), mm/sec^2
M205 X8.00 Y8.00 Z0.40 E4.50 ; sets the jerk limits, mm/sec
M205 S0 T0 ; sets the minimum extruding and travel feed rate, mm/sec

; printing object Pencil_holder (2).stl id:0 copy 0
; stop printing object Pencil_holder (2).stl id:0 copy 0

;TYPE:Custom
M862.3 P "MK3S" ; printer model check
M862.1 P0.4 ; nozzle diameter check
M115 U3.13.0 ; tell printer latest fw version
G90 ; use absolute coordinates
M83 ; extruder relative mode
M104 S225 ; set extruder temp
M140 S60 ; set bed temp
M190 S60 ; wait for bed temp
M109 S225 ; wait for extruder temp
G28 W ; home all without mesh bed level
G80 ; mesh bed leveling

G1 Z0.2 F720
G1 Y-3 F1000 ; go outside print area
G92 E0
G1 X60 E9 F1000 ; intro line
G1 X100 E12.5 F1000 ; intro line

G92 E0
M221 S95

; Don't change E values below. Excessive value can damage the printer.
M907 E430 ; set extruder motor current
G21 ; set units to millimeters
G90 ; use absolute coordinates
M83 ; use relative distances for extrusion
M900 K0.05 ; Filament gcode LA 1.5
M900 K30 ; Filament gcode LA 1.0
M107
;LAYER_CHANGE
;Z:0.2
;HEIGHT:0.2
G1 E-.8 F2100
G1 Z.6 F720
; printing object Pencil_holder (2).stl id:0 copy 0
G1 X90.943 Y90.889 F10800
G1 Z.2 F720
G1 E.8 F2100
M204 S800
;TYPE:External perimeter
;WIDTH:0.419999
G1 F1200
G1 X96.333 Y77.879 E.4592
G1 X99.501 Y75.659 E.12614
G1 X123.907 Y65.55 E.86141
G1 X127.717 Y66.222 E.12616
G1 X152.123 Y76.333 E.86143
G1 X154.343 Y79.501 E.12614
M73 P0 R72
G1 X164.452 Y103.907 E.86141
G1 X163.964 Y106.676 E.09168
M73 Q0 S72
G1 X163.78 Y107.717 E.03447
G1 X153.669 Y132.123 E.86143
G1 X150.501 Y134.343 E.12614
G1 X126.095 Y144.452 E.86141
G1 X122.285 Y143.78 E.12616
G1 X97.879 Y133.669 E.86143
G1 X95.656 Y130.496 E.12633
G1 X85.55 Y106.095 E.86122
G1 X86.223 Y102.28 E.12632
G1 X90.92 Y90.944 E.40012
M204 S1000
;WIPE_START
G1 F8640
G1 X90.943 Y90.889 E-.01377
G1 X92.246 Y87.743 E-.78623
;WIPE_END
G1 Z.6 F720
G1 X90.161 Y93.662 F10800
G1 Z.2 F720
G1 E.8 F2100
M204 S800
;TYPE:Solid infill
;WIDTH:0.42
G1 F1200
G1 X89.659 Y95.335 E.05696
G1 X89.206 Y97.195 E.06242
G1 X88.85 Y99.075 E.06239
G1 X88.593 Y100.972 E.06242
G1 X88.435 Y102.879 E.0624
G1 X88.377 Y104.792 E.06241
G1 X88.42 Y106.705 E.0624
G1 X88.562 Y108.613 E.06239
G1 X88.803 Y110.511 E.06239
G1 X89.144 Y112.394 E.0624
G1 X89.582 Y114.256 E.06237
G1 X90.117 Y116.093 E.06239
G1 X90.429 Y116.989 E.03094
M204 S1000
;WIPE_START
G1 F8640
G1 X90.117 Y116.093 E-.21907
G1 X89.582 Y114.256 E-.44179
G1 X89.444 Y113.669 E-.13914
;WIPE_END
G1 Z.6 F720
G1 X86.127 Y104.775 F10800
G1 Z.2 F720
G1 E.8 F2100
M204 S800
G1 F1200
G1 X86.122 Y105.685 E.02967
G1 X86.167 Y106.699 E.0331
M204 S1000
;WIPE_START
G1 F8640
G1 X86.122 Y105.685 E-.23437
G1 X86.127 Y104.775 E-.21012
;WIPE_END
G1 E-.35551 F2100
G1 Z.6 F720
G1 X86.606 Y107.759 F10800
G1 Z.2 F720
G1 E.8 F2100
M204 S800
G1 F1200
G1 X86.522 Y106.476 E.04193
G1 X86.494 Y104.514 E.06398
G1 X86.59 Y102.282 E.07285
M204 S1000
;WIPE_START
G1 F8640
G1 X86.494 Y104.514 E-.51585
G1 X86.512 Y105.744 E-.28415
;WIPE_END
G1 Z.6 F720
G1 X87.07 Y101.123 F10800
G1 Z.2 F720
G1 E.8 F2100
M204 S800
G1 F1200
G1 X86.942 Y102.581 E.04773
G1 X86.871 Y104.532 E.06366
G1 X86.9 Y106.485 E.06369
G1 X87.029 Y108.433 E.06366
G1 X87.086 Y108.918 E.01592
M204 S1000
;WIPE_START
G1 F8640
G1 X87.029 Y108.433 E-.11276
G1 X86.9 Y106.485 E-.45078
G1 X86.885 Y105.461 E-.23646
;WIPE_END
G1 Z.6 F720
G1 X87.629 Y110.229 F10800
G1 Z.2 F720
G1 E.8 F2100
M204 S800
G1 F1200
G1 X87.535 Y109.604 E.02061
G1 X87.345 Y107.67 E.06337
G1 X87.254 Y105.73 E.06333
G1 X87.264 Y103.787 E.06336
G1 X87.373 Y101.847 E.06336
G1 X87.589 Y99.869 E.06488
M204 S1000
;WIPE_START
G1 F8640
G1 X87.373 Y101.847 E-.45944
G1 X87.29 Y103.319 E-.34056
;WIPE_END
G1 Z.6 F720
G1 X88.204 Y98.384 F10800
G1 Z.2 F720
G1 E.8 F2100
M204 S800
G1 F1200
G1 X87.903 Y100.372 E.06556
G1 X87.717 Y102.296 E.06303
G1 X87.63 Y104.227 E.06303
G1 X87.643 Y106.16 E.06303
G1 X87.756 Y108.09 E.06304
G1 X87.968 Y110.012 E.06305
G1 X88.248 Y111.724 E.05657
M204 S1000
;WIPE_START
G1 F8640
G1 X87.968 Y110.012 E-.40056
G1 X87.778 Y108.293 E-.39944
;WIPE_END
G1 Z.6 F720
G1 X89.041 Y113.639 F10800
G1 Z.2 F720
G1 E.8 F2100
M204 S800
G1 F1200
G1 X88.6 Y111.577 E.06876
G1 X88.304 Y109.676 E.06274
G1 X88.108 Y107.763 E.06271
G1 X88.011 Y105.842 E.06272
G1 X88.014 Y103.919 E.06271
G1 X88.117 Y101.998 E.06273
G1 X88.32 Y100.085 E.06273
G1 X88.622 Y98.185 E.06273
G1 X88.975 Y96.524 E.05537
M204 S1000
;WIPE_START
G1 F8640
G1 X88.622 Y98.185 E-.3921
G1 X88.345 Y99.93 E-.4079
;WIPE_END
G1 Z.6 F720
G1 X92.413 Y88.226 F10800
G1 Z.2 F720
G1 E.8 F2100
M204 S800
G1 F1200
G1 X93.34 Y86.529 E.06305
G1 X94.345 Y84.899 E.06244
G1 X95.434 Y83.324 E.06244
G1 X96.604 Y81.808 E.06244
G1 X97.851 Y80.355 E.06244
G1 X99.172 Y78.969 E.06244
G1 X100.564 Y77.654 E.06244
G1 X102.023 Y76.414 E.06244
G1 X103.544 Y75.251 E.06243
G1 X105.124 Y74.169 E.06244
G1 X106.759 Y73.171 E.06246
G1 X107.949 Y72.527 E.04412
M204 S1000
;WIPE_START
G1 F8640
G1 X106.759 Y73.171 E-.31243
G1 X105.124 Y74.169 E-.4423
G1 X104.962 Y74.28 E-.04527
;WIPE_END
G1 Z.6 F720
G1 X105.265 Y73.639 F10800
G1 Z.2 F720
G1 E.8 F2100
M204 S800
G1 F1200
G1 X103.89 Y74.543 E.05366
G1 X102.338 Y75.683 E.06279
G1 X100.849 Y76.902 E.06275
G1 X99.424 Y78.196 E.06277
G1 X98.069 Y79.563 E.06276
G1 X96.786 Y80.998 E.06277
G1 X95.58 Y82.498 E.06276
G1 X94.454 Y84.058 E.06274
G1 X93.579 Y85.413 E.0526
M204 S1000
;WIPE_START
G1 F8640
G1 X94.454 Y84.058 E-.37244
G1 X95.538 Y82.556 E-.42756
;WIPE_END
G1 Z.6 F720
G1 X94.336 Y83.586 F10800
G1 Z.2 F720
G1 E.8 F2100
M204 S800
G1 F1200
G1 X95.017 Y82.618 E.03859
G1 X96.212 Y81.097 E.06307
G1 X97.483 Y79.639 E.06307
G1 X98.828 Y78.249 E.06307
G1 X100.243 Y76.93 E.06308
G1 X101.725 Y75.686 E.06309
G1 X103.475 Y74.38 E.0712
M204 S1000
;WIPE_START
G1 F8640
G1 X101.725 Y75.686 E-.5042
G1 X100.744 Y76.51 E-.2958
;WIPE_END
G1 Z.6 F720
G1 X102.031 Y74.978 F10800
G1 Z.2 F720
G1 E.8 F2100
M204 S800
G1 F1200
G1 X101.7 Y75.225 E.01347
G1 X100.202 Y76.465 E.06341
G1 X98.77 Y77.779 E.06337
G1 X97.407 Y79.166 E.06341
G1 X96.118 Y80.621 E.06339
G1 X94.967 Y82.062 E.06014
M204 S1000
;WIPE_START
G1 F8640
G1 X96.118 Y80.621 E-.42584
G1 X97.193 Y79.408 E-.37416
;WIPE_END
G1 Z.6 F720
G1 X95.491 Y80.797 F10800
G1 Z.2 F720
G1 E.8 F2100
M204 S800
G1 F1200
G1 X96.529 Y79.57 E.05241
G1 X97.865 Y78.144 E.06372
G1 X99.273 Y76.789 E.06372
G1 X100.742 Y75.513 E.06345
M204 S1000
;WIPE_START
G1 F8640
G1 X99.273 Y76.789 E-.44929
G1 X98.179 Y77.842 E-.35071
;WIPE_END
G1 Z.6 F720
G1 X99.608 Y75.998 F10800
G1 Z.2 F720
G1 E.8 F2100
M204 S800
G1 F1200
G1 X98.915 Y76.605 E.03004
G1 X97.505 Y77.972 E.06404
G1 X96.167 Y79.409 E.06403
G1 X95.968 Y79.646 E.01009
M204 S1000
;WIPE_START
G1 F8640
G1 X96.167 Y79.409 E-.07146
G1 X97.505 Y77.972 E-.45337
G1 X98.361 Y77.143 E-.27517
;WIPE_END
G1 Z.6 F720
G1 X96.408 Y78.584 F10800
G1 Z.2 F720
G1 E.8 F2100
M204 S800
G1 F1200
G1 X97.425 Y77.528 E.04781
M204 S1000
;WIPE_START
G1 F8640
G1 X96.408 Y78.584 E-.33852
;WIPE_END
G1 E-.46148 F2100
G1 Z.6 F720
G1 X127.139 Y66.464 F10800
G1 Z.2 F720
G1 E.8 F2100
M204 S800
G1 F1200
G1 X125.799 Y66.404 E.04374
G1 X123.834 Y66.417 E.06408
G1 X122.518 Y66.492 E.04298
M204 S1000
;WIPE_START
G1 F8640
G1 X123.834 Y66.417 E-.30436
G1 X125.799 Y66.404 E-.45373
G1 X125.98 Y66.412 E-.04191
;WIPE_END
G1 Z.6 F720
G1 X123.559 Y66.061 F10800
G1 Z.2 F720
G1 E.8 F2100
M204 S800
G1 F1200
G1 X124.673 Y66.029 E.03634
M204 S1000
;WIPE_START
G1 F8640
G1 X123.559 Y66.061 E-.25733
;WIPE_END
G1 E-.54267 F2100
G1 Z.6 F720
G1 X121.378 Y66.964 F10800
G1 Z.2 F720
G1 E.8 F2100
M204 S800
G1 F1200
G1 X122.166 Y66.884 E.02583
G1 X124.119 Y66.786 E.06376
G1 X126.074 Y66.788 E.06375
G1 X128.026 Y66.89 E.06374
G1 X128.582 Y66.947 E.01823
M204 S1000
;WIPE_START
G1 F8640
G1 X128.026 Y66.89 E-.12905
G1 X126.074 Y66.788 E-.45134
G1 X125.123 Y66.787 E-.21961
;WIPE_END
G1 Z.6 F720
G1 X129.834 Y67.466 F10800
G1 Z.2 F720
G1 E.8 F2100
M204 S800
G1 F1200
G1 X129.052 Y67.363 E.02572
G1 X127.112 Y67.207 E.06346
G1 X125.168 Y67.152 E.06342
G1 X123.223 Y67.196 E.06344
G1 X121.283 Y67.341 E.06344
G1 X120.113 Y67.488 E.03845
M204 S1000
;WIPE_START
G1 F8640
G1 X121.283 Y67.341 E-.27228
G1 X123.223 Y67.196 E-.4492
G1 X123.563 Y67.188 E-.07852
;WIPE_END
G1 Z.6 F720
G1 X118.66 Y68.09 F10800
G1 Z.2 F720
G1 E.8 F2100
M204 S800
G1 F1200
G1 X119.244 Y67.983 E.01936
G1 X121.163 Y67.732 E.06311
G1 X123.093 Y67.58 E.06313
G1 X125.028 Y67.529 E.06312
G1 X126.963 Y67.577 E.06312
G1 X128.893 Y67.725 E.06312
G1 X130.813 Y67.973 E.06313
G1 X131.248 Y68.052 E.01442
M204 S1000
;WIPE_START
G1 F8640
G1 X130.813 Y67.973 E-.10209
G1 X128.893 Y67.725 E-.44702
G1 X127.809 Y67.642 E-.25089
;WIPE_END
G1 Z.6 F720
G1 X132.971 Y68.766 F10800
G1 Z.2 F720
G1 E.8 F2100
M204 S800
G1 F1200
G1 X131.384 Y68.449 E.05277
G1 X129.478 Y68.17 E.06281
G1 X127.56 Y67.99 E.06282
G1 X125.636 Y67.91 E.06279
G1 X123.71 Y67.93 E.06281
G1 X121.788 Y68.05 E.0628
G1 X119.875 Y68.27 E.06279
G1 X117.976 Y68.589 E.06279
G1 X116.859 Y68.836 E.0373
M204 S1000
;WIPE_START
G1 F8640
G1 X117.976 Y68.589 E-.26415
G1 X119.875 Y68.27 E-.44463
G1 X120.268 Y68.225 E-.09122
;WIPE_END
G1 Z.6 F720
G1 X114.216 Y69.931 F10800
G1 Z.2 F720
G1 E.8 F2100
M204 S800
G1 F1200
G1 X115.588 Y69.526 E.04665
G1 X117.451 Y69.08 E.06247
G1 X119.335 Y68.732 E.06247
G1 X121.234 Y68.483 E.06245
G1 X123.144 Y68.333 E.06247
G1 X125.06 Y68.283 E.0625
G1 X126.975 Y68.333 E.06247
G1 X128.885 Y68.483 E.06247
G1 X130.785 Y68.732 E.06249
G1 X132.67 Y69.08 E.06251
G1 X134.534 Y69.526 E.0625
G1 X135.478 Y69.804 E.03209
M204 S1000
;WIPE_START
G1 F8640
G1 X134.534 Y69.526 E-.22723
G1 X132.67 Y69.08 E-.44255
G1 X132.116 Y68.978 E-.13022
;WIPE_END
G1 Z.6 F720
G1 X153.515 Y78.911 F10800
G1 Z.2 F720
G1 E.8 F2100
M204 S800
G1 F1200
G1 X152.29 Y77.63 E.0578
G1 X150.861 Y76.28 E.0641
G1 X150.627 Y76.081 E.01002
M204 S1000
;WIPE_START
G1 F8640
G1 X150.861 Y76.28 E-.07093
G1 X152.29 Y77.63 E-.45392
G1 X153.114 Y78.491 E-.27515
;WIPE_END
G1 Z.6 F720
G1 X151.656 Y76.507 F10800
G1 Z.2 F720
G1 E.8 F2100
M204 S800
G1 F1200
G1 X152.191 Y77.022 E.02421
M204 S1000
;WIPE_START
G1 F8640
G1 X151.656 Y76.507 E-.17147
;WIPE_END
G1 E-.62853 F2100
G1 Z.6 F720
G1 X149.518 Y75.621 F10800
G1 Z.2 F720
G1 E.8 F2100
M204 S800
G1 F1200
G1 X150.918 Y76.841 E.06055
G1 X152.325 Y78.2 E.06379
G1 X153.661 Y79.629 E.06379
G1 X154.383 Y80.485 E.03652
M204 S1000
;WIPE_START
G1 F8640
G1 X153.661 Y79.629 E-.25857
G1 X152.325 Y78.2 E-.4517
G1 X152.045 Y77.93 E-.08973
;WIPE_END
G1 Z.6 F720
G1 X154.892 Y81.713 F10800
G1 Z.2 F720
G1 E.8 F2100
M204 S800
G1 F1200
G1 X154.164 Y80.792 E.03828
G1 X152.881 Y79.329 E.06345
G1 X151.523 Y77.933 E.06351
G1 X150.096 Y76.609 E.06348
G1 X148.603 Y75.36 E.06347
G1 X148.254 Y75.097 E.01425
M204 S1000
;WIPE_START
G1 F8640
G1 X148.603 Y75.36 E-.1009
G1 X150.096 Y76.609 E-.44946
G1 X150.889 Y77.344 E-.24964
;WIPE_END
G1 Z.6 F720
G1 X146.857 Y74.519 F10800
G1 Z.2 F720
G1 E.8 F2100
M204 S800
G1 F1200
G1 X148.358 Y75.647 E.06123
G1 X149.844 Y76.89 E.06317
G1 X151.264 Y78.207 E.06315
M73 Q1 S72
G1 X152.614 Y79.596 E.06316
G1 X153.891 Y81.053 E.06318
G1 X155.09 Y82.574 E.06315
G1 X155.471 Y83.111 E.02147
M204 S1000
;WIPE_START
G1 F8640
G1 X155.09 Y82.574 E-.15203
G1 X153.891 Y81.053 E-.4472
G1 X153.318 Y80.399 E-.20077
;WIPE_END
G1 Z.6 F720
M73 P1 R72
G1 X156.16 Y84.775 F10800
G1 Z.2 F720
G1 E.8 F2100
M204 S800
G1 F1200
G1 X155.251 Y83.432 E.05288
G1 X154.089 Y81.894 E.06286
G1 X152.849 Y80.418 E.06286
G1 X151.535 Y79.009 E.06282
G1 X150.149 Y77.67 E.06284
G1 X148.695 Y76.405 E.06285
G1 X147.178 Y75.217 E.06283
G1 X145.601 Y74.109 E.06285
G1 X145.082 Y73.783 E.01999
M204 S1000
;WIPE_START
G1 F8640
G1 X145.601 Y74.109 E-.14152
G1 X147.178 Y75.217 E-.44503
G1 X147.906 Y75.787 E-.21345
;WIPE_END
G1 Z.6 F720
G1 X142.597 Y72.754 F10800
G1 Z.2 F720
G1 E.8 F2100
M204 S800
G1 F1200
G1 X143.369 Y73.171 E.02861
G1 X145.005 Y74.169 E.06249
G1 X146.587 Y75.252 E.06252
G1 X148.111 Y76.415 E.06251
G1 X149.572 Y77.657 E.06253
G1 X150.966 Y78.973 E.06251
G1 X152.29 Y80.359 E.0625
G1 X153.54 Y81.814 E.06255
G1 X154.713 Y83.331 E.06253
G1 X155.804 Y84.907 E.0625
G1 X156.812 Y86.539 E.06255
G1 X157.133 Y87.123 E.02173
M204 S1000
;WIPE_START
G1 F8640
G1 X156.812 Y86.539 E-.15388
G1 X155.804 Y84.907 E-.44292
G1 X155.303 Y84.183 E-.2032
;WIPE_END
G1 Z.6 F720
G1 X160.425 Y95.07 F10800
G1 Z.2 F720
G1 E.8 F2100
M204 S800
G1 F1200
G1 X160.511 Y95.358 E.0098
G1 X160.969 Y97.221 E.06256
G1 X161.328 Y99.105 E.06254
G1 X161.589 Y101.005 E.06254
G1 X161.751 Y102.917 E.06257
G1 X161.813 Y104.834 E.06254
G1 X161.775 Y106.753 E.06259
G1 X161.636 Y108.666 E.06254
G1 X161.399 Y110.57 E.06257
G1 X161.062 Y112.459 E.06257
G1 X160.628 Y114.328 E.06257
G1 X160.523 Y114.693 E.01238
M204 S1000
;WIPE_START
G1 F8640
G1 X160.628 Y114.328 E-.0877
G1 X161.062 Y112.459 E-.44304
G1 X161.267 Y111.311 E-.26926
;WIPE_END
G1 Z.6 F720
G1 X161.434 Y112.495 F10800
G1 Z.2 F720
G1 E.8 F2100
M204 S800
G1 F1200
G1 X161.733 Y110.875 E.05372
G1 X161.985 Y108.963 E.06289
G1 X162.138 Y107.041 E.06287
G1 X162.19 Y105.113 E.06289
G1 X162.143 Y103.186 E.06286
G1 X161.996 Y101.263 E.06289
G1 X161.749 Y99.351 E.06287
G1 X161.394 Y97.409 E.06438
M204 S1000
;WIPE_START
G1 F8640
G1 X161.749 Y99.351 E-.45584
G1 X161.94 Y100.829 E-.34416
;WIPE_END
G1 Z.6 F720
G1 X162.072 Y99.047 F10800
G1 Z.2 F720
G1 E.8 F2100
M204 S800
G1 F1200
G1 X162.27 Y100.341 E.04269
G1 X162.464 Y102.269 E.06319
G1 X162.558 Y104.204 E.06317
G1 X162.552 Y106.143 E.06323
G1 X162.446 Y108.078 E.06319
G1 X162.241 Y110.005 E.06319
G1 X162.101 Y110.884 E.02902
M204 S1000
;WIPE_START
G1 F8640
G1 X162.241 Y110.005 E-.20552
G1 X162.446 Y108.078 E-.44746
G1 X162.481 Y107.442 E-.14702
;WIPE_END
G1 Z.6 F720
G1 X162.677 Y109.494 F10800
G1 Z.2 F720
G1 E.8 F2100
M204 S800
G1 F1200
G1 X162.836 Y107.937 E.05104
G1 X162.933 Y105.991 E.06353
G1 X162.931 Y104.044 E.06349
G1 X162.829 Y102.099 E.06351
G1 X162.658 Y100.463 E.05364
M204 S1000
;WIPE_START
G1 F8640
G1 X162.829 Y102.099 E-.37981
G1 X162.924 Y103.916 E-.42019
;WIPE_END
G1 Z.6 F720
G1 X163.159 Y101.671 F10800
G1 Z.2 F720
G1 E.8 F2100
M204 S800
G1 F1200
G1 X163.248 Y102.692 E.03342
G1 X163.32 Y104.648 E.06383
G1 X163.291 Y106.605 E.06382
G1 X163.18 Y108.279 E.05471
M204 S1000
;WIPE_START
G1 F8640
G1 X163.291 Y106.605 E-.38738
G1 X163.317 Y104.818 E-.41262
;WIPE_END
G1 Z.6 F720
G1 X163.668 Y106.399 F10800
G1 Z.2 F720
G1 E.8 F2100
M204 S800
G1 F1200
G1 X163.687 Y106.035 E.01189
G1 X163.686 Y104.068 E.06414
G1 X163.621 Y102.785 E.04189
M204 S1000
;WIPE_START
G1 F8640
G1 X163.686 Y104.068 E-.29663
G1 X163.687 Y106.035 E-.45419
G1 X163.676 Y106.248 E-.04918
;WIPE_END
G1 Z.6 F720
G1 X164.047 Y103.816 F10800
G1 Z.2 F720
G1 E.8 F2100
M204 S800
G1 F1200
G1 X164.063 Y104.16 E.01123
M204 S1000
;WIPE_START
G1 F8640
G1 X164.047 Y103.816 E-.07952
;WIPE_END
G1 E-.72048 F2100
G1 Z.6 F720
G1 X151.599 Y133.159 F10800
G1 Z.2 F720
G1 E.8 F2100
M204 S800
G1 F1200
G1 X152.298 Y132.498 E.03137
G1 X153.81 Y130.896 E.07183
M204 S1000
;WIPE_START
G1 F8640
G1 X152.298 Y132.498 E-.50864
G1 X151.599 Y133.159 E-.22214
;WIPE_END
G1 E-.06922 F2100
G1 Z.6 F720
G1 X153.397 Y131.893 F10800
G1 Z.2 F720
G1 E.8 F2100
M204 S800
G1 F1200
G1 X153.379 Y131.912 E.00085
M204 S1000
;WIPE_START
G1 F8640
G1 X153.397 Y131.893 E-.00604
;WIPE_END
G1 E-.79396 F2100
G1 Z.6 F720
G1 X154.261 Y129.808 F10800
G1 Z.2 F720
G1 E.8 F2100
M204 S800
G1 F1200
G1 X152.893 Y131.345 E.0671
G1 X151.514 Y132.736 E.06387
G1 X150.066 Y134.055 E.06387
G1 X149.82 Y134.257 E.01038
M204 S1000
;WIPE_START
G1 F8640
