; generated by PrusaSlicer 2.8.0+MacOS-x64 on 2025-01-04 at 20:39:30 UTC


;
;
; 

; external perimeters extrusion width = 1.50mm
; perimeters extrusion width = 1.50mm
; infill extrusion width = 0.65mm
; solid infill extrusion width = 0.65mm
; top infill extrusion width = 0.60mm
; first layer extrusion width = 0.65mm

M73 P0 R50
M73 Q0 S50
M201 X1000 Y1000 Z200 E5000 ; sets maximum accelerations, mm/sec^2
M203 X200 Y200 Z12 E120 ; sets maximum feedrates, mm / sec
M204 S1250 T1250 ; sets acceleration (S) and retract acceleration (R), mm/sec^2
M205 X8.00 Y8.00 Z0.40 E4.50 ; sets the jerk limits, mm/sec
M205 S0 T0 ; sets the minimum extruding and travel feed rate, mm/sec

; printing object Pencil_holder (2).stl id:0 copy 0
; stop printing object Pencil_holder (2).stl id:0 copy 0

;TYPE:Custom
M862.3 P "MK3S" ; printer model check
M862.1 P0.6 ; nozzle diameter check
M115 U3.13.3 ; tell printer latest fw version
G90 ; use absolute coordinates
M83 ; extruder relative mode
M104 S225 ; set extruder temp
M140 S60 ; set bed temp
M190 S60 ; wait for bed temp
M109 S225 ; wait for extruder temp
G28 W ; home all without mesh bed level
G80 X85.1252 Y65.1252 W79.7517 H79.7517 ; mesh bed levelling

G1 Z0.2 F720
G1 Y-3 F1000 ; go outside print area
G92 E0
G1 X60 E9 F1000 ; intro line
G1 X100 E12.5 F1000 ; intro line

G92 E0
M221 S95
G21 ; set units to millimeters
G90 ; use absolute coordinates
M83 ; use relative distances for extrusion
M900 K0.04 ; Filament gcode LA 1.5
M900 K18 ; Filament gcode LA 1.0
M107
;LAYER_CHANGE
;Z:0.2
;HEIGHT:0.2
G1 E-.8 F2100
G1 Z.6 F720
; printing object Pencil_holder (2).stl id:0 copy 0
G1 X91.049 Y90.933 F10800
G1 Z.2 F720
G1 E.8 F1500
M204 S800
;TYPE:External perimeter
;WIDTH:0.649999
G1 F1200
G1 X96.426 Y77.954 E.73753
G1 X99.557 Y75.76 E.20071
G1 X123.92 Y65.669 E1.38438
G1 X127.685 Y66.333 E.20071
G1 X152.048 Y76.426 E1.38442
G1 X154.242 Y79.557 E.20071
G1 X164.333 Y103.92 E1.38438
G1 X163.851 Y106.656 E.14585
G1 X163.669 Y107.685 E.05486
G1 X153.576 Y132.048 E1.38442
G1 X150.445 Y134.242 E.20071
G1 X126.082 Y144.333 E1.38438
G1 X122.317 Y143.669 E.20071
G1 X97.954 Y133.576 E1.38442
G1 X95.758 Y130.44 E.20099
G1 X85.669 Y106.082 E1.3841
G1 X86.334 Y102.312 E.20097
G1 X91.014 Y91.016 E.6419
M204 S1000
;WIPE_START
G1 F8640
G1 X91.049 Y90.933 E-.0208
G1 X92.341 Y87.815 E-.7792
;WIPE_END
G1 Z.6 F720
G1 X89.77 Y95.369 F10800
G1 Z.2 F720
G1 E.8 F1500
M204 S800
;TYPE:Solid infill
;WIDTH:0.65
G1 F1200
G1 X89.3 Y97.303 E.10449
G1 X88.952 Y99.182 E.10032
G1 X88.702 Y101.076 E.10029
G1 X88.551 Y102.981 E.10032
G1 X88.5 Y104.89 E.10025
G1 X88.549 Y106.8 E.1003
G1 X88.699 Y108.705 E.10032
G1 X88.947 Y110.598 E.10023
G1 X89.294 Y112.477 E.10031
G1 X89.74 Y114.334 E.10026
G1 X89.975 Y115.131 E.04362
M204 S1000
;WIPE_START
G1 F8640
G1 X89.74 Y114.334 E-.19186
G1 X89.294 Y112.477 E-.44098
G1 X89.163 Y111.765 E-.16716
;WIPE_END
G1 Z.6 F720
G1 X88.498 Y111.565 F10800
G1 Z.2 F720
G1 E.8 F1500
M204 S800
G1 F1200
G1 X88.211 Y109.752 E.09636
G1 X88.009 Y107.837 E.10109
G1 X87.907 Y105.913 E.10115
G1 X87.904 Y103.987 E.10111
G1 X88.002 Y102.063 E.10114
M73 P0 R49
G1 X88.199 Y100.147 E.10112
G1 X88.446 Y98.563 E.08416
M204 S1000
;WIPE_START
G1 F8640
G1 X88.199 Y100.147 E-.37017
G1 X88.009 Y101.999 E-.42983
;WIPE_END
G1 Z.6 F720
G1 X87.516 Y100.808 F10800
G1 Z.2 F720
G1 E.8 F1500
M204 S800
G1 F1200
G1 X87.477 Y101.113 E.01614
G1 X87.332 Y103.05 E.10197
G1 X87.286 Y104.992 E.10198
G1 X87.341 Y106.933 E.10194
G1 X87.495 Y108.868 E.1019
G1 X87.548 Y109.271 E.02134
M204 S1000
;WIPE_START
G1 F8640
G1 X87.495 Y108.868 E-.09386
G1 X87.341 Y106.933 E-.44821
G1 X87.309 Y105.816 E-.25793
;WIPE_END
G1 Z.6 F720
G1 X86.77 Y107.392 F10800
G1 Z.2 F720
G1 E.8 F1500
M204 S800
G1 F1200
G1 X86.694 Y105.977 E.07439
G1 X86.689 Y104.02 E.10274
M73 Q0 S49
G1 X86.74 Y102.984 E.05445
M204 S1000
;WIPE_START
G1 F8640
G1 X86.689 Y104.02 E-.2395
G1 X86.694 Y105.977 E-.45188
G1 X86.719 Y106.447 E-.10862
;WIPE_END
G1 Z.6 F720
G1 X98.895 Y76.855 F10800
G1 Z.2 F720
G1 E.8 F1500
M204 S800
G1 F1200
G1 X98.015 Y77.684 E.06347
G1 X96.661 Y79.1 E.10285
G1 X96.372 Y79.434 E.02319
M204 S1000
;WIPE_START
G1 F8640
G1 X96.661 Y79.1 E-.10198
G1 X98.015 Y77.684 E-.45238
G1 X98.789 Y76.954 E-.24564
;WIPE_END
G1 Z.6 F720
G1 X95.608 Y81.276 F10800
G1 Z.2 F720
G1 E.8 F1500
M204 S800
G1 F1200
G1 X96.616 Y80.062 E.08284
G1 X97.932 Y78.632 E.10202
G1 X99.321 Y77.271 E.10209
G1 X100.777 Y75.984 E.10202
G1 X101.223 Y75.629 E.02993
M204 S1000
;WIPE_START
G1 F8640
G1 X100.777 Y75.984 E-.13162
G1 X99.321 Y77.271 E-.44871
G1 X98.642 Y77.937 E-.21967
;WIPE_END
G1 Z.6 F720
G1 X103.394 Y74.729 F10800
G1 Z.2 F720
G1 E.8 F1500
M204 S800
G1 F1200
G1 X102.153 Y75.65 E.08113
G1 X100.666 Y76.877 E.10121
G1 X99.244 Y78.18 E.10125
G1 X97.892 Y79.555 E.10123
G1 X96.613 Y80.998 E.10123
G1 X95.411 Y82.505 E.1012
G1 X94.672 Y83.537 E.06664
M204 S1000
;WIPE_START
G1 F8640
G1 X95.411 Y82.505 E-.29309
G1 X96.613 Y80.998 E-.4451
G1 X96.791 Y80.798 E-.06181
;WIPE_END
G1 Z.6 F720
G1 X93.355 Y86.716 F10800
G1 Z.2 F720
G1 E.8 F1500
M204 S800
G1 F1200
G1 X94.395 Y85.01 E.10489
G1 X95.478 Y83.434 E.10039
G1 X96.642 Y81.917 E.10038
G1 X97.883 Y80.463 E.10035
G1 X99.199 Y79.075 E.10041
G1 X100.586 Y77.759 E.10037
G1 X102.04 Y76.516 E.10042
G1 X103.557 Y75.351 E.10041
G1 X105.133 Y74.267 E.10042
G1 X106.424 Y73.474 E.07954
M204 S1000
;WIPE_START
G1 F8640
G1 X105.133 Y74.267 E-.34984
G1 X103.557 Y75.351 E-.44167
G1 X103.528 Y75.373 E-.00849
;WIPE_END
G1 Z.6 F720
G1 X125.92 Y66.545 F10800
G1 Z.2 F720
G1 E.8 F1500
M204 S800
G1 F1200
G1 X124.457 Y66.533 E.07681
G1 X123.038 Y66.592 E.07456
M204 S1000
;WIPE_START
G1 F8640
G1 X124.457 Y66.533 E-.32793
G1 X125.92 Y66.545 E-.33782
;WIPE_END
G1 E-.13425 F2100
G1 Z.6 F720
G1 X121.22 Y67.346 F10800
G1 Z.2 F720
G1 E.8 F1500
M204 S800
G1 F1200
G1 X122.028 Y67.259 E.04266
G1 X123.971 Y67.151 E.10216
G1 X125.917 Y67.143 E.10216
G1 X127.861 Y67.235 E.10217
G1 X128.721 Y67.32 E.04537
M204 S1000
;WIPE_START
G1 F8640
G1 X127.861 Y67.235 E-.19954
G1 X125.917 Y67.143 E-.44938
G1 X125.263 Y67.146 E-.15108
;WIPE_END
G1 Z.6 F720
G1 X130.826 Y68.193 F10800
G1 Z.2 F720
G1 E.8 F1500
M204 S800
G1 F1200
G1 X129.314 Y67.981 E.08015
G1 X127.391 Y67.812 E.10134
G1 X125.462 Y67.743 E.10133
G1 X123.532 Y67.774 E.10133
G1 X121.606 Y67.905 E.10134
G1 X119.69 Y68.136 E.10131
G1 X119.04 Y68.249 E.03464
M73 Q1 S49
M204 S1000
;WIPE_START
G1 F8640
G1 X119.69 Y68.136 E-.15234
G1 X121.606 Y67.905 E-.44561
G1 X122.479 Y67.846 E-.20205
;WIPE_END
G1 Z.6 F720
G1 X116.017 Y69.501 F10800
G1 Z.2 F720
G1 E.8 F1500
M73 P1 R49
M204 S800
G1 F1200
G1 X117.436 Y69.158 E.07664
G1 X119.317 Y68.807 E.10045
G1 X121.214 Y68.555 E.10046
G1 X123.122 Y68.402 E.10049
G1 X125.036 Y68.348 E.10052
G1 X126.95 Y68.395 E.10051
G1 X128.859 Y68.542 E.10052
G1 X130.758 Y68.788 E.10053
G1 X132.641 Y69.133 E.1005
G1 X133.707 Y69.386 E.05752
M204 S1000
;WIPE_START
G1 F8640
G1 X132.641 Y69.133 E-.25298
G1 X130.758 Y68.788 E-.44203
G1 X130.307 Y68.73 E-.10499
;WIPE_END
G1 Z.6 F720
G1 X152.547 Y78.038 F10800
G1 Z.2 F720
G1 E.8 F1500
M204 S800
G1 F1200
G1 X151.284 Y76.805 E.09266
G1 X150.991 Y76.547 E.0205
M204 S1000
;WIPE_START
G1 F8640
G1 X151.284 Y76.805 E-.09014
G1 X152.547 Y78.038 E-.40756
;WIPE_END
G1 E-.3023 F2100
G1 Z.6 F720
G1 X149.236 Y75.82 F10800
G1 Z.2 F720
G1 E.8 F1500
M204 S800
G1 F1200
G1 X150.676 Y77.07 E.10011
G1 X152.079 Y78.421 E.10225
G1 X153.411 Y79.842 E.10225
G1 X154.177 Y80.749 E.06232
M204 S1000
;WIPE_START
G1 F8640
G1 X153.411 Y79.842 E-.27412
G1 X152.079 Y78.421 E-.44973
G1 X151.841 Y78.192 E-.07615
;WIPE_END
G1 Z.6 F720
G1 X155.026 Y82.8 F10800
G1 Z.2 F720
G1 E.8 F1500
M204 S800
G1 F1200
G1 X154.082 Y81.571 E.08136
G1 X152.828 Y80.101 E.10144
G1 X151.499 Y78.698 E.10145
G1 X150.099 Y77.367 E.10141
G1 X148.633 Y76.109 E.10141
G1 X147.124 Y74.945 E.10005
M204 S1000
;WIPE_START
G1 F8640
G1 X148.633 Y76.109 E-.44005
G1 X149.816 Y77.124 E-.35995
;WIPE_END
G1 Z.6 F720
G1 X144.211 Y73.738 F10800
G1 Z.2 F720
G1 E.8 F1500
M204 S800
G1 F1200
G1 X144.975 Y74.203 E.04695
G1 X146.557 Y75.283 E.10056
G1 X148.081 Y76.444 E.10058
G1 X149.543 Y77.683 E.10061
G1 X150.938 Y78.997 E.10061
G1 X152.263 Y80.381 E.10059
G1 X153.514 Y81.834 E.10066
G1 X154.687 Y83.349 E.10059
G1 X155.78 Y84.924 E.10064
G1 X156.161 Y85.539 E.03798
M204 S1000
;WIPE_START
G1 F8640
G1 X155.78 Y84.924 E-.16705
G1 X154.687 Y83.349 E-.44266
G1 X154.182 Y82.697 E-.19029
;WIPE_END
G1 Z.6 F720
G1 X163.622 Y104.984 F10800
G1 Z.2 F720
G1 E.8 F1500
M204 S800
G1 F1200
G1 X163.58 Y103.451 E.08051
M204 S1000
;WIPE_START
G1 F8640
G1 X163.622 Y104.984 E-.35411
;WIPE_END
G1 E-.44589 F2100
G1 Z.6 F720
G1 X162.855 Y101.699 F10800
G1 Z.2 F720
G1 E.8 F1500
M204 S800
G1 F1200
G1 X162.951 Y102.809 E.05849
G1 X163.018 Y104.758 E.10238
G1 X162.985 Y106.707 E.10233
G1 X162.881 Y108.239 E.08061
M204 S1000
;WIPE_START
G1 F8640
G1 X162.985 Y106.707 E-.35456
G1 X163.018 Y104.778 E-.44544
;WIPE_END
G1 Z.6 F720
G1 X162.049 Y110.247 F10800
G1 Z.2 F720
G1 E.8 F1500
M204 S800
G1 F1200
G1 X162.243 Y108.65 E.08446
G1 X162.377 Y106.72 E.10157
G1 X162.411 Y104.786 E.10155
G1 X162.345 Y102.853 E.10154
G1 X162.179 Y100.926 E.10154
G1 X162.001 Y99.637 E.06831
M204 S1000
;WIPE_START
G1 F8640
G1 X162.179 Y100.926 E-.30046
G1 X162.345 Y102.853 E-.4466
G1 X162.353 Y103.082 E-.05294
;WIPE_END
G1 Z.6 F720
G1 X160.882 Y96.937 F10800
G1 Z.2 F720
G1 E.8 F1500
M204 S800
G1 F1200
G1 X160.954 Y97.229 E.01579
G1 X161.315 Y99.112 E.10065
G1 X161.578 Y101.012 E.1007
G1 X161.741 Y102.923 E.10069
G1 X161.804 Y104.841 E.10075
G1 X161.768 Y106.759 E.10071
G1 X161.631 Y108.672 E.10069
G1 X161.395 Y110.576 E.10072
G1 X161.06 Y112.466 E.10077
G1 X160.972 Y112.847 E.02053
M204 S1000
;WIPE_START
G1 F8640
G1 X161.06 Y112.466 E-.09029
G1 X161.395 Y110.576 E-.44321
G1 X161.537 Y109.431 E-.2665
;WIPE_END
G1 Z.6 F720
G1 X152.64 Y132.074 F10800
G1 Z.2 F720
G1 E.8 F1500
M204 S800
G1 F1200
G1 X153.282 Y131.408 E.04856
M204 S1000
;WIPE_START
G1 F8640
G1 X152.64 Y132.074 E-.2136
;WIPE_END
G1 E-.5864 F2100
G1 Z.6 F720
G1 X153.993 Y129.692 F10800
G1 Z.2 F720
G1 E.8 F1500
M204 S800
G1 F1200
G1 X152.544 Y131.315 E.11422
G1 X151.163 Y132.694 E.10246
G1 X149.746 Y133.973 E.10021
M204 S1000
;WIPE_START
G1 F8640
G1 X151.163 Y132.694 E-.44076
G1 X152.264 Y131.594 E-.35924
;WIPE_END
G1 Z.6 F720
G1 X147.769 Y134.792 F10800
G1 Z.2 F720
G1 E.8 F1500
M204 S800
G1 F1200
G1 X149.101 Y133.726 E.08956
G1 X150.548 Y132.44 E.10163
G1 X151.927 Y131.081 E.10164
G1 X153.234 Y129.653 E.10163
G1 X154.465 Y128.159 E.10163
G1 X154.835 Y127.659 E.03265
M204 S1000
;WIPE_START
G1 F8640
G1 X154.465 Y128.159 E-.14362
G1 X153.234 Y129.653 E-.44699
G1 X152.622 Y130.322 E-.20939
;WIPE_END
G1 Z.6 F720
G1 X155.903 Y125.083 F10800
G1 Z.2 F720
G1 E.8 F1500
M204 S800
G1 F1200
G1 X154.984 Y126.448 E.08639
G1 X153.831 Y127.983 E.10079
G1 X152.599 Y129.456 E.10081
G1 X151.292 Y130.863 E.10082
G1 X149.914 Y132.201 E.10083
G1 X148.467 Y133.464 E.10083
G1 X146.957 Y134.651 E.10083
G1 X145.292 Y135.818 E.10674
M204 S1000
;WIPE_START
G1 F8640
G1 X146.957 Y134.651 E-.46948
G1 X148.083 Y133.766 E-.33052
;WIPE_END
G1 Z.6 F720
G1 X125.001 Y105.001 F10800
G1 Z.2 F720
G1 E.8 F1500
M204 S800
G1 F1200
G1 X124.572 Y105.43 E.03185
G1 X124.4 Y105.24 E.01345
G1 X124.317 Y104.991 E.01378
G1 X124.336 Y104.721 E.01421
G1 X124.458 Y104.473 E.01451
G1 X124.666 Y104.283 E.01479
G1 X124.935 Y104.177 E.01518
G1 X125.229 Y104.171 E.01544
G1 X125.512 Y104.268 E.01571
G1 X125.751 Y104.458 E.01603
G1 X125.917 Y104.72 E.01628
G1 X125.99 Y105.026 E.01652
G1 X125.961 Y105.345 E.01682
G1 X125.832 Y105.643 E.01705
G1 X125.615 Y105.89 E.01726
G1 X125.329 Y106.061 E.01749
G1 X125 Y106.139 E.01775
G1 X124.659 Y106.117 E.01794
G1 X124.336 Y105.994 E.01814
G1 X124.058 Y105.781 E.01839
G1 X123.851 Y105.494 E.01858
G1 X123.732 Y105.156 E.01881
G1 X123.712 Y104.796 E.01893
G1 X123.793 Y104.44 E.01917
G1 X123.97 Y104.116 E.01938
G1 X124.231 Y103.85 E.01956
G1 X124.556 Y103.662 E.01971
G1 X124.923 Y103.567 E.0199
G1 X125.305 Y103.571 E.02006
G1 X125.676 Y103.676 E.02024
G1 X126.01 Y103.875 E.02041
G1 X126.284 Y104.155 E.02057
G1 X126.48 Y104.498 E.02074
G1 X126.583 Y104.883 E.02092
G1 X126.587 Y105.284 E.02105
G1 X126.49 Y105.677 E.02125
G1 X126.297 Y106.036 E.0214
G1 X126.021 Y106.339 E.02152
G1 X125.677 Y106.567 E.02167
G1 X125.286 Y106.707 E.0218
G1 X124.869 Y106.749 E.022
G1 X124.452 Y106.69 E.02211
G1 X124.058 Y106.533 E.02227
G1 X123.71 Y106.286 E.0224
G1 X123.428 Y105.963 E.02251
G1 X123.227 Y105.581 E.02266
G1 X123.119 Y105.16 E.02282
G1 X123.11 Y104.723 E.02295
G1 X123.202 Y104.293 E.02309
G1 X123.39 Y103.893 E.0232
G1 X123.665 Y103.544 E.02333
G1 X124.013 Y103.263 E.02348
G1 X124.417 Y103.067 E.02357
G1 X124.857 Y102.964 E.02372
G1 X125.311 Y102.961 E.02383
G1 X125.757 Y103.058 E.02396
G1 X126.173 Y103.251 E.02408
G1 X126.539 Y103.532 E.02422
G1 X126.837 Y103.886 E.02429
G1 X127.053 Y104.299 E.02447
G1 X127.176 Y104.75 E.02454
G1 X127.2 Y105.219 E.02465
G1 X127.124 Y105.685 E.02479
G1 X126.951 Y106.126 E.02487
G1 X126.687 Y106.523 E.02503
G1 X126.345 Y106.858 E.02513
G1 X125.939 Y107.114 E.0252
G1 X125.486 Y107.282 E.02536
G1 X125.007 Y107.353 E.02542
G1 X124.521 Y107.324 E.02556
G1 X124.049 Y107.195 E.02569
G1 X123.612 Y106.972 E.02576
G1 X123.227 Y106.664 E.02588
G1 X122.912 Y106.283 E.02595
G1 X122.679 Y105.844 E.02609
G1 X122.538 Y105.366 E.02616
G1 X122.495 Y104.867 E.02629
G1 X122.553 Y104.367 E.02643
G1 X122.709 Y103.888 E.02645
G1 X122.958 Y103.447 E.02659
G1 X123.29 Y103.062 E.02669
G1 X123.692 Y102.748 E.02678
G1 X124.15 Y102.519 E.02688
G1 X124.645 Y102.382 E.02696
G1 X125.16 Y102.344 E.02711
G1 X125.673 Y102.406 E.02713
G1 X126.167 Y102.567 E.02728
G1 X126.623 Y102.82 E.02738
G1 X127.022 Y103.157 E.02742
G1 X127.352 Y103.565 E.02755
G1 X127.599 Y104.03 E.02764
G1 X127.753 Y104.535 E.02772
G1 X127.81 Y105.062 E.02783
G1 X127.767 Y105.591 E.02786
G1 X127.624 Y106.105 E.02801
G1 X127.388 Y106.585 E.02808
G1 X127.065 Y107.013 E.02815
G1 X126.666 Y107.376 E.02832
G1 X126.207 Y107.659 E.02831
G1 X125.701 Y107.853 E.02845
G1 X125.167 Y107.95 E.02849
G1 X124.622 Y107.949 E.02861
G1 X124.085 Y107.847 E.0287
G1 X123.574 Y107.648 E.02879
G1 X123.106 Y107.359 E.02888
G1 X122.698 Y106.989 E.02892
G1 X122.362 Y106.55 E.02902
G1 X122.11 Y106.056 E.02911
G1 X121.951 Y105.523 E.0292
G1 X121.889 Y104.969 E.02927
G1 X121.927 Y104.411 E.02936
G1 X122.065 Y103.868 E.02941
G1 X122.298 Y103.356 E.02953
G1 X122.619 Y102.893 E.02958
G1 X123.018 Y102.492 E.0297
G1 X123.482 Y102.167 E.02974
G1 X123.998 Y101.928 E.02985
G1 X124.549 Y101.783 E.02991
G1 X125.118 Y101.737 E.02997
G1 X125.688 Y101.79 E.03005
G1 X126.242 Y101.943 E.03017
G1 X126.762 Y102.19 E.03022
G1 X127.232 Y102.524 E.03027
G1 X127.639 Y102.935 E.03037
G1 X127.97 Y103.412 E.03048
G1 X128.214 Y103.939 E.03049
G1 X128.365 Y104.502 E.0306
G1 X128.417 Y105.084 E.03068
G1 X128.369 Y105.668 E.03076
G1 X128.223 Y106.236 E.03079
G1 X127.981 Y106.773 E.03092
G1 X127.651 Y107.262 E.03097
G1 X127.242 Y107.689 E.03104
G1 X126.766 Y108.042 E.03111
G1 X126.236 Y108.31 E.03118
G1 X125.667 Y108.486 E.03127
G1 X125.076 Y108.565 E.0313
G1 X124.478 Y108.543 E.03142
G1 X123.891 Y108.422 E.03146
G1 X123.331 Y108.205 E.03153
G1 X122.814 Y107.897 E.03159
G1 X122.353 Y107.506 E.03173
G1 X121.963 Y107.044 E.03174
G1 X121.654 Y106.523 E.0318
G1 X121.434 Y105.957 E.03188
G1 X121.31 Y105.361 E.03196
G1 X121.285 Y104.752 E.032
G1 X121.36 Y104.145 E.03211
G1 X121.533 Y103.557 E.03218
G1 X121.8 Y103.005 E.03219
G1 X122.154 Y102.502 E.03229
G1 X122.586 Y102.062 E.03237
G1 X123.085 Y101.697 E.03246
G1 X123.637 Y101.417 E.03249
G1 X124.228 Y101.229 E.03256
G1 X124.843 Y101.138 E.03264
G1 X125.465 Y101.147 E.03266
G1 X126.08 Y101.256 E.03279
G1 X126.67 Y101.462 E.03281
G1 X127.221 Y101.76 E.03289
G1 X127.718 Y102.143 E.03294
G1 X128.149 Y102.601 E.03302
G1 X128.503 Y103.122 E.03307
G1 X128.771 Y103.694 E.03316
G1 X128.945 Y104.302 E.0332
G1 X129.021 Y104.931 E.03326
G1 X128.997 Y105.566 E.03336
G1 X128.873 Y106.19 E.0334
G1 X128.653 Y106.788 E.03345
