; generated by PrusaSlicer 2.9.0 on 2025-01-10 at 23:51:53 UTC


;
;
; 

; external perimeters extrusion width = 1.00mm
; perimeters extrusion width = 1.00mm
; infill extrusion width = 1.00mm
; solid infill extrusion width = 1.00mm
; top infill extrusion width = 1.00mm
; first layer extrusion width = 1.00mm

M73 P0 R54
M73 Q0 S54
M201 X1000 Y1000 Z200 E5000 ; sets maximum accelerations, mm/sec^2
M203 X200 Y200 Z12 E120 ; sets maximum feedrates, mm / sec
M204 S1250 T1250 ; sets acceleration (S) and retract acceleration (R), mm/sec^2
M205 X8.00 Y8.00 Z0.40 E4.50 ; sets the jerk limits, mm/sec
M205 S0 T0 ; sets the minimum extruding and travel feed rate, mm/sec

; printing object Faceted_Vase.stl id:0 copy 0
; stop printing object Faceted_Vase.stl id:0 copy 0

;TYPE:Custom
M862.3 P "MK3S" ; printer model check
M862.1 P0.6 ; nozzle diameter check
M115 U3.13.3 ; tell printer latest fw version
G90 ; use absolute coordinates
M83 ; extruder relative mode
M104 S215 ; set extruder temp
M140 S60 ; set bed temp
M190 S60 ; wait for bed temp
M109 S215 ; wait for extruder temp
G28 W ; home all without mesh bed level
G80 X99.6834 Y79.6834 W50.6332 H50.6332 ; mesh bed levelling

G1 Z0.2 F720
G1 Y-3 F1000 ; go outside print area
G92 E0
G1 X60 E9 F1000 ; intro line
G1 X100 E12.5 F1000 ; intro line

G92 E0
M221 S95
G21 ; set units to millimeters
G90 ; use absolute coordinates
M83 ; use relative distances for extrusion

M900 K0.04 ; Filament gcode LA 1.5
M900 K18 ; Filament gcode LA 1.0




M107
;LAYER_CHANGE
;Z:0.2
;HEIGHT:0.2
G1 E-.8 F2100
G1 Z.6 F720
; printing object Faceted_Vase.stl id:0 copy 0
G1 X107.624 Y87.68 F10800
G1 Z.2 F720
G1 E.8 F1500
M204 S800
;TYPE:External perimeter
;WIDTH:0.999999
G1 F1200
G1 X107.814 Y87.385 E.03909
G1 X110.01 Y85.469 E.3247
G1 X112.453 Y83.837 E.32733
G1 X112.699 Y83.773 E.02832
G1 X112.959 Y83.537 E.03912
G1 X115.57 Y82.257 E.32398
G1 X118.358 Y81.31 E.32805
G1 X118.612 Y81.313 E.0283
G1 X118.924 Y81.152 E.03912
G1 X121.783 Y80.591 E.32461
G1 X124.716 Y80.399 E.32748
G1 X124.96 Y80.466 E.02819
G1 X125.305 Y80.391 E.03934
G1 X128.205 Y80.589 E.32385
G1 X131.093 Y81.163 E.32806
G1 X131.311 Y81.292 E.02822
G1 X131.663 Y81.309 E.03926
G1 X134.419 Y82.253 E.32457
G1 X137.054 Y83.552 E.32731
G1 X137.232 Y83.733 E.02828
G1 X137.567 Y83.84 E.03918
G1 X139.985 Y85.465 E.32458
G1 X142.195 Y87.403 E.32749
G1 X142.32 Y87.624 E.02829
G1 X142.615 Y87.814 E.03909
G1 X144.531 Y90.009 E.32462
G1 X146.163 Y92.453 E.32742
G1 X146.227 Y92.699 E.02832
G1 X146.463 Y92.959 E.03912
G1 X147.743 Y95.57 E.32398
G1 X148.69 Y98.358 E.32805
G1 X148.687 Y98.612 E.0283
G1 X148.848 Y98.924 E.03912
G1 X149.409 Y101.783 E.32461
G1 X149.601 Y104.716 E.32748
G1 X149.557 Y104.848 E.0155
G1 X149.534 Y104.96 E.01274
G1 X149.609 Y105.304 E.03923
G1 X149.41 Y108.211 E.32464
G1 X148.837 Y111.093 E.32738
G1 X148.708 Y111.311 E.02822
G1 X148.691 Y111.663 E.03926
G1 X147.75 Y114.414 E.32393
G1 X146.448 Y117.054 E.32796
G1 X146.267 Y117.232 E.02828
G1 X146.16 Y117.567 E.03918
G1 X144.535 Y119.985 E.32458
G1 X142.597 Y122.195 E.32749
G1 X142.376 Y122.32 E.02829
G1 X142.187 Y122.614 E.03894
G1 X139.99 Y124.531 E.32486
G1 X137.547 Y126.163 E.32733
G1 X137.301 Y126.227 E.02832
G1 X137.041 Y126.463 E.03912
G1 X134.43 Y127.743 E.32398
G1 X131.642 Y128.69 E.32805
G1 X131.388 Y128.687 E.0283
G1 X131.076 Y128.848 E.03912
G1 X128.217 Y129.409 E.32461
G1 X125.284 Y129.601 E.32748
G1 X125.04 Y129.534 E.02819
G1 X124.696 Y129.609 E.03923
G1 X121.789 Y129.41 E.32464
G1 X118.907 Y128.837 E.32738
G1 X118.689 Y128.708 E.02822
G1 X118.337 Y128.691 E.03926
G1 X115.586 Y127.75 E.32393
G1 X112.946 Y126.448 E.32796
G1 X112.768 Y126.267 E.02828
G1 X112.433 Y126.16 E.03918
G1 X110.015 Y124.535 E.32458
G1 X107.805 Y122.597 E.32749
G1 X107.68 Y122.376 E.02829
G1 X107.385 Y122.186 E.03909
G1 X105.469 Y119.99 E.3247
G1 X103.837 Y117.547 E.32733
G1 X103.773 Y117.301 E.02832
G1 X103.537 Y117.041 E.03912
G1 X102.257 Y114.43 E.32398
G1 X101.31 Y111.642 E.32805
G1 X101.313 Y111.388 E.0283
G1 X101.152 Y111.076 E.03912
G1 X100.591 Y108.217 E.32461
G1 X100.399 Y105.284 E.32748
G1 X100.466 Y105.04 E.02819
G1 X100.391 Y104.696 E.03923
G1 X100.59 Y101.789 E.32464
G1 X101.163 Y98.907 E.32738
G1 X101.292 Y98.689 E.02822
G1 X101.309 Y98.337 E.03926
G1 X102.25 Y95.586 E.32393
G1 X103.552 Y92.946 E.32796
G1 X103.733 Y92.768 E.02828
G1 X103.84 Y92.433 E.03918
G1 X105.465 Y90.015 E.32458
G1 X107.403 Y87.805 E.32749
G1 X107.546 Y87.725 E.01826
M204 S1000
;WIPE_START
G1 F8640
G1 X107.624 Y87.68 E-.02079
G1 X107.814 Y87.385 E-.08102
G1 X110.01 Y85.469 E-.67293
G1 X110.101 Y85.408 E-.02526
;WIPE_END
G1 Z.6 F720
G1 X107.674 Y88.73 F10800
G1 Z.2 F720
G1 E.8 F1500
M204 S800
;TYPE:Solid infill
;WIDTH:1
G1 F1200
G1 X108.73 Y88.73 E.11765
G1 X108.73 Y87.666 E.11854
M204 S1000
;WIPE_START
G1 F8640
G1 X108.73 Y88.73 E-.24568
G1 X107.674 Y88.73 E-.24383
;WIPE_END
G1 E-.31049 F2100
G1 Z.6 F720
G1 X106.835 Y89.687 F10800
G1 Z.2 F720
G1 E.8 F1500
M204 S800
G1 F1200
G1 X109.687 Y89.687 E.31775
G1 X109.687 Y86.831 E.3182
M204 S1000
;WIPE_START
G1 F8640
G1 X109.687 Y89.687 E-.65946
G1 X109.078 Y89.687 E-.14054
;WIPE_END
G1 Z.6 F720
G1 X110.644 Y86.024 F10800
G1 Z.2 F720
G1 E.8 F1500
M204 S800
G1 F1200
G1 X110.644 Y90.644 E.51473
G1 X106.023 Y90.644 E.51484
M204 S1000
;WIPE_START
G1 F8640
G1 X109.487 Y90.644 E-.8
;WIPE_END
G1 Z.6 F720
G1 X105.38 Y91.601 F10800
G1 Z.2 F720
G1 E.8 F1500
M204 S800
G1 F1200
G1 X111.601 Y91.601 E.69311
G1 X111.601 Y85.384 E.69266
M204 S1000
;WIPE_START
G1 F8640
G1 X111.601 Y88.849 E-.8
;WIPE_END
G1 Z.6 F720
G1 X112.558 Y84.745 F10800
G1 Z.2 F720
G1 E.8 F1500
M204 S800
G1 F1200
G1 X112.558 Y92.558 E.87048
G1 X104.737 Y92.558 E.87137
M204 S1000
;WIPE_START
G1 F8640
G1 X108.202 Y92.558 E-.8
;WIPE_END
G1 Z.6 F720
G1 X104.179 Y93.515 F10800
G1 Z.2 F720
G1 E.8 F1500
M204 S800
G1 F1200
G1 X113.515 Y93.515 E1.04016
G1 X113.515 Y84.17 E1.04116
M204 S1000
;WIPE_START
G1 F8640
G1 X113.515 Y87.635 E-.8
;WIPE_END
G1 Z.6 F720
G1 X114.472 Y83.7 F10800
G1 Z.2 F720
G1 E.8 F1500
M204 S800
G1 F1200
G1 X114.472 Y94.472 E1.20015
G1 X103.707 Y94.472 E1.19937
M204 S1000
;WIPE_START
G1 F8640
G1 X107.172 Y94.472 E-.8
;WIPE_END
G1 Z.6 F720
G1 X101.88 Y99.475 F10800
G1 Z.2 F720
G1 E.8 F1500
M204 S800
G1 F1200
G1 X107.404 Y105 E.87046
G1 X101.874 Y110.53 E.87133
M204 S1000
;WIPE_START
G1 F8640
G1 X104.324 Y108.08 E-.8
;WIPE_END
G1 Z.6 F720
G1 X102.156 Y111.602 F10800
G1 Z.2 F720
G1 E.8 F1500
M204 S800
G1 F1200
G1 X108.758 Y105 E1.04023
G1 X102.149 Y98.392 E1.04126
M204 S1000
;WIPE_START
G1 F8640
G1 X104.599 Y100.842 E-.8
;WIPE_END
G1 Z.6 F720
G1 X102.494 Y97.383 F10800
G1 Z.2 F720
G1 E.8 F1500
M204 S800
G1 F1200
G1 X110.111 Y105 E1.20016
G1 X102.499 Y112.612 E1.19937
M204 S1000
;WIPE_START
G1 F8640
G1 X104.949 Y110.162 E-.8
;WIPE_END
G1 Z.6 F720
G1 X101.652 Y109.399 F10800
G1 Z.2 F720
G1 E.8 F1500
M204 S800
G1 F1200
G1 X106.051 Y105 E.69312
G1 X101.655 Y100.604 E.69265
M204 S1000
;WIPE_START
G1 F8640
G1 X104.105 Y103.054 E-.8
;WIPE_END
G1 Z.6 F720
G1 X101.431 Y101.733 F10800
G1 Z.2 F720
G1 E.8 F1500
M204 S800
G1 F1200
G1 X104.697 Y105 E.51468
G1 X101.43 Y108.267 E.51476
M204 S1000
;WIPE_START
G1 F8640
G1 X103.88 Y105.817 E-.8
;WIPE_END
G1 Z.6 F720
G1 X101.327 Y107.016 F10800
G1 Z.2 F720
G1 E.8 F1500
M204 S800
G1 F1200
G1 X103.344 Y105 E.31773
G1 X101.324 Y102.98 E.31828
M204 S1000
;WIPE_START
G1 F8640
G1 X103.344 Y105 E-.65962
G1 X102.914 Y105.43 E-.14038
;WIPE_END
G1 Z.6 F720
G1 X101.237 Y104.247 F10800
G1 Z.2 F720
G1 E.8 F1500
M204 S800
G1 F1200
G1 X101.99 Y105 E.11865
G1 X101.244 Y105.746 E.11754
M204 S1000
;WIPE_START
G1 F8640
G1 X101.99 Y105 E-.2436
G1 X101.237 Y104.247 E-.24589
;WIPE_END
G1 E-.31051 F2100
G1 Z.6 F720
G1 X107.665 Y121.27 F10800
G1 Z.2 F720
G1 E.8 F1500
M204 S800
G1 F1200
G1 X108.73 Y121.27 E.11866
G1 X108.73 Y122.326 E.11765
M204 S1000
;WIPE_START
G1 F8640
G1 X108.73 Y121.27 E-.24383
G1 X107.665 Y121.27 E-.24591
;WIPE_END
G1 E-.31026 F2100
G1 Z.6 F720
G1 X109.687 Y123.165 F10800
G1 Z.2 F720
G1 E.8 F1500
M204 S800
G1 F1200
G1 X109.687 Y120.313 E.31775
G1 X106.831 Y120.313 E.3182
M204 S1000
;WIPE_START
G1 F8640
G1 X109.687 Y120.313 E-.65946
G1 X109.687 Y120.922 E-.14054
;WIPE_END
G1 Z.6 F720
G1 X106.024 Y119.356 F10800
G1 Z.2 F720
G1 E.8 F1500
M204 S800
G1 F1200
G1 X110.644 Y119.356 E.51473
G1 X110.644 Y123.977 E.51484
M204 S1000
;WIPE_START
G1 F8640
G1 X110.644 Y120.512 E-.8
;WIPE_END
G1 Z.6 F720
G1 X111.601 Y124.62 F10800
G1 Z.2 F720
G1 E.8 F1500
M204 S800
G1 F1200
G1 X111.601 Y118.399 E.69311
G1 X105.384 Y118.399 E.69266
M73 Q1 S54
M204 S1000
;WIPE_START
G1 F8640
M73 P1 R54
G1 X108.849 Y118.399 E-.8
;WIPE_END
G1 Z.6 F720
G1 X104.745 Y117.442 F10800
G1 Z.2 F720
G1 E.8 F1500
M204 S800
G1 F1200
G1 X112.558 Y117.442 E.87048
G1 X112.558 Y125.263 E.87137
M204 S1000
;WIPE_START
G1 F8640
G1 X112.558 Y121.798 E-.8
;WIPE_END
G1 Z.6 F720
G1 X113.515 Y125.821 F10800
G1 Z.2 F720
G1 E.8 F1500
M204 S800
G1 F1200
G1 X113.515 Y116.485 E1.04016
G1 X104.17 Y116.485 E1.04116
M204 S1000
;WIPE_START
G1 F8640
G1 X107.635 Y116.485 E-.8
;WIPE_END
G1 Z.6 F720
G1 X103.7 Y115.528 F10800
G1 Z.2 F720
G1 E.8 F1500
M204 S800
G1 F1200
G1 X114.472 Y115.528 E1.20015
G1 X114.472 Y126.293 E1.19937
M204 S1000
;WIPE_START
G1 F8640
G1 X114.472 Y122.828 E-.8
;WIPE_END
G1 Z.6 F720
G1 X125.746 Y128.756 F10800
G1 Z.2 F720
G1 E.8 F1500
M204 S800
G1 F1200
G1 X125 Y128.01 E.11754
G1 X124.247 Y128.763 E.11865
M204 S1000
;WIPE_START
G1 F8640
G1 X125 Y128.01 E-.24589
G1 X125.746 Y128.756 E-.2436
;WIPE_END
G1 E-.31051 F2100
G1 Z.6 F720
G1 X122.98 Y128.676 F10800
G1 Z.2 F720
G1 E.8 F1500
M204 S800
G1 F1200
G1 X125 Y126.656 E.31828
G1 X127.016 Y128.673 E.31773
M204 S1000
;WIPE_START
G1 F8640
G1 X125 Y126.656 E-.65848
G1 X124.567 Y127.089 E-.14152
;WIPE_END
G1 Z.6 F720
G1 X128.268 Y128.57 F10800
G1 Z.2 F720
G1 E.8 F1500
M204 S800
G1 F1200
G1 X125 Y125.303 E.51484
G1 X121.733 Y128.569 E.51468
M204 S1000
;WIPE_START
G1 F8640
G1 X124.183 Y126.119 E-.8
;WIPE_END
G1 Z.6 F720
G1 X120.604 Y128.345 F10800
G1 Z.2 F720
G1 E.8 F1500
M204 S800
G1 F1200
G1 X125 Y123.949 E.69265
G1 X129.399 Y128.348 E.69312
M204 S1000
;WIPE_START
G1 F8640
G1 X126.949 Y125.898 E-.8
;WIPE_END
G1 Z.6 F720
G1 X130.531 Y128.126 F10800
G1 Z.2 F720
G1 E.8 F1500
M204 S800
G1 F1200
G1 X125 Y122.596 E.8714
G1 X119.475 Y128.12 E.87046
M204 S1000
;WIPE_START
G1 F8640
G1 X121.925 Y125.67 E-.8
;WIPE_END
G1 Z.6 F720
G1 X118.391 Y127.851 F10800
G1 Z.2 F720
G1 E.8 F1500
M204 S800
G1 F1200
G1 X125 Y121.242 E1.04134
G1 X131.602 Y127.844 E1.04023
M204 S1000
;WIPE_START
G1 F8640
G1 X129.152 Y125.394 E-.8
;WIPE_END
G1 Z.6 F720
G1 X132.612 Y127.501 F10800
G1 Z.2 F720
G1 E.8 F1500
M204 S800
G1 F1200
G1 X125 Y119.889 E1.19937
G1 X117.383 Y127.506 E1.20016
M204 S1000
;WIPE_START
G1 F8640
G1 X119.833 Y125.056 E-.8
;WIPE_END
G1 Z.6 F720
G1 X116.375 Y127.16 F10800
G1 Z.2 F720
G1 E.8 F1500
M204 S800
G1 F1200
G1 X125 Y118.535 E1.35898
G1 X133.623 Y127.158 E1.35867
M204 S1000
;WIPE_START
G1 F8640
M73 P1 R53
G1 X131.173 Y124.708 E-.8
;WIPE_END
G1 Z.6 F720
G1 X134.571 Y126.769 F10800
G1 Z.2 F720
G1 E.8 F1500
M204 S800
G1 F1200
G1 X134.571 Y114.571 E1.35903
G1 X146.765 Y114.571 E1.35858
M73 Q1 S53
M204 S1000
;WIPE_START
G1 F8640
G1 X143.3 Y114.571 E-.8
;WIPE_END
G1 Z.6 F720
G1 X147.16 Y113.625 F10800
G1 Z.2 F720
G1 E.8 F1500
M204 S800
G1 F1200
G1 X138.535 Y105 E1.35898
G1 X147.158 Y96.377 E1.35867
M204 S1000
;WIPE_START
G1 F8640
G1 X144.708 Y98.827 E-.8
;WIPE_END
G1 Z.6 F720
G1 X146.769 Y95.429 F10800
G1 Z.2 F720
G1 E.8 F1500
M204 S800
G1 F1200
G1 X134.571 Y95.429 E1.35903
G1 X134.571 Y83.235 E1.35858
M204 S1000
;WIPE_START
G1 F8640
G1 X134.571 Y86.7 E-.8
;WIPE_END
G1 Z.6 F720
G1 X133.624 Y82.84 F10800
G1 Z.2 F720
G1 E.8 F1500
M204 S800
G1 F1200
G1 X125 Y91.465 E1.3589
G1 X116.377 Y82.842 E1.35867
M204 S1000
;WIPE_START
G1 F8640
G1 X118.827 Y85.292 E-.8
;WIPE_END
G1 Z.6 F720
G1 X115.429 Y83.231 F10800
G1 Z.2 F720
G1 E.8 F1500
M204 S800
G1 F1200
G1 X115.429 Y95.429 E1.35903
G1 X103.235 Y95.429 E1.35858
M204 S1000
;WIPE_START
G1 F8640
G1 X106.7 Y95.429 E-.8
;WIPE_END
G1 Z.6 F720
G1 X102.84 Y96.375 F10800
G1 Z.2 F720
G1 E.8 F1500
M204 S800
G1 F1200
G1 X111.465 Y105 E1.35898
G1 X102.842 Y113.623 E1.35867
M204 S1000
;WIPE_START
G1 F8640
G1 X105.292 Y111.173 E-.8
;WIPE_END
G1 Z.6 F720
G1 X103.231 Y114.571 F10800
G1 Z.2 F720
G1 E.8 F1500
M204 S800
G1 F1200
G1 X115.429 Y114.571 E1.35903
G1 X115.429 Y126.752 E1.35714
G1 X125 Y117.182 E1.50796
G1 X133.614 Y125.795 E1.35717
G1 X133.614 Y113.614 E1.35714
G1 X145.795 Y113.614 E1.35714
G1 X137.182 Y105 E1.35717
G1 X145.795 Y96.386 E1.35717
G1 X133.614 Y96.386 E1.35714
G1 X133.614 Y84.205 E1.35714
G1 X125 Y92.818 E1.35717
G1 X116.386 Y84.205 E1.35717
G1 X116.386 Y96.386 E1.35714
G1 X104.205 Y96.386 E1.35714
G1 X112.818 Y105 E1.35717
G1 X104.205 Y113.614 E1.35717
M73 Q2 S53
G1 X116.386 Y113.614 E1.35714
M73 P2 R53
G1 X116.386 Y124.442 E1.20639
G1 X125 Y115.828 E1.35725
G1 X132.657 Y123.485 E1.20646
G1 X132.657 Y112.657 E1.20639
G1 X143.485 Y112.657 E1.20639
G1 X135.828 Y105 E1.20646
G1 X143.485 Y97.343 E1.20646
G1 X132.657 Y97.343 E1.20639
G1 X132.657 Y86.515 E1.20639
G1 X125 Y94.172 E1.20646
G1 X117.343 Y86.515 E1.20646
G1 X117.343 Y97.343 E1.20639
G1 X106.515 Y97.343 E1.20639
G1 X114.172 Y105 E1.20646
G1 X106.515 Y112.657 E1.20646
G1 X117.343 Y112.657 E1.20639
G1 X117.343 Y122.131 E1.05554
G1 X125 Y114.475 E1.20638
G1 X131.7 Y121.174 E1.0556
G1 X131.7 Y111.7 E1.05554
G1 X141.174 Y111.7 E1.05554
G1 X134.475 Y105 E1.0556
G1 X141.174 Y98.3 E1.0556
G1 X131.7 Y98.3 E1.05554
G1 X131.7 Y88.826 E1.05554
G1 X125 Y95.525 E1.0556
G1 X118.3 Y88.826 E1.0556
G1 X118.3 Y98.3 E1.05554
G1 X108.826 Y98.3 E1.05554
G1 X115.525 Y105 E1.0556
G1 X108.826 Y111.7 E1.0556
G1 X118.3 Y111.7 E1.05554
G1 X118.3 Y119.821 E.90479
G1 X125 Y113.121 E1.05567
G1 X130.742 Y118.864 E.90481
G1 X130.742 Y110.742 E.90491
G1 X138.864 Y110.742 E.90491
G1 X133.121 Y105 E.90481
G1 X138.864 Y99.257 E.90489
G1 X130.742 Y99.257 E.90491
G1 X130.742 Y91.136 E.90479
G1 X125 Y96.879 E.90481
G1 X119.257 Y91.136 E.90489
G1 X119.257 Y99.257 E.90479
G1 X111.136 Y99.257 E.90479
G1 X116.879 Y105 E.90489
G1 X111.136 Y110.742 E.90481
G1 X119.257 Y110.742 E.90479
G1 X119.257 Y117.51 E.75405
G1 X125 Y111.768 E.90481
G1 X129.785 Y116.553 E.75394
G1 X129.785 Y109.785 E.75405
G1 X136.553 Y109.785 E.75405
G1 X131.768 Y105 E.75394
G1 X136.553 Y100.215 E.75394
G1 X129.785 Y100.215 E.75405
G1 X129.785 Y93.447 E.75405
G1 X125 Y98.232 E.75394
G1 X120.215 Y93.447 E.75394
G1 X120.215 Y100.215 E.75405
G1 X113.447 Y100.215 E.75405
G1 X118.232 Y105 E.75394
G1 X113.447 Y109.785 E.75394
G1 X120.215 Y109.785 E.75405
G1 X120.215 Y115.199 E.6032
G1 X125 Y110.414 E.75394
G1 X128.828 Y114.242 E.60315
G1 X128.828 Y108.828 E.6032
G1 X134.242 Y108.828 E.6032
G1 X130.414 Y105 E.60315
G1 X134.242 Y101.172 E.60315
G1 X128.828 Y101.172 E.6032
G1 X128.828 Y95.758 E.6032
G1 X125 Y99.586 E.60315
M73 Q3 S53
G1 X121.172 Y95.758 E.60315
M73 P3 R53
G1 X121.172 Y101.172 E.6032
G1 X115.758 Y101.172 E.6032
G1 X119.586 Y105 E.60315
G1 X115.758 Y108.828 E.60315
G1 X121.172 Y108.828 E.6032
G1 X121.172 Y112.889 E.45245
G1 X125 Y109.061 E.60315
G1 X127.871 Y111.932 E.45236
G1 X127.871 Y107.871 E.45245
G1 X131.932 Y107.871 E.45245
G1 X129.06 Y105 E.45244
G1 X131.932 Y102.129 E.45244
G1 X127.871 Y102.129 E.45245
G1 X127.871 Y98.068 E.45245
G1 X125 Y100.939 E.45236
G1 X122.129 Y98.068 E.45236
G1 X122.129 Y102.129 E.45245
G1 X118.068 Y102.129 E.45245
G1 X120.939 Y105 E.45236
G1 X118.068 Y107.871 E.45236
G1 X122.129 Y107.871 E.45245
G1 X122.129 Y110.578 E.3016
G1 X125 Y107.707 E.45236
G1 X126.914 Y109.621 E.30158
G1 X126.914 Y106.914 E.3016
G1 X129.621 Y106.914 E.3016
G1 X127.707 Y105 E.30158
G1 X129.621 Y103.086 E.30158
G1 X126.914 Y103.086 E.3016
G1 X126.914 Y100.379 E.3016
G1 X125 Y102.293 E.30158
G1 X123.086 Y100.379 E.30158
G1 X123.086 Y103.086 E.3016
G1 X120.379 Y103.086 E.3016
G1 X122.293 Y105 E.30158
G1 X120.379 Y106.914 E.30158
M73 P3 R52
G1 X123.086 Y106.914 E.3016
G1 X123.086 Y108.268 E.15085
G1 X125 Y106.353 E.30166
