; generated by PrusaSlicer 2.9.0 on 2025-01-10 at 23:52:29 UTC


;
;
; 

; external perimeters extrusion width = 1.00mm
; perimeters extrusion width = 1.00mm
; infill extrusion width = 1.00mm
; solid infill extrusion width = 1.00mm
; top infill extrusion width = 1.00mm
; first layer extrusion width = 1.00mm

M73 P0 R85
M73 Q0 S85
M201 X1000 Y1000 Z200 E5000 ; sets maximum accelerations, mm/sec^2
M203 X200 Y200 Z12 E120 ; sets maximum feedrates, mm / sec
M204 S1250 T1250 ; sets acceleration (S) and retract acceleration (R), mm/sec^2
M205 X8.00 Y8.00 Z0.40 E4.50 ; sets the jerk limits, mm/sec
M205 S0 T0 ; sets the minimum extruding and travel feed rate, mm/sec

; printing object Faceted_Vase.stl id:0 copy 0
; stop printing object Faceted_Vase.stl id:0 copy 0

;TYPE:Custom
M862.3 P "MK3S" ; printer model check
M862.1 P0.6 ; nozzle diameter check
M115 U3.13.3 ; tell printer latest fw version
G90 ; use absolute coordinates
M83 ; extruder relative mode
M104 S215 ; set extruder temp
M140 S60 ; set bed temp
M190 S60 ; wait for bed temp
M109 S215 ; wait for extruder temp
G28 W ; home all without mesh bed level
G80 X90.2952 Y70.2952 W69.4097 H69.4097 ; mesh bed levelling

G1 Z0.2 F720
G1 Y-3 F1000 ; go outside print area
G92 E0
G1 X60 E9 F1000 ; intro line
G1 X100 E12.5 F1000 ; intro line

G92 E0
M221 S95
G21 ; set units to millimeters
G90 ; use absolute coordinates
M83 ; use relative distances for extrusion

M900 K0.04 ; Filament gcode LA 1.5
M900 K18 ; Filament gcode LA 1.0




M107
;LAYER_CHANGE
;Z:0.2
;HEIGHT:0.2
G1 E-.8 F2100
G1 Z.6 F720
; printing object Faceted_Vase.stl id:0 copy 0
G1 X100.995 Y81.034 F10800
G1 Z.2 F720
G1 E.8 F1500
M204 S800
;TYPE:External perimeter
;WIDTH:0.999999
G1 F1200
G1 X101.175 Y80.747 E.03774
G1 X104.294 Y78.021 E.46152
G1 X107.643 Y75.784 E.44871
G1 X108.015 Y75.638 E.04452
G1 X108.264 Y75.407 E.03784
G1 X111.983 Y73.581 E.4616
G1 X115.796 Y72.287 E.44862
G1 X116.194 Y72.242 E.04463
G1 X116.494 Y72.083 E.03783
G1 X120.216 Y71.343 E.4228
G1 X120.552 Y71.283 E.03803
G1 X124.577 Y71.019 E.44941
G1 X124.972 Y71.079 E.04451
G1 X125.304 Y71.003 E.03795
G1 X129.436 Y71.282 E.46141
G1 X133.386 Y72.068 E.44871
G1 X133.752 Y72.228 E.0445
G1 X134.093 Y72.24 E.03802
G1 X138.012 Y73.579 E.46141
G1 X141.624 Y75.36 E.44869
G1 X141.936 Y75.61 E.04454
G1 X142.261 Y75.71 E.03788
G1 X145.416 Y77.818 E.42275
G1 X145.696 Y78.014 E.03808
G1 X148.728 Y80.673 E.44931
G1 X148.966 Y80.995 E.04461
G1 X149.253 Y81.175 E.03774
G1 X151.979 Y84.294 E.46152
G1 X154.216 Y87.643 E.44871
G1 X154.362 Y88.015 E.04452
G1 X154.593 Y88.264 E.03784
G1 X156.419 Y91.983 E.4616
G1 X157.713 Y95.796 E.44862
G1 X157.758 Y96.194 E.04463
G1 X157.917 Y96.494 E.03783
G1 X158.657 Y100.216 E.4228
G1 X158.717 Y100.552 E.03803
G1 X158.99 Y104.716 E.46492
G1 X158.945 Y104.848 E.01554
G1 X158.921 Y104.972 E.01407
G1 X158.997 Y105.304 E.03795
G1 X158.718 Y109.436 E.46141
G1 X157.932 Y113.386 E.44871
G1 X157.772 Y113.752 E.0445
G1 X157.76 Y114.093 E.03802
G1 X156.421 Y118.012 E.46141
G1 X154.64 Y121.624 E.44869
G1 X154.39 Y121.936 E.04454
G1 X154.29 Y122.261 E.03788
G1 X152.182 Y125.416 E.42275
G1 X151.986 Y125.696 E.03808
G1 X149.327 Y128.729 E.44939
G1 X149.005 Y128.966 E.04455
G1 X148.825 Y129.253 E.03774
G1 X145.705 Y131.979 E.4616
G1 X142.357 Y134.216 E.44862
G1 X141.985 Y134.362 E.04452
G1 X141.736 Y134.593 E.03784
G1 X138.017 Y136.419 E.4616
G1 X134.204 Y137.713 E.44862
G1 X133.806 Y137.758 E.04463
G1 X133.506 Y137.917 E.03783
G1 X129.784 Y138.657 E.4228
G1 X129.448 Y138.717 E.03803
G1 X125.423 Y138.981 E.44941
G1 X125.028 Y138.921 E.04451
G1 X124.696 Y138.997 E.03795
G1 X120.564 Y138.718 E.46141
G1 X116.614 Y137.932 E.44871
G1 X116.248 Y137.772 E.0445
G1 X115.907 Y137.76 E.03802
G1 X111.988 Y136.421 E.46141
G1 X108.376 Y134.64 E.44869
G1 X108.064 Y134.39 E.04454
G1 X107.739 Y134.29 E.03788
G1 X104.584 Y132.182 E.42275
G1 X104.304 Y131.986 E.03808
G1 X101.272 Y129.327 E.44931
G1 X101.034 Y129.005 E.04461
G1 X100.747 Y128.825 E.03774
G1 X98.021 Y125.706 E.46152
G1 X95.784 Y122.357 E.44871
G1 X95.638 Y121.985 E.04452
G1 X95.407 Y121.736 E.03784
G1 X93.581 Y118.017 E.4616
G1 X92.287 Y114.204 E.44862
G1 X92.242 Y113.806 E.04463
G1 X92.083 Y113.506 E.03783
G1 X91.343 Y109.784 E.4228
G1 X91.283 Y109.448 E.03803
G1 X91.019 Y105.423 E.44941
G1 X91.079 Y105.028 E.04451
G1 X91.003 Y104.696 E.03795
G1 X91.282 Y100.564 E.46141
G1 X92.068 Y96.614 E.44871
G1 X92.228 Y96.248 E.0445
G1 X92.24 Y95.907 E.03802
G1 X93.579 Y91.988 E.46141
G1 X95.36 Y88.376 E.44869
G1 X95.61 Y88.064 E.04454
G1 X95.71 Y87.739 E.03788
G1 X97.818 Y84.584 E.42275
G1 X98.014 Y84.304 E.03808
G1 X100.673 Y81.272 E.44931
G1 X100.922 Y81.087 E.03456
M204 S1000
G1 X100.922 Y81.087 F10800
G1 X101.089 Y82.03
M204 S800
;TYPE:Solid infill
;WIDTH:1
G1 F1200
G1 X102.03 Y82.03 E.10484
G1 X102.03 Y81.08 E.10584
M204 S1000
;WIPE_START
G1 F8640
G1 X102.03 Y82.03 E-.21936
G1 X101.089 Y82.03 E-.21728
;WIPE_END
G1 E-.36336 F2100
G1 Z.6 F720
G1 X102.987 Y80.244 F10800
G1 Z.2 F720
G1 E.8 F1500
M204 S800
G1 F1200
G1 X102.987 Y82.987 E.30561
G1 X100.25 Y82.987 E.30494
M204 S1000
;WIPE_START
G1 F8640
G1 X102.987 Y82.987 E-.63198
G1 X102.987 Y82.259 E-.16802
;WIPE_END
G1 Z.6 F720
G1 X99.411 Y83.944 F10800
G1 Z.2 F720
G1 E.8 F1500
M204 S800
G1 F1200
G1 X103.944 Y83.944 E.50504
G1 X103.944 Y79.407 E.50549
M204 S1000
;WIPE_START
G1 F8640
G1 X103.944 Y82.872 E-.8
;WIPE_END
G1 Z.6 F720
G1 X104.901 Y78.594 F10800
G1 Z.2 F720
G1 E.8 F1500
M204 S800
G1 F1200
G1 X104.901 Y84.901 E.70269
G1 X98.588 Y84.901 E.70336
M204 S1000
;WIPE_START
G1 F8640
G1 X102.053 Y84.901 E-.8
;WIPE_END
G1 Z.6 F720
G1 X97.945 Y85.858 F10800
G1 Z.2 F720
G1 E.8 F1500
M204 S800
G1 F1200
G1 X105.858 Y85.858 E.88162
G1 X105.858 Y77.955 E.88051
M204 S1000
;WIPE_START
G1 F8640
G1 X105.858 Y81.42 E-.8
;WIPE_END
G1 Z.6 F720
G1 X106.815 Y77.315 F10800
G1 Z.2 F720
G1 E.8 F1500
M204 S800
G1 F1200
G1 X106.815 Y86.815 E1.05843
G1 X97.305 Y86.815 E1.05955
M204 S1000
;WIPE_START
G1 F8640
G1 X100.77 Y86.815 E-.8
;WIPE_END
G1 Z.6 F720
G1 X91.85 Y105.665 F10800
G1 Z.2 F720
G1 E.8 F1500
M204 S800
G1 F1200
G1 X92.516 Y105 E.10486
G1 X91.843 Y104.328 E.10596
M204 S1000
;WIPE_START
G1 F8640
G1 X92.516 Y105 E-.2196
G1 X91.85 Y105.665 E-.21732
;WIPE_END
G1 E-.36308 F2100
G1 Z.6 F720
G1 X91.929 Y103.06 F10800
G1 Z.2 F720
G1 E.8 F1500
M204 S800
G1 F1200
G1 X93.869 Y105 E.30567
G1 X91.934 Y106.935 E.30489
M204 S1000
;WIPE_START
G1 F8640
G1 X93.869 Y105 E-.63187
G1 X93.354 Y104.485 E-.16813
;WIPE_END
G1 Z.6 F720
G1 X92.334 Y110.596 F10800
G1 Z.2 F720
G1 E.8 F1500
M204 S800
G1 F1200
G1 X97.93 Y105 E.88172
G1 X92.341 Y99.411 E.88062
M204 S1000
;WIPE_START
G1 F8640
G1 X94.791 Y101.861 E-.8
;WIPE_END
G1 Z.6 F720
G1 X92.116 Y100.54 F10800
G1 Z.2 F720
G1 E.8 F1500
M204 S800
G1 F1200
G1 X96.576 Y105 E.70273
G1 X92.112 Y109.464 E.70336
M204 S1000
;WIPE_START
G1 F8640
G1 X94.562 Y107.014 E-.8
;WIPE_END
G1 Z.6 F720
G1 X92.017 Y108.206 F10800
G1 Z.2 F720
G1 E.8 F1500
M204 S800
G1 F1200
G1 X95.223 Y105 E.50515
G1 X92.014 Y101.792 E.50554
M204 S1000
;WIPE_START
G1 F8640
G1 X94.464 Y104.241 E-.8
;WIPE_END
G1 Z.6 F720
G1 X92.565 Y98.282 F10800
G1 Z.2 F720
G1 E.8 F1500
M204 S800
G1 F1200
G1 X99.283 Y105 E1.05851
G1 X92.558 Y111.725 E1.05961
M204 S1000
;WIPE_START
G1 F8640
G1 X95.008 Y109.275 E-.8
;WIPE_END
G1 Z.6 F720
G1 X92.783 Y112.854 F10800
G1 Z.2 F720
G1 E.8 F1500
M204 S800
G1 F1200
G1 X100.637 Y105 E1.2375
G1 X92.79 Y97.153 E1.2364
M204 S1000
;WIPE_START
G1 F8640
G1 X95.24 Y99.603 E-.8
;WIPE_END
G1 Z.6 F720
G1 X93.054 Y96.064 F10800
G1 Z.2 F720
G1 E.8 F1500
M204 S800
G1 F1200
G1 X101.99 Y105 E1.40799
G1 X93.057 Y113.933 E1.40751
M204 S1000
;WIPE_START
G1 F8640
G1 X95.507 Y111.483 E-.8
;WIPE_END
G1 Z.6 F720
G1 X93.398 Y114.946 F10800
G1 Z.2 F720
G1 E.8 F1500
M204 S800
G1 F1200
G1 X103.344 Y105 E1.56712
G1 X93.393 Y95.049 E1.56791
M204 S1000
;WIPE_START
G1 F8640
G1 X95.843 Y97.499 E-.8
;WIPE_END
G1 Z.6 F720
G1 X93.738 Y94.04 F10800
G1 Z.2 F720
G1 E.8 F1500
M204 S800
G1 F1200
G1 X104.697 Y105 E1.72682
G1 X93.741 Y115.956 E1.72626
M204 S1000
;WIPE_START
G1 F8640
G1 X96.191 Y113.506 E-.8
;WIPE_END
G1 Z.6 F720
G1 X94.084 Y116.967 F10800
G1 Z.2 F720
M73 P0 R84
G1 E.8 F1500
M204 S800
G1 F1200
G1 X106.051 Y105 E1.88556
G1 X94.082 Y93.032 E1.8858
M204 S1000
;WIPE_START
G1 F8640
M73 Q0 S84
G1 X96.532 Y95.482 E-.8
;WIPE_END
G1 Z.6 F720
G1 X94.677 Y91.601 F10800
G1 Z.2 F720
G1 E.8 F1500
M204 S800
G1 F1200
G1 X111.601 Y91.601 E1.88557
G1 X111.601 Y74.675 E1.8858
M204 S1000
;WIPE_START
G1 F8640
G1 X111.601 Y78.14 E-.8
;WIPE_END
G1 Z.6 F720
G1 X110.644 Y75.145 F10800
G1 Z.2 F720
G1 E.8 F1500
M204 S800
G1 F1200
G1 X110.644 Y90.644 E1.72681
G1 X95.149 Y90.644 E1.72636
M204 S1000
;WIPE_START
G1 F8640
G1 X98.614 Y90.644 E-.8
;WIPE_END
G1 Z.6 F720
G1 X95.621 Y89.687 F10800
G1 Z.2 F720
G1 E.8 F1500
M204 S800
G1 F1200
G1 X109.687 Y89.687 E1.56715
G1 X109.687 Y75.615 E1.56782
M204 S1000
;WIPE_START
G1 F8640
G1 X109.687 Y79.08 E-.8
;WIPE_END
G1 Z.6 F720
G1 X108.73 Y76.095 F10800
G1 Z.2 F720
G1 E.8 F1500
M204 S800
G1 F1200
G1 X108.73 Y88.73 E1.40772
G1 X96.097 Y88.73 E1.40749
M204 S1000
;WIPE_START
G1 F8640
G1 X99.562 Y88.73 E-.8
;WIPE_END
G1 Z.6 F720
G1 X96.666 Y87.773 F10800
G1 Z.2 F720
G1 E.8 F1500
M204 S800
G1 F1200
G1 X107.773 Y87.773 E1.23748
G1 X107.773 Y76.676 E1.23636
M204 S1000
;WIPE_START
G1 F8640
G1 X107.773 Y80.141 E-.8
;WIPE_END
G1 Z.6 F720
G1 X119.404 Y72.334 F10800
G1 Z.2 F720
G1 E.8 F1500
M204 S800
G1 F1200
G1 X125 Y77.93 E.88172
G1 X130.589 Y72.341 E.88062
M204 S1000
;WIPE_START
G1 F8640
G1 X128.139 Y74.791 E-.8
;WIPE_END
G1 Z.6 F720
G1 X129.46 Y72.116 F10800
G1 Z.2 F720
G1 E.8 F1500
M204 S800
G1 F1200
G1 X125 Y76.576 E.70273
G1 X120.536 Y72.112 E.70336
M204 S1000
;WIPE_START
G1 F8640
G1 X122.986 Y74.562 E-.8
;WIPE_END
G1 Z.6 F720
G1 X121.794 Y72.017 F10800
G1 Z.2 F720
G1 E.8 F1500
M204 S800
G1 F1200
G1 X125 Y75.223 E.50515
G1 X128.208 Y72.014 E.50554
M204 S1000
;WIPE_START
G1 F8640
G1 X125.758 Y74.464 E-.8
;WIPE_END
G1 Z.6 F720
G1 X126.94 Y71.929 F10800
G1 Z.2 F720
M73 Q1 S84
G1 E.8 F1500
M204 S800
G1 F1200
G1 X125 Y73.869 E.30567
G1 X123.065 Y71.934 E.30489
M204 S1000
;WIPE_START
G1 F8640
M73 P1 R84
G1 X125 Y73.869 E-.63187
G1 X125.515 Y73.354 E-.16813
;WIPE_END
G1 Z.6 F720
G1 X124.335 Y71.85 F10800
G1 Z.2 F720
G1 E.8 F1500
M204 S800
G1 F1200
G1 X125 Y72.516 E.10486
G1 X125.672 Y71.843 E.10596
M204 S1000
;WIPE_START
G1 F8640
G1 X125 Y72.516 E-.2196
G1 X124.335 Y71.85 E-.21732
;WIPE_END
G1 E-.36308 F2100
G1 Z.6 F720
G1 X131.718 Y72.565 F10800
G1 Z.2 F720
G1 E.8 F1500
M204 S800
G1 F1200
G1 X125 Y79.283 E1.05851
G1 X118.275 Y72.558 E1.05961
M204 S1000
;WIPE_START
G1 F8640
G1 X120.725 Y75.008 E-.8
;WIPE_END
G1 Z.6 F720
G1 X117.146 Y72.783 F10800
G1 Z.2 F720
G1 E.8 F1500
M204 S800
G1 F1200
G1 X125 Y80.637 E1.2375
G1 X132.847 Y72.79 E1.2364
M204 S1000
;WIPE_START
G1 F8640
G1 X130.397 Y75.24 E-.8
;WIPE_END
G1 Z.6 F720
G1 X133.936 Y73.054 F10800
G1 Z.2 F720
G1 E.8 F1500
M204 S800
G1 F1200
G1 X125 Y81.99 E1.40799
G1 X116.067 Y73.057 E1.40751
M204 S1000
;WIPE_START
G1 F8640
G1 X118.517 Y75.507 E-.8
;WIPE_END
G1 Z.6 F720
G1 X115.054 Y73.398 F10800
G1 Z.2 F720
G1 E.8 F1500
M204 S800
G1 F1200
G1 X125 Y83.344 E1.56712
G1 X134.951 Y73.393 E1.56791
M204 S1000
;WIPE_START
G1 F8640
G1 X132.501 Y75.843 E-.8
;WIPE_END
G1 Z.6 F720
G1 X135.96 Y73.738 F10800
G1 Z.2 F720
G1 E.8 F1500
M204 S800
G1 F1200
G1 X125 Y84.697 E1.72682
G1 X114.044 Y73.741 E1.72626
M204 S1000
;WIPE_START
G1 F8640
G1 X116.494 Y76.191 E-.8
;WIPE_END
G1 Z.6 F720
G1 X113.033 Y74.084 F10800
G1 Z.2 F720
G1 E.8 F1500
M204 S800
G1 F1200
G1 X125 Y86.051 E1.88556
G1 X136.968 Y74.082 E1.8858
M204 S1000
;WIPE_START
G1 F8640
G1 X134.518 Y76.532 E-.8
;WIPE_END
G1 Z.6 F720
G1 X138.399 Y74.677 F10800
G1 Z.2 F720
G1 E.8 F1500
M204 S800
G1 F1200
G1 X138.399 Y91.601 E1.88557
G1 X155.325 Y91.601 E1.8858
M204 S1000
;WIPE_START
G1 F8640
G1 X151.86 Y91.601 E-.8
;WIPE_END
G1 Z.6 F720
G1 X154.855 Y90.644 F10800
G1 Z.2 F720
G1 E.8 F1500
M204 S800
G1 F1200
G1 X139.356 Y90.644 E1.72681
G1 X139.356 Y75.149 E1.72636
M204 S1000
;WIPE_START
G1 F8640
G1 X139.356 Y78.614 E-.8
;WIPE_END
G1 Z.6 F720
G1 X140.313 Y75.621 F10800
G1 Z.2 F720
G1 E.8 F1500
M204 S800
G1 F1200
G1 X140.313 Y89.687 E1.56715
G1 X154.385 Y89.687 E1.56782
M204 S1000
;WIPE_START
G1 F8640
G1 X150.92 Y89.687 E-.8
;WIPE_END
G1 Z.6 F720
G1 X153.905 Y88.73 F10800
G1 Z.2 F720
G1 E.8 F1500
M204 S800
G1 F1200
G1 X141.27 Y88.73 E1.40772
G1 X141.27 Y76.097 E1.40749
M204 S1000
;WIPE_START
G1 F8640
G1 X141.27 Y79.562 E-.8
;WIPE_END
G1 Z.6 F720
G1 X142.227 Y76.666 F10800
G1 Z.2 F720
G1 E.8 F1500
M204 S800
G1 F1200
G1 X142.227 Y87.773 E1.23748
G1 X153.324 Y87.773 E1.23636
M204 S1000
;WIPE_START
G1 F8640
G1 X149.859 Y87.773 E-.8
;WIPE_END
G1 Z.6 F720
G1 X147.97 Y81.089 F10800
G1 Z.2 F720
G1 E.8 F1500
M204 S800
G1 F1200
G1 X147.97 Y82.03 E.10484
G1 X148.92 Y82.03 E.10584
M204 S1000
;WIPE_START
G1 F8640
G1 X147.97 Y82.03 E-.21936
G1 X147.97 Y81.089 E-.21728
;WIPE_END
G1 E-.36336 F2100
G1 Z.6 F720
G1 X149.756 Y82.987 F10800
G1 Z.2 F720
G1 E.8 F1500
M204 S800
G1 F1200
G1 X147.013 Y82.987 E.30561
G1 X147.013 Y80.25 E.30494
M204 S1000
;WIPE_START
G1 F8640
G1 X147.013 Y82.987 E-.63198
G1 X147.741 Y82.987 E-.16802
;WIPE_END
G1 Z.6 F720
G1 X146.056 Y79.411 F10800
G1 Z.2 F720
G1 E.8 F1500
M204 S800
G1 F1200
G1 X146.056 Y83.944 E.50504
G1 X150.593 Y83.944 E.50549
M204 S1000
;WIPE_START
G1 F8640
G1 X147.128 Y83.944 E-.8
;WIPE_END
G1 Z.6 F720
G1 X151.406 Y84.901 F10800
G1 Z.2 F720
G1 E.8 F1500
M204 S800
G1 F1200
G1 X145.099 Y84.901 E.70269
G1 X145.099 Y78.588 E.70336
M204 S1000
;WIPE_START
G1 F8640
G1 X145.099 Y82.053 E-.8
;WIPE_END
G1 Z.6 F720
G1 X144.142 Y77.945 F10800
G1 Z.2 F720
G1 E.8 F1500
M204 S800
G1 F1200
G1 X144.142 Y85.858 E.88162
G1 X152.045 Y85.858 E.88051
M204 S1000
;WIPE_START
G1 F8640
G1 X148.58 Y85.858 E-.8
;WIPE_END
G1 Z.6 F720
G1 X152.685 Y86.815 F10800
G1 Z.2 F720
G1 E.8 F1500
M204 S800
G1 F1200
G1 X143.184 Y86.815 E1.05855
G1 X143.184 Y77.305 E1.05955
M204 S1000
;WIPE_START
G1 F8640
G1 X143.184 Y80.77 E-.8
;WIPE_END
G1 Z.6 F720
G1 X158.149 Y104.335 F10800
G1 Z.2 F720
G1 E.8 F1500
M204 S800
G1 F1200
G1 X157.484 Y105 E.10478
G1 X158.157 Y105.672 E.10596
M204 S1000
;WIPE_START
G1 F8640
G1 X157.484 Y105 E-.2196
G1 X158.149 Y104.335 E-.21715
;WIPE_END
G1 E-.36325 F2100
G1 Z.6 F720
G1 X158.071 Y106.94 F10800
G1 Z.2 F720
G1 E.8 F1500
M204 S800
G1 F1200
G1 X156.131 Y105 E.30567
G1 X158.066 Y103.065 E.30489
M204 S1000
;WIPE_START
G1 F8640
G1 X156.131 Y105 E-.63187
G1 X156.646 Y105.515 E-.16813
;WIPE_END
G1 Z.6 F720
G1 X157.983 Y101.794 F10800
G1 Z.2 F720
G1 E.8 F1500
M204 S800
G1 F1200
G1 X154.777 Y105 E.50515
G1 X157.986 Y108.208 E.50554
M204 S1000
;WIPE_START
G1 F8640
G1 X155.536 Y105.758 E-.8
;WIPE_END
G1 Z.6 F720
G1 X157.884 Y109.46 F10800
G1 Z.2 F720
G1 E.8 F1500
M204 S800
G1 F1200
G1 X153.424 Y105 E.70273
G1 X157.888 Y100.535 E.70344
M204 S1000
;WIPE_START
G1 F8640
G1 X155.438 Y102.985 E-.8
;WIPE_END
G1 Z.6 F720
G1 X157.666 Y99.404 F10800
G1 Z.2 F720
G1 E.8 F1500
M204 S800
G1 F1200
G1 X152.07 Y105 E.88172
G1 X157.659 Y110.589 E.88062
M204 S1000
;WIPE_START
G1 F8640
G1 X155.209 Y108.139 E-.8
;WIPE_END
G1 Z.6 F720
G1 X157.435 Y111.718 F10800
G1 Z.2 F720
G1 E.8 F1500
M204 S800
G1 F1200
G1 X150.717 Y105 E1.05851
G1 X157.442 Y98.275 E1.05961
M204 S1000
;WIPE_START
G1 F8640
G1 X154.992 Y100.725 E-.8
;WIPE_END
G1 Z.6 F720
G1 X157.217 Y97.146 F10800
G1 Z.2 F720
G1 E.8 F1500
M204 S800
G1 F1200
G1 X149.363 Y105 E1.2375
G1 X157.21 Y112.847 E1.2364
M204 S1000
;WIPE_START
G1 F8640
G1 X154.76 Y110.397 E-.8
;WIPE_END
G1 Z.6 F720
G1 X156.946 Y113.936 F10800
G1 Z.2 F720
G1 E.8 F1500
M204 S800
G1 F1200
G1 X148.01 Y105 E1.40799
G1 X156.943 Y96.067 E1.40751
M204 S1000
;WIPE_START
G1 F8640
G1 X154.493 Y98.517 E-.8
;WIPE_END
G1 Z.6 F720
G1 X156.602 Y95.054 F10800
G1 Z.2 F720
G1 E.8 F1500
M204 S800
G1 F1200
G1 X146.656 Y105 E1.56712
G1 X156.607 Y114.951 E1.56791
M204 S1000
;WIPE_START
G1 F8640
G1 X154.157 Y112.501 E-.8
;WIPE_END
G1 Z.6 F720
G1 X156.262 Y115.96 F10800
G1 Z.2 F720
G1 E.8 F1500
M204 S800
