; generated by PrusaSlicer 2.9.0 on 2025-01-10 at 23:51:42 UTC


;
;
; 

; external perimeters extrusion width = 1.10mm
; perimeters extrusion width = 1.00mm
; infill extrusion width = 1.40mm
; solid infill extrusion width = 1.40mm
; top infill extrusion width = 1.40mm
; first layer extrusion width = 1.00mm

M73 P0 R118
M73 Q0 S118
M201 X1000 Y1000 Z200 E5000 ; sets maximum accelerations, mm/sec^2
M203 X200 Y200 Z12 E120 ; sets maximum feedrates, mm / sec
M204 S1250 T1250 ; sets acceleration (S) and retract acceleration (R), mm/sec^2
M205 X8.00 Y8.00 Z0.40 E4.50 ; sets the jerk limits, mm/sec
M205 S0 T0 ; sets the minimum extruding and travel feed rate, mm/sec

; printing object Faceted_Bowl_2.stl id:0 copy 0
; stop printing object Faceted_Bowl_2.stl id:0 copy 0

;TYPE:Custom
M862.3 P "MK3S" ; printer model check
M862.1 P0.6 ; nozzle diameter check
M115 U3.13.3 ; tell printer latest fw version
G90 ; use absolute coordinates
M83 ; extruder relative mode
M104 S215 ; set extruder temp
M140 S60 ; set bed temp
M190 S60 ; wait for bed temp
M109 S215 ; wait for extruder temp
G28 W ; home all without mesh bed level
G80 X48.7438 Y28.7438 W152.512 H152.512 ; mesh bed levelling

G1 Z0.2 F720
G1 Y-3 F1000 ; go outside print area
G92 E0
G1 X60 E9 F1000 ; intro line
G1 X100 E12.5 F1000 ; intro line

G92 E0
M221 S95
G21 ; set units to millimeters
G90 ; use absolute coordinates
M83 ; use relative distances for extrusion

M900 K0.04 ; Filament gcode LA 1.5
M900 K18 ; Filament gcode LA 1.0




M107
;LAYER_CHANGE
;Z:0.2
;HEIGHT:0.2
G1 E-.8 F2100
G1 Z.6 F720
; printing object Faceted_Bowl_2.stl id:0 copy 0
G1 X58.506 Y79.475 F10800
G1 Z.2 F720
G1 E.8 F1500
M204 S800
;TYPE:External perimeter
;WIDTH:0.999999
G1 F1200
G1 X58.552 Y79.354 E.01133
G1 X58.504 Y79.097 E.02289
G1 X56.136 Y74.34 E.46517
G1 X61.256 Y72.916 E.46521
G1 X61.479 Y72.78 E.02287
G1 X61.597 Y72.549 E.02271
G1 X61.576 Y72.288 E.02292
G1 X59.718 Y67.31 E.46514
G1 X64.959 Y66.429 E.46523
G1 X65.195 Y66.317 E.02287
G1 X65.336 Y66.099 E.02273
G1 X65.343 Y65.838 E.02286
G1 X64.016 Y60.692 E.46522
G1 X69.319 Y60.364 E.46511
G1 X69.566 Y60.277 E.02292
G1 X69.729 Y60.076 E.02265
G1 X69.763 Y59.816 E.02295
G1 X68.981 Y54.56 E.46517
G1 X74.29 Y54.789 E.46518
G1 X74.544 Y54.728 E.02287
G1 X74.728 Y54.544 E.02278
G1 X74.789 Y54.29 E.02287
G1 X74.56 Y48.981 E.46518
G1 X79.816 Y49.763 E.46517
G1 X80.076 Y49.729 E.02295
G1 X80.277 Y49.566 E.02265
G1 X80.364 Y49.319 E.02292
G1 X80.692 Y44.016 E.46511
G1 X85.838 Y45.343 E.46522
G1 X86.099 Y45.336 E.02286
G1 X86.317 Y45.195 E.02273
G1 X86.429 Y44.959 E.02287
G1 X87.31 Y39.718 E.46523
G1 X92.288 Y41.576 E.46514
G1 X92.549 Y41.597 E.02292
G1 X92.78 Y41.479 E.02271
G1 X92.916 Y41.256 E.02287
G1 X94.34 Y36.136 E.46521
G1 X99.097 Y38.504 E.46517
G1 X99.354 Y38.552 E.02289
G1 X99.596 Y38.459 E.0227
G1 X99.755 Y38.251 E.02292
G1 X101.706 Y33.308 E.46519
G1 X106.19 Y36.161 E.46525
G1 X106.44 Y36.235 E.02282
G1 X106.691 Y36.168 E.02274
G1 X106.871 Y35.978 E.02291
G1 X109.327 Y31.266 E.46515
G1 X113.488 Y34.572 E.46523
G1 X113.73 Y34.672 E.02292
G1 X113.986 Y34.632 E.02268
G1 X114.185 Y34.461 E.02297
G1 X117.121 Y30.032 E.46517
G1 X120.913 Y33.754 E.46514
G1 X121.143 Y33.879 E.02292
G1 X121.402 Y33.866 E.0227
G1 X121.617 Y33.717 E.0229
G1 X125.001 Y29.618 E.46531
G1 X128.383 Y33.717 E.46519
G1 X128.598 Y33.866 E.0229
G1 X128.857 Y33.879 E.0227
G1 X129.087 Y33.754 E.02292
G1 X132.879 Y30.032 E.46514
G1 X135.815 Y34.461 E.46517
G1 X136.014 Y34.632 E.02297
G1 X136.27 Y34.672 E.02268
G1 X136.512 Y34.572 E.02292
G1 X140.673 Y31.266 E.46523
G1 X143.129 Y35.978 E.46515
G1 X143.309 Y36.168 E.02291
G1 X143.56 Y36.235 E.02274
G1 X143.81 Y36.161 E.02282
G1 X148.294 Y33.308 E.46525
G1 X150.245 Y38.251 E.46519
G1 X150.404 Y38.459 E.02292
G1 X150.646 Y38.552 E.0227
G1 X150.903 Y38.504 E.02289
G1 X155.66 Y36.136 E.46517
G1 X157.084 Y41.256 E.46521
G1 X157.22 Y41.479 E.02287
G1 X157.451 Y41.597 E.02271
G1 X157.712 Y41.576 E.02292
G1 X162.69 Y39.718 E.46514
G1 X163.571 Y44.959 E.46523
G1 X163.683 Y45.195 E.02287
G1 X163.901 Y45.336 E.02273
G1 X164.162 Y45.343 E.02286
G1 X169.308 Y44.016 E.46522
G1 X169.636 Y49.319 E.46511
G1 X169.723 Y49.566 E.02292
G1 X169.924 Y49.729 E.02265
G1 X170.184 Y49.763 E.02295
G1 X175.44 Y48.981 E.46517
G1 X175.211 Y54.29 E.46518
G1 X175.272 Y54.544 E.02287
G1 X175.456 Y54.728 E.02278
G1 X175.71 Y54.789 E.02287
G1 X181.019 Y54.56 E.46518
G1 X180.237 Y59.816 E.46517
G1 X180.271 Y60.076 E.02295
G1 X180.434 Y60.277 E.02265
G1 X180.681 Y60.364 E.02292
G1 X185.984 Y60.692 E.46511
G1 X184.657 Y65.838 E.46522
G1 X184.664 Y66.099 E.02286
G1 X184.805 Y66.317 E.02273
G1 X185.041 Y66.429 E.02287
G1 X190.282 Y67.31 E.46523
G1 X188.424 Y72.288 E.46514
G1 X188.403 Y72.549 E.02292
G1 X188.521 Y72.78 E.02271
G1 X188.744 Y72.916 E.02287
G1 X193.864 Y74.34 E.46521
G1 X191.496 Y79.097 E.46517
G1 X191.448 Y79.354 E.02289
G1 X191.541 Y79.596 E.0227
G1 X191.749 Y79.755 E.02292
G1 X196.692 Y81.706 E.46519
G1 X193.839 Y86.19 E.46525
G1 X193.765 Y86.44 E.02282
G1 X193.832 Y86.691 E.02274
G1 X194.022 Y86.871 E.02291
G1 X198.734 Y89.327 E.46515
G1 X195.428 Y93.488 E.46523
G1 X195.328 Y93.73 E.02292
G1 X195.368 Y93.986 E.02268
G1 X195.539 Y94.185 E.02297
G1 X199.968 Y97.121 E.46517
G1 X196.246 Y100.913 E.46514
G1 X196.121 Y101.143 E.02292
G1 X196.134 Y101.402 E.0227
G1 X196.283 Y101.617 E.0229
G1 X200.381 Y105 E.46518
G1 X196.283 Y108.383 E.46518
G1 X196.134 Y108.598 E.0229
G1 X196.121 Y108.857 E.0227
G1 X196.246 Y109.087 E.02292
G1 X199.968 Y112.879 E.46514
G1 X195.539 Y115.815 E.46517
G1 X195.368 Y116.014 E.02297
G1 X195.328 Y116.27 E.02268
G1 X195.428 Y116.512 E.02292
G1 X198.734 Y120.673 E.46523
G1 X194.022 Y123.129 E.46515
G1 X193.832 Y123.309 E.02291
G1 X193.765 Y123.56 E.02274
G1 X193.839 Y123.81 E.02282
G1 X196.692 Y128.294 E.46525
G1 X191.749 Y130.245 E.46519
G1 X191.541 Y130.404 E.02292
G1 X191.448 Y130.646 E.0227
G1 X191.496 Y130.903 E.02289
G1 X193.864 Y135.66 E.46517
G1 X188.744 Y137.084 E.46521
G1 X188.521 Y137.22 E.02287
G1 X188.403 Y137.451 E.02271
G1 X188.424 Y137.712 E.02292
G1 X190.282 Y142.69 E.46514
G1 X185.041 Y143.571 E.46523
G1 X184.805 Y143.683 E.02287
G1 X184.664 Y143.901 E.02273
G1 X184.657 Y144.162 E.02286
G1 X185.984 Y149.308 E.46522
G1 X180.681 Y149.636 E.46511
G1 X180.434 Y149.723 E.02292
G1 X180.271 Y149.924 E.02265
G1 X180.237 Y150.184 E.02295
G1 X181.019 Y155.44 E.46517
G1 X175.71 Y155.211 E.46518
G1 X175.456 Y155.272 E.02287
G1 X175.272 Y155.456 E.02278
G1 X175.211 Y155.71 E.02287
G1 X175.44 Y161.019 E.46518
G1 X170.184 Y160.237 E.46517
G1 X169.924 Y160.271 E.02295
G1 X169.723 Y160.434 E.02265
G1 X169.636 Y160.681 E.02292
G1 X169.308 Y165.984 E.46511
G1 X164.162 Y164.657 E.46522
G1 X163.901 Y164.664 E.02286
G1 X163.683 Y164.805 E.02273
G1 X163.571 Y165.041 E.02287
G1 X162.69 Y170.282 E.46523
G1 X157.712 Y168.424 E.46514
G1 X157.451 Y168.403 E.02292
G1 X157.22 Y168.521 E.02271
G1 X157.084 Y168.744 E.02287
G1 X155.66 Y173.864 E.46521
G1 X150.903 Y171.496 E.46517
G1 X150.646 Y171.448 E.02289
G1 X150.404 Y171.541 E.0227
G1 X150.245 Y171.749 E.02292
G1 X148.294 Y176.692 E.46519
G1 X143.81 Y173.839 E.46525
G1 X143.56 Y173.765 E.02282
G1 X143.309 Y173.832 E.02274
G1 X143.129 Y174.022 E.02291
G1 X140.673 Y178.734 E.46515
G1 X136.512 Y175.428 E.46523
G1 X136.27 Y175.328 E.02292
G1 X136.014 Y175.368 E.02268
G1 X135.815 Y175.539 E.02297
G1 X132.879 Y179.968 E.46517
G1 X129.087 Y176.246 E.46514
G1 X128.857 Y176.121 E.02292
G1 X128.598 Y176.134 E.0227
G1 X128.383 Y176.283 E.0229
G1 X125 Y180.381 E.46518
G1 X121.617 Y176.283 E.46518
G1 X121.402 Y176.134 E.0229
G1 X121.143 Y176.121 E.0227
G1 X120.913 Y176.246 E.02292
G1 X117.121 Y179.968 E.46514
G1 X114.185 Y175.539 E.46517
G1 X113.986 Y175.368 E.02297
G1 X113.73 Y175.328 E.02268
G1 X113.488 Y175.428 E.02292
G1 X109.327 Y178.734 E.46523
G1 X106.871 Y174.022 E.46515
G1 X106.691 Y173.832 E.02291
G1 X106.44 Y173.765 E.02274
G1 X106.19 Y173.839 E.02282
G1 X101.706 Y176.692 E.46525
G1 X99.755 Y171.749 E.46519
G1 X99.596 Y171.541 E.02292
G1 X99.354 Y171.448 E.0227
G1 X99.097 Y171.496 E.02289
G1 X94.34 Y173.864 E.46517
G1 X92.916 Y168.744 E.46521
G1 X92.78 Y168.521 E.02287
G1 X92.549 Y168.403 E.02271
G1 X92.288 Y168.424 E.02292
G1 X87.31 Y170.282 E.46514
G1 X86.429 Y165.041 E.46523
G1 X86.317 Y164.805 E.02287
G1 X86.099 Y164.664 E.02273
G1 X85.838 Y164.657 E.02286
G1 X80.692 Y165.984 E.46522
G1 X80.364 Y160.681 E.46511
G1 X80.277 Y160.434 E.02292
G1 X80.076 Y160.271 E.02265
G1 X79.816 Y160.237 E.02295
G1 X74.56 Y161.019 E.46517
G1 X74.789 Y155.71 E.46518
G1 X74.728 Y155.456 E.02287
G1 X74.544 Y155.272 E.02278
G1 X74.29 Y155.211 E.02287
G1 X68.981 Y155.44 E.46518
G1 X69.763 Y150.184 E.46517
G1 X69.729 Y149.924 E.02295
G1 X69.566 Y149.723 E.02265
G1 X69.319 Y149.636 E.02292
G1 X64.016 Y149.308 E.46511
G1 X65.343 Y144.162 E.46522
G1 X65.336 Y143.901 E.02286
G1 X65.195 Y143.683 E.02273
G1 X64.959 Y143.571 E.02287
G1 X59.718 Y142.69 E.46523
G1 X61.576 Y137.712 E.46514
G1 X61.597 Y137.451 E.02292
G1 X61.479 Y137.22 E.02271
G1 X61.256 Y137.084 E.02287
G1 X56.136 Y135.66 E.46521
G1 X58.504 Y130.903 E.46517
G1 X58.552 Y130.646 E.02289
G1 X58.459 Y130.404 E.0227
G1 X58.251 Y130.245 E.02292
G1 X53.308 Y128.294 E.46519
G1 X56.161 Y123.81 E.46525
G1 X56.235 Y123.56 E.02282
G1 X56.168 Y123.309 E.02274
G1 X55.978 Y123.129 E.02291
G1 X51.266 Y120.673 E.46515
G1 X54.572 Y116.512 E.46523
G1 X54.672 Y116.27 E.02292
G1 X54.632 Y116.014 E.02268
G1 X54.461 Y115.815 E.02297
G1 X50.032 Y112.879 E.46517
G1 X53.754 Y109.087 E.46514
G1 X53.879 Y108.857 E.02292
G1 X53.866 Y108.598 E.0227
G1 X53.717 Y108.383 E.0229
G1 X49.619 Y105 E.46518
G1 X53.717 Y101.617 E.46518
G1 X53.866 Y101.402 E.0229
G1 X53.879 Y101.143 E.0227
G1 X53.754 Y100.913 E.02292
G1 X50.032 Y97.121 E.46514
G1 X54.461 Y94.185 E.46517
G1 X54.632 Y93.986 E.02297
G1 X54.672 Y93.73 E.02268
G1 X54.572 Y93.488 E.02292
G1 X51.266 Y89.327 E.46523
G1 X55.978 Y86.871 E.46515
G1 X56.168 Y86.691 E.02291
G1 X56.235 Y86.44 E.02274
G1 X56.161 Y86.19 E.02282
G1 X53.308 Y81.706 E.46525
G1 X58.251 Y79.755 E.46519
G1 X58.459 Y79.596 E.02292
G1 X58.473 Y79.559 E.00346
M204 S1000
;WIPE_START
G1 F8640
G1 X58.506 Y79.475 E-.02084
G1 X58.552 Y79.354 E-.02989
G1 X58.504 Y79.097 E-.06037
G1 X57.174 Y76.426 E-.6889
;WIPE_END
G1 Z.6 F720
G1 X190.703 Y79.728 F10800
G1 Z.2 F720
M73 P0 R117
G1 E.8 F1500
M204 S800
;TYPE:Solid infill
G1 F1200
G1 X190.954 Y80.161 E.04381
G1 X191.364 Y80.471 E.045
G1 X195.476 Y82.1 E.38718
G1 X193.157 Y85.747 E.37833
G1 X192.972 Y86.219 E.04438
G1 X192.987 Y86.739 E.04554
G1 X193.192 Y87.196 E.04385
G1 X193.564 Y87.543 E.04453
G1 X197.484 Y89.593 E.38725
G1 X194.738 Y93.059 E.3871
G1 X194.535 Y93.554 E.04683
G1 X194.543 Y94.054 E.04378
G1 X194.74 Y94.515 E.04389
G1 X195.095 Y94.867 E.04376
G1 X198.697 Y97.254 E.37827
G1 X195.58 Y100.441 E.39024
G1 X195.343 Y100.911 E.04608
G1 X195.315 Y101.422 E.0448
G1 X195.451 Y101.856 E.03981
G1 X195.771 Y102.249 E.04437
G1 X199.103 Y105 E.37825
G1 X195.771 Y107.751 E.37825
G1 X195.529 Y108.02 E.03167
G1 X195.335 Y108.462 E.04226
G1 X195.306 Y108.64 E.01579
G1 X195.359 Y109.138 E.04384
G1 X195.605 Y109.586 E.04474
G1 X198.697 Y112.746 E.38702
G1 X195.095 Y115.133 E.37827
G1 X194.734 Y115.489 E.04438
G1 X194.536 Y115.965 E.04513
G1 X194.538 Y116.466 E.04386
G1 X194.737 Y116.94 E.045
G1 X197.484 Y120.407 E.38722
G1 X193.652 Y122.405 E.37831
G1 X193.256 Y122.721 E.04435
G1 X193.009 Y123.177 E.0454
G1 X192.957 Y123.674 E.04374
G1 X193.107 Y124.164 E.04486
G1 X195.477 Y127.899 E.38723
G1 X191.325 Y129.546 E.39102
G1 X190.928 Y129.872 E.04497
G1 X190.691 Y130.331 E.04522
G1 X190.639 Y130.783 E.03983
G1 X190.771 Y131.272 E.04434
G1 X192.697 Y135.14 E.37826
G1 X188.534 Y136.298 E.37826
G1 X188.202 Y136.446 E.03182
G1 X187.865 Y136.74 E.03915
G1 X187.637 Y137.194 E.04447
G1 X187.597 Y137.398 E.0182
G1 X187.635 Y137.907 E.04468
G1 X189.176 Y142.051 E.38703
G1 X184.902 Y142.769 E.37939
G1 X184.432 Y142.951 E.04412
G1 X184.061 Y143.307 E.04501
G1 X183.859 Y143.766 E.0439
G1 X183.852 Y144.272 E.0443
G1 X184.951 Y148.557 E.38725
G1 X180.536 Y148.836 E.38726
G1 X180.053 Y149.003 E.04474
G1 X179.668 Y149.35 E.04537
G1 X179.456 Y149.804 E.04386
G1 X179.433 Y150.311 E.04443
G1 X180.069 Y154.585 E.37826
G1 X175.652 Y154.401 E.387
M73 Q0 S117
G1 X175.155 Y154.518 E.0447
G1 X174.738 Y154.822 E.04517
G1 X174.478 Y155.249 E.04376
G1 X174.399 Y155.752 E.04457
G1 X174.585 Y160.069 E.37826
G1 X170.311 Y159.433 E.37826
G1 X169.778 Y159.469 E.04676
G1 X169.341 Y159.681 E.04252
G1 X169.006 Y160.052 E.04376
G1 X168.836 Y160.538 E.04507
G1 X168.557 Y164.951 E.38708
G1 X164.373 Y163.871 E.37827
G1 X163.862 Y163.842 E.0448
G1 X163.373 Y164.018 E.0455
G1 X163.003 Y164.355 E.04381
G1 X162.79 Y164.814 E.0443
G1 X162.052 Y169.176 E.38727
G1 X157.905 Y167.634 E.38731
G1 X157.396 Y167.591 E.04472
G1 X156.914 Y167.746 E.04432
G1 X156.533 Y168.07 E.04378
G1 X156.298 Y168.533 E.04545
G1 X155.14 Y172.697 E.37835
G1 X151.178 Y170.731 E.38718
G1 X150.733 Y170.636 E.03983
G1 X150.265 Y170.706 E.04142
G1 X149.832 Y170.959 E.0439
G1 X149.529 Y171.364 E.04428
G1 X147.899 Y175.477 E.38729
G1 X144.164 Y173.107 E.38723
G1 X143.675 Y172.959 E.04472
G1 X143.159 Y173.013 E.04542
G1 X142.721 Y173.256 E.04385
G1 X142.405 Y173.652 E.04435
G1 X140.407 Y177.484 E.37831
G1 X136.941 Y174.739 E.38704
G1 X136.451 Y174.536 E.04643
G1 X135.946 Y174.543 E.04421
G1 X135.485 Y174.74 E.04389
G1 X135.133 Y175.095 E.04376
G1 X132.746 Y178.697 E.37827
G1 X129.559 Y175.58 E.39024
G1 X129.089 Y175.343 E.04608
G1 X128.578 Y175.315 E.0448
G1 X128.144 Y175.451 E.03981
G1 X127.751 Y175.771 E.04437
G1 X125 Y179.103 E.37825
G1 X122.249 Y175.771 E.37825
G1 X121.98 Y175.529 E.03167
G1 X121.538 Y175.335 E.04226
G1 X121.36 Y175.306 E.01579
G1 X120.862 Y175.359 E.04384
G1 X120.414 Y175.605 E.04474
G1 X117.254 Y178.697 E.38702
G1 X114.867 Y175.095 E.37827
G1 X114.511 Y174.734 E.04438
G1 X114.035 Y174.536 E.04513
G1 X113.534 Y174.538 E.04386
G1 X113.06 Y174.737 E.045
G1 X109.593 Y177.484 E.38722
G1 X107.595 Y173.652 E.37831
G1 X107.279 Y173.256 E.04435
G1 X106.823 Y173.009 E.0454
G1 X106.326 Y172.957 E.04374
G1 X105.836 Y173.107 E.04486
G1 X102.101 Y175.477 E.38723
G1 X100.454 Y171.325 E.39102
G1 X100.128 Y170.928 E.04497
G1 X99.669 Y170.691 E.04522
G1 X99.217 Y170.639 E.03983
G1 X98.728 Y170.771 E.04434
G1 X94.86 Y172.697 E.37826
G1 X93.702 Y168.534 E.37826
G1 X93.554 Y168.202 E.03182
G1 X93.26 Y167.865 E.03915
G1 X92.806 Y167.637 E.04447
G1 X92.602 Y167.597 E.0182
G1 X92.093 Y167.635 E.04468
G1 X87.949 Y169.176 E.38703
G1 X87.231 Y164.902 E.37939
G1 X87.049 Y164.432 E.04412
G1 X86.693 Y164.061 E.04501
G1 X86.234 Y163.859 E.0439
G1 X85.728 Y163.852 E.0443
G1 X81.443 Y164.951 E.38725
G1 X81.164 Y160.536 E.38726
G1 X80.997 Y160.053 E.04474
G1 X80.65 Y159.668 E.04537
G1 X80.196 Y159.456 E.04386
G1 X79.689 Y159.433 E.04443
G1 X75.415 Y160.069 E.37826
G1 X75.599 Y155.652 E.387
G1 X75.482 Y155.155 E.0447
G1 X75.178 Y154.738 E.04517
G1 X74.751 Y154.478 E.04376
G1 X74.248 Y154.399 E.04457
G1 X69.931 Y154.585 E.37826
G1 X70.567 Y150.311 E.37826
G1 X70.566 Y149.948 E.03178
G1 X70.415 Y149.491 E.04213
G1 X70.318 Y149.34 E.01571
G1 X69.946 Y149.005 E.04382
G1 X69.462 Y148.836 E.04488
G1 X65.049 Y148.557 E.38708
G1 X66.148 Y144.274 E.38708
G1 X66.15 Y143.83 E.03887
G1 X65.983 Y143.374 E.04251
G1 X65.646 Y143.003 E.04388
G1 X65.186 Y142.79 E.04438
G1 X60.824 Y142.052 E.38727
G1 X62.366 Y137.905 E.38731
G1 X62.409 Y137.396 E.04472
G1 X62.254 Y136.914 E.04432
G1 X61.93 Y136.533 E.04378
G1 X61.467 Y136.298 E.04545
G1 X57.303 Y135.14 E.37835
G1 X59.269 Y131.178 E.38718
G1 X59.364 Y130.733 E.03983
G1 X59.294 Y130.265 E.04142
G1 X59.041 Y129.832 E.0439
G1 X58.636 Y129.529 E.04428
G1 X54.523 Y127.899 E.38729
G1 X56.893 Y124.164 E.38723
G1 X57.041 Y123.675 E.04472
G1 X56.987 Y123.159 E.04542
G1 X56.744 Y122.721 E.04385
G1 X56.348 Y122.405 E.04435
G1 X52.516 Y120.407 E.37831
G1 X55.261 Y116.941 E.38704
G1 X55.464 Y116.451 E.04643
G1 X55.457 Y115.946 E.04421
G1 X55.26 Y115.485 E.04389
G1 X54.905 Y115.133 E.04376
