; generated by PrusaSlicer 2.9.0 on 2025-01-10 at 23:51:21 UTC


;
;
; 

; external perimeters extrusion width = 1.00mm
; perimeters extrusion width = 1.00mm
; infill extrusion width = 1.00mm
; solid infill extrusion width = 1.00mm
; top infill extrusion width = 1.00mm
; first layer extrusion width = 1.00mm

M73 P0 R59
M73 Q0 S59
M201 X1000 Y1000 Z200 E5000 ; sets maximum accelerations, mm/sec^2
M203 X200 Y200 Z12 E120 ; sets maximum feedrates, mm / sec
M204 S1250 T1250 ; sets acceleration (S) and retract acceleration (R), mm/sec^2
M205 X8.00 Y8.00 Z0.40 E4.50 ; sets the jerk limits, mm/sec
M205 S0 T0 ; sets the minimum extruding and travel feed rate, mm/sec

; printing object Faceted_Bowl_2.stl id:0 copy 0
; stop printing object Faceted_Bowl_2.stl id:0 copy 0

;TYPE:Custom
M862.3 P "MK3S" ; printer model check
M862.1 P0.6 ; nozzle diameter check
M115 U3.13.3 ; tell printer latest fw version
G90 ; use absolute coordinates
M83 ; extruder relative mode
M104 S215 ; set extruder temp
M140 S60 ; set bed temp
M190 S60 ; wait for bed temp
M109 S215 ; wait for extruder temp
G28 W ; home all without mesh bed level
G80 X75.3399 Y55.3399 W99.3201 H99.3201 ; mesh bed levelling

G1 Z0.2 F720
G1 Y-3 F1000 ; go outside print area
G92 E0
G1 X60 E9 F1000 ; intro line
G1 X100 E12.5 F1000 ; intro line

G92 E0
M221 S95
G21 ; set units to millimeters
G90 ; use absolute coordinates
M83 ; use relative distances for extrusion

M900 K0.04 ; Filament gcode LA 1.5
M900 K18 ; Filament gcode LA 1.0




M107
;LAYER_CHANGE
;Z:0.2
;HEIGHT:0.2
G1 E-.8 F2100
G1 Z.6 F720
; printing object Faceted_Bowl_2.stl id:0 copy 0
G1 X80.431 Y116.815 F10800
G1 Z.2 F720
G1 E.8 F1500
M204 S800
;TYPE:External perimeter
;WIDTH:0.999999
G1 F1200
G1 X80.237 Y116.629 E.02994
G1 X77.357 Y115.127 E.36189
G1 X79.377 Y112.583 E.36192
G1 X79.477 Y112.35 E.02825
G1 X79.44 Y112.092 E.02904
G1 X79.267 Y111.886 E.02997
G1 X76.56 Y110.091 E.36188
G1 X78.835 Y107.773 E.36186
G1 X78.958 Y107.551 E.02828
G1 X78.949 Y107.291 E.02898
G1 X78.798 Y107.068 E.03001
G1 X76.293 Y105 E.36191
G1 X78.798 Y102.932 E.36191
G1 X78.943 Y102.725 E.02816
G1 X78.961 Y102.465 E.02904
G1 X78.835 Y102.228 E.0299
G1 X76.559 Y99.907 E.36218
G1 X79.267 Y98.114 E.36185
G1 X79.434 Y97.923 E.02827
G1 X79.479 Y97.666 E.02907
G1 X79.377 Y97.417 E.02998
G1 X77.356 Y94.872 E.36208
G1 X80.237 Y93.371 E.36194
G1 X80.423 Y93.199 E.02823
G1 X80.495 Y92.948 E.02909
G1 X80.42 Y92.69 E.02993
G1 X78.677 Y89.949 E.3619
G1 X81.698 Y88.756 E.36188
G1 X81.901 Y88.604 E.02825
G1 X81.998 Y88.362 E.02905
G1 X81.951 Y88.097 E.02999
G1 X80.503 Y85.187 E.36214
G1 X83.633 Y84.318 E.36192
G1 X83.851 Y84.188 E.02828
G1 X83.973 Y83.958 E.02901
G1 X83.954 Y83.69 E.02993
G1 X82.818 Y80.647 E.36189
G1 X86.022 Y80.108 E.36199
G1 X86.252 Y80.001 E.02826
G1 X86.397 Y79.785 E.02898
G1 X86.406 Y79.516 E.02999
G1 X85.595 Y76.371 E.36186
G1 X88.837 Y76.17 E.3619
G1 X89.077 Y76.088 E.02826
G1 X89.244 Y75.888 E.02903
G1 X89.281 Y75.622 E.02992
G1 X88.804 Y72.409 E.3619
G1 X92.049 Y72.548 E.36187
G1 X92.296 Y72.491 E.02824
G1 X92.483 Y72.31 E.029
G1 X92.548 Y72.049 E.02997
G1 X92.409 Y68.802 E.36209
G1 X95.621 Y69.281 E.36182
G1 X95.873 Y69.251 E.02827
G1 X96.078 Y69.09 E.02904
G1 X96.17 Y68.837 E.02999
G1 X96.371 Y65.593 E.36212
G1 X99.516 Y66.406 E.36192
G1 X99.769 Y66.402 E.02819
G1 X99.99 Y66.264 E.02903
G1 X100.108 Y66.022 E.03
G1 X100.647 Y62.817 E.3621
G1 X103.69 Y63.953 E.36189
G1 X103.942 Y63.976 E.02819
G1 X104.177 Y63.862 E.0291
G1 X104.318 Y63.633 E.02996
G1 X105.189 Y60.504 E.36187
G1 X108.097 Y61.951 E.36189
G1 X108.346 Y62 E.02827
G1 X108.591 Y61.91 E.02908
G1 X108.756 Y61.698 E.02993
G1 X109.949 Y58.675 E.36208
G1 X112.69 Y60.42 E.36202
G1 X112.932 Y60.494 E.02819
G1 X113.185 Y60.431 E.02905
G1 X113.371 Y60.237 E.02994
G1 X114.874 Y57.356 E.36204
G1 X117.417 Y59.377 E.3619
G1 X117.65 Y59.477 E.02825
G1 X117.908 Y59.44 E.02904
G1 X118.114 Y59.267 E.02997
G1 X119.91 Y56.558 E.36213
G1 X122.227 Y58.835 E.36194
G1 X122.449 Y58.958 E.02828
G1 X122.709 Y58.949 E.02898
G1 X122.932 Y58.798 E.03001
G1 X125 Y56.293 E.36191
G1 X127.068 Y58.798 E.36191
G1 X127.275 Y58.943 E.02816
G1 X127.535 Y58.961 E.02904
G1 X127.772 Y58.835 E.0299
G1 X130.091 Y56.56 E.36194
G1 X131.886 Y59.267 E.36188
G1 X132.077 Y59.434 E.02827
G1 X132.334 Y59.479 E.02907
G1 X132.583 Y59.377 E.02998
G1 X135.127 Y57.357 E.36192
G1 X136.629 Y60.237 E.36189
G1 X136.801 Y60.423 E.02823
G1 X137.052 Y60.495 E.02909
G1 X137.31 Y60.42 E.02993
G1 X140.051 Y58.677 E.3619
G1 X141.244 Y61.698 E.36188
G1 X141.396 Y61.901 E.02825
G1 X141.638 Y61.998 E.02905
G1 X141.903 Y61.951 E.02999
G1 X144.813 Y60.503 E.36214
G1 X145.682 Y63.633 E.36192
G1 X145.812 Y63.851 E.02828
G1 X146.042 Y63.973 E.02901
G1 X146.31 Y63.954 E.02993
G1 X149.353 Y62.818 E.36189
G1 X149.892 Y66.022 E.36199
G1 X149.999 Y66.252 E.02826
G1 X150.215 Y66.397 E.02898
G1 X150.484 Y66.406 E.02999
G1 X153.629 Y65.595 E.36186
G1 X153.83 Y68.837 E.3619
G1 X153.912 Y69.077 E.02826
G1 X154.112 Y69.244 E.02903
G1 X154.378 Y69.281 E.02992
G1 X157.591 Y68.804 E.3619
G1 X157.452 Y72.049 E.36187
G1 X157.509 Y72.296 E.02824
G1 X157.69 Y72.483 E.029
G1 X157.951 Y72.548 E.02997
G1 X161.198 Y72.409 E.36209
G1 X160.719 Y75.621 E.36182
G1 X160.749 Y75.873 E.02827
G1 X160.91 Y76.078 E.02904
G1 X161.163 Y76.17 E.02999
G1 X164.407 Y76.371 E.36212
G1 X163.594 Y79.516 E.36192
G1 X163.598 Y79.769 E.02819
G1 X163.736 Y79.99 E.02903
G1 X163.978 Y80.108 E.03
G1 X167.183 Y80.647 E.3621
G1 X166.047 Y83.69 E.36189
M73 P0 R58
G1 X166.024 Y83.942 E.02819
G1 X166.138 Y84.177 E.0291
G1 X166.367 Y84.318 E.02996
G1 X169.496 Y85.189 E.36187
G1 X168.049 Y88.097 E.36189
G1 X168 Y88.346 E.02827
G1 X168.09 Y88.591 E.02908
G1 X168.302 Y88.756 E.02993
G1 X171.325 Y89.949 E.36208
G1 X169.58 Y92.69 E.36202
G1 X169.506 Y92.932 E.02819
G1 X169.569 Y93.185 E.02905
G1 X169.763 Y93.371 E.02994
G1 X172.643 Y94.873 E.36189
G1 X170.623 Y97.417 E.36192
G1 X170.523 Y97.65 E.02825
G1 X170.56 Y97.908 E.02904
G1 X170.733 Y98.114 E.02997
G1 X173.44 Y99.909 E.36188
G1 X171.165 Y102.227 E.36186
G1 X171.042 Y102.449 E.02828
G1 X171.051 Y102.709 E.02898
G1 X171.202 Y102.932 E.03001
G1 X173.707 Y105 E.36191
G1 X171.202 Y107.068 E.36191
G1 X171.057 Y107.275 E.02816
G1 X171.039 Y107.535 E.02904
G1 X171.165 Y107.772 E.0299
G1 X173.441 Y110.093 E.36218
G1 X170.733 Y111.886 E.36185
G1 X170.566 Y112.077 E.02827
G1 X170.521 Y112.334 E.02907
G1 X170.623 Y112.583 E.02998
G1 X172.644 Y115.128 E.36208
G1 X169.763 Y116.629 E.36194
G1 X169.577 Y116.801 E.02823
G1 X169.505 Y117.052 E.02909
G1 X169.58 Y117.31 E.02993
G1 X171.323 Y120.051 E.3619
G1 X168.302 Y121.244 E.36188
G1 X168.099 Y121.396 E.02825
M73 Q0 S58
G1 X168.002 Y121.638 E.02905
G1 X168.049 Y121.903 E.02999
G1 X169.497 Y124.813 E.36214
G1 X166.367 Y125.682 E.36192
G1 X166.149 Y125.812 E.02828
G1 X166.027 Y126.042 E.02901
G1 X166.046 Y126.31 E.02993
G1 X167.182 Y129.353 E.36189
G1 X163.978 Y129.892 E.36199
G1 X163.748 Y129.999 E.02826
G1 X163.603 Y130.215 E.02898
G1 X163.594 Y130.484 E.02999
G1 X164.405 Y133.629 E.36186
G1 X161.163 Y133.83 E.3619
G1 X160.923 Y133.912 E.02826
G1 X160.756 Y134.112 E.02903
G1 X160.719 Y134.378 E.02992
G1 X161.196 Y137.591 E.3619
G1 X157.951 Y137.452 E.36187
G1 X157.704 Y137.509 E.02824
G1 X157.517 Y137.69 E.029
G1 X157.452 Y137.951 E.02997
G1 X157.591 Y141.198 E.36209
G1 X154.379 Y140.719 E.36182
G1 X154.127 Y140.749 E.02827
G1 X153.922 Y140.91 E.02904
G1 X153.83 Y141.163 E.02999
G1 X153.629 Y144.407 E.36212
G1 X150.484 Y143.594 E.36192
G1 X150.231 Y143.598 E.02819
G1 X150.01 Y143.736 E.02903
G1 X149.892 Y143.978 E.03
G1 X149.353 Y147.183 E.3621
G1 X146.31 Y146.047 E.36189
G1 X146.058 Y146.024 E.02819
G1 X145.823 Y146.138 E.0291
G1 X145.682 Y146.367 E.02996
G1 X144.811 Y149.496 E.36187
G1 X141.903 Y148.049 E.36189
G1 X141.654 Y148 E.02827
G1 X141.409 Y148.09 E.02908
G1 X141.244 Y148.302 E.02993
G1 X140.051 Y151.325 E.36208
G1 X137.31 Y149.58 E.36202
G1 X137.068 Y149.506 E.02819
G1 X136.815 Y149.569 E.02905
G1 X136.629 Y149.763 E.02994
G1 X135.127 Y152.643 E.36189
G1 X132.583 Y150.623 E.36192
G1 X132.35 Y150.523 E.02825
G1 X132.092 Y150.56 E.02904
G1 X131.886 Y150.733 E.02997
G1 X130.091 Y153.44 E.36188
G1 X127.773 Y151.165 E.36186
G1 X127.551 Y151.042 E.02828
G1 X127.291 Y151.051 E.02898
G1 X127.068 Y151.202 E.03001
G1 X125 Y153.707 E.36191
G1 X122.932 Y151.202 E.36191
G1 X122.725 Y151.057 E.02816
G1 X122.465 Y151.039 E.02904
G1 X122.228 Y151.165 E.0299
G1 X119.907 Y153.441 E.36218
G1 X118.114 Y150.733 E.36185
G1 X117.923 Y150.566 E.02827
G1 X117.666 Y150.521 E.02907
G1 X117.417 Y150.623 E.02998
G1 X114.872 Y152.644 E.36208
G1 X113.371 Y149.763 E.36194
G1 X113.199 Y149.577 E.02823
G1 X112.948 Y149.505 E.02909
G1 X112.69 Y149.58 E.02993
G1 X109.949 Y151.323 E.3619
G1 X108.756 Y148.302 E.36188
G1 X108.604 Y148.099 E.02825
G1 X108.362 Y148.002 E.02905
G1 X108.097 Y148.049 E.02999
G1 X105.187 Y149.497 E.36214
G1 X104.318 Y146.367 E.36192
G1 X104.188 Y146.149 E.02828
G1 X103.958 Y146.027 E.02901
G1 X103.69 Y146.046 E.02993
G1 X100.647 Y147.182 E.36189
G1 X100.108 Y143.978 E.36199
G1 X100.001 Y143.748 E.02826
G1 X99.785 Y143.603 E.02898
G1 X99.516 Y143.594 E.02999
G1 X96.371 Y144.405 E.36186
G1 X96.17 Y141.163 E.3619
G1 X96.088 Y140.923 E.02826
G1 X95.888 Y140.756 E.02903
G1 X95.622 Y140.719 E.02992
G1 X92.409 Y141.196 E.3619
G1 X92.548 Y137.951 E.36187
G1 X92.491 Y137.704 E.02824
G1 X92.31 Y137.517 E.029
G1 X92.049 Y137.452 E.02997
G1 X88.802 Y137.591 E.36209
G1 X89.281 Y134.379 E.36182
G1 X89.251 Y134.127 E.02827
G1 X89.09 Y133.922 E.02904
G1 X88.837 Y133.83 E.02999
G1 X85.593 Y133.629 E.36212
G1 X86.406 Y130.484 E.36192
G1 X86.402 Y130.231 E.02819
G1 X86.264 Y130.01 E.02903
G1 X86.022 Y129.892 E.03
G1 X82.817 Y129.353 E.3621
G1 X83.953 Y126.31 E.36189
G1 X83.976 Y126.058 E.02819
G1 X83.862 Y125.823 E.0291
G1 X83.633 Y125.682 E.02996
G1 X80.504 Y124.811 E.36187
G1 X81.951 Y121.903 E.36189
G1 X82 Y121.654 E.02827
G1 X81.91 Y121.409 E.02908
G1 X81.698 Y121.244 E.02993
G1 X78.675 Y120.051 E.36208
G1 X80.42 Y117.31 E.36202
G1 X80.494 Y117.068 E.02819
G1 X80.453 Y116.903 E.01894
M204 S1000
G1 X80.453 Y116.903 F10800
G1 X81.125 Y116.391
M204 S800
;TYPE:Solid infill
;WIDTH:1
G1 F1200
G1 X92.516 Y104.999 E1.79488
G1 X81.126 Y93.608 E1.79473
M204 S1000
G1 X81.126 Y93.608 F10800
G1 X80.37 Y94.206
M204 S800
G1 F1200
G1 X91.163 Y104.999 E1.70058
G1 X80.369 Y115.793 E1.70074
M204 S1000
;WIPE_START
G1 F8640
G1 X82.819 Y113.343 E-.8
;WIPE_END
G1 Z.6 F720
G1 X79.483 Y115.325 F10800
G1 Z.2 F720
G1 E.8 F1500
M204 S800
G1 F1200
G1 X89.809 Y104.999 E1.627
G1 X79.484 Y94.673 E1.62692
M204 S1000
G1 X79.484 Y94.673 F10800
G1 X78.652 Y95.195
M204 S800
G1 F1200
G1 X88.456 Y104.999 E1.54475
G1 X78.644 Y114.811 E1.54601
M73 P1 R58
M73 Q1 S58
M204 S1000
;WIPE_START
G1 F8640
G1 X81.094 Y112.361 E-.8
;WIPE_END
G1 Z.6 F720
G1 X81.078 Y117.791 F10800
G1 Z.2 F720
G1 E.8 F1500
M204 S800
G1 F1200
G1 X93.87 Y104.999 E2.01555
G1 X81.076 Y92.205 E2.01587
M204 S1000
;WIPE_START
G1 F8640
G1 X83.526 Y94.655 E-.8
;WIPE_END
G1 Z.6 F720
G1 X80.373 Y90.149 F10800
G1 Z.2 F720
G1 E.8 F1500
M204 S800
G1 F1200
G1 X95.223 Y104.999 E2.33982
G1 X80.372 Y119.851 E2.34005
M204 S1000
;WIPE_START
G1 F8640
G1 X82.822 Y117.401 E-.8
;WIPE_END
G1 Z.6 F720
G1 X81.339 Y120.238 F10800
G1 Z.2 F720
G1 E.8 F1500
M204 S800
G1 F1200
G1 X96.577 Y104.999 E2.40103
G1 X81.34 Y89.762 E2.40079
M204 S1000
;WIPE_START
G1 F8640
G1 X83.79 Y92.212 E-.8
;WIPE_END
G1 Z.6 F720
G1 X82.281 Y89.35 F10800
G1 Z.2 F720
G1 E.8 F1500
M204 S800
G1 F1200
G1 X97.931 Y104.999 E2.46579
G1 X82.277 Y120.652 E2.46642
M204 S1000
G1 X82.277 Y120.652 F10800
G1 X82.797 Y121.487
M204 S800
G1 F1200
G1 X99.284 Y104.999 E2.59783
G1 X82.794 Y88.509 E2.59822
M204 S1000
;WIPE_START
G1 F8640
G1 X85.244 Y90.959 E-.8
;WIPE_END
G1 Z.6 F720
G1 X82.221 Y86.815 F10800
G1 Z.2 F720
G1 E.8 F1500
M204 S800
G1 F1200
G1 X106.816 Y86.815 E2.74023
G1 X106.816 Y62.214 E2.7409
M204 S1000
;WIPE_START
G1 F8640
G1 X106.816 Y65.679 E-.8
;WIPE_END
G1 Z.6 F720
G1 X105.859 Y61.743 F10800
G1 Z.2 F720
G1 E.8 F1500
M204 S800
G1 F1200
G1 X105.859 Y85.858 E2.68675
G1 X81.745 Y85.858 E2.68664
M204 S1000
;WIPE_START
G1 F8640
G1 X85.21 Y85.858 E-.8
;WIPE_END
G1 Z.6 F720
G1 X85.146 Y81.072 F10800
G1 Z.2 F720
G1 E.8 F1500
M204 S800
G1 F1200
G1 X101.074 Y81.072 E1.7746
G1 X101.074 Y65.137 E1.77538
M204 S1000
;WIPE_START
G1 F8640
G1 X101.074 Y68.602 E-.8
;WIPE_END
G1 Z.6 F720
G1 X102.031 Y64.202 F10800
G1 Z.2 F720
G1 E.8 F1500
M204 S800
G1 F1200
G1 X102.031 Y82.029 E1.98618
G1 X84.196 Y82.029 E1.98707
M204 S1000
;WIPE_START
G1 F8640
G1 X87.661 Y82.029 E-.8
;WIPE_END
G1 Z.6 F720
G1 X84.548 Y82.986 F10800
G1 Z.2 F720
G1 E.8 F1500
M204 S800
G1 F1200
G1 X102.988 Y82.986 E2.05448
G1 X102.988 Y64.56 E2.05292
M204 S1000
G1 X102.988 Y64.56 F10800
G1 X103.945 Y64.791
M204 S800
G1 F1200
G1 X103.945 Y83.943 E2.1338
G1 X84.791 Y83.943 E2.13403
M204 S1000
;WIPE_START
G1 F8640
G1 X88.256 Y83.943 E-.8
;WIPE_END
G1 Z.6 F720
G1 X84.268 Y84.901 F10800
G1 Z.2 F720
G1 E.8 F1500
M204 S800
G1 F1200
G1 X104.902 Y84.901 E2.29892
G1 X104.902 Y64.265 E2.29914
M204 S1000
;WIPE_START
G1 F8640
G1 X104.902 Y67.73 E-.8
;WIPE_END
G1 Z.6 F720
G1 X100.117 Y67.137 F10800
G1 Z.2 F720
G1 E.8 F1500
M204 S800
G1 F1200
G1 X100.117 Y80.115 E1.44593
G1 X87.141 Y80.115 E1.44571
M204 S1000
G1 X87.141 Y80.115 F10800
G1 X87.142 Y79.158
M204 S800
G1 F1200
G1 X99.16 Y79.158 E1.33897
G1 X99.16 Y67.154 E1.33741
M204 S1000
G1 X99.16 Y67.154 F10800
G1 X98.203 Y66.907
M204 S800
G1 F1200
G1 X98.203 Y78.201 E1.25831
G1 X86.9 Y78.201 E1.25931
M204 S1000
G1 X86.9 Y78.201 F10800
G1 X86.658 Y77.244
M204 S800
G1 F1200
G1 X97.245 Y77.244 E1.17954
G1 X97.245 Y66.66 E1.17921
M204 S1000
;WIPE_START
G1 F8640
M73 Q2 S58
G1 X97.245 Y70.125 E-.8
;WIPE_END
G1 Z.6 F720
G1 X96.288 Y69.95 F10800
G1 Z.2 F720
G1 E.8 F1500
M204 S800
G1 F1200
G1 X96.288 Y76.287 E.70603
G1 X89.951 Y76.287 E.70603
M73 P2 R58
M204 S1000
G1 X89.951 Y76.287 F10800
G1 X90.06 Y75.33
M204 S800
G1 F1200
G1 X95.331 Y75.33 E.58726
G1 X95.331 Y70.06 E.58715
M204 S1000
G1 X95.331 Y70.06 F10800
G1 X94.374 Y69.918
M204 S800
G1 F1200
G1 X94.374 Y74.373 E.49635
G1 X89.918 Y74.373 E.49646
M204 S1000
G1 X89.918 Y74.373 F10800
G1 X89.776 Y73.416
M204 S800
G1 F1200
G1 X93.417 Y73.416 E.40566
G1 X93.417 Y69.775 E.40566
M204 S1000
;WIPE_START
G1 F8640
G1 X93.417 Y73.239 E-.8
;WIPE_END
G1 Z.6 F720
G1 X80.226 Y98.123 F10800
G1 Z.2 F720
G1 E.8 F1500
M204 S800
G1 F1200
G1 X87.102 Y104.999 E1.08341
G1 X80.228 Y111.873 E1.08309
M204 S1000
G1 X80.228 Y111.873 F10800
G1 X79.602 Y111.146
M204 S800
G1 F1200
G1 X85.749 Y104.999 E.96854
G1 X79.603 Y98.853 E.96838
M204 S1000
G1 X79.603 Y98.853 F10800
G1 X78.792 Y99.395
M204 S800
G1 F1200
G1 X84.395 Y104.999 E.88291
G1 X78.791 Y110.603 E.88298
M204 S1000
G1 X78.791 Y110.603 F10800
G1 X77.98 Y110.061
M204 S800
G1 F1200
G1 X83.042 Y104.999 E.79759
G1 X77.981 Y99.938 E.79743
M204 S1000
;WIPE_START
G1 F8640
M73 P2 R57
G1 X80.431 Y102.388 E-.8
;WIPE_END
G1 Z.6 F720
G1 X77.601 Y105.026 F10800
G1 Z.2 F720
G1 E.8 F1500
M204 S800
G1 F1200
G1 X77.628 Y104.999 E.00425
G1 X77.601 Y104.972 E.00425
M204 S1000
G1 X77.601 Y104.972 F10800
G1 X78.339 Y104.357
M204 S800
G1 F1200
G1 X78.981 Y104.999 E.10116
G1 X78.343 Y105.638 E.1006
M204 S1000
G1 X78.343 Y105.638 F10800
G1 X79.084 Y106.25
M204 S800
G1 F1200
G1 X80.335 Y104.999 E.19711
G1 X79.077 Y103.742 E.19814
M204 S1000
G1 X79.077 Y103.742 F10800
G1 X79.702 Y103.013
M204 S800
G1 F1200
G1 X81.688 Y104.999 E.31292
G1 X79.701 Y106.987 E.31316
M204 S1000
;WIPE_START
G1 F8640
G1 X81.688 Y104.999 E-.64901
G1 X81.226 Y104.537 E-.15099
;WIPE_END
G1 Z.6 F720
G1 X125.001 Y104.999 F10800
G1 Z.2 F720
G1 E.8 F1500
M204 S800
G1 F1200
G1 X124.044 Y105.956 E.15079
G1 X122.69 Y105.956 E.15085
G1 X123.647 Y104.999 E.15079
G1 X122.69 Y104.042 E.15079
G1 X124.044 Y104.042 E.15085
G1 X124.044 Y102.689 E.15074
G1 X125.001 Y103.646 E.15079
G1 X125.958 Y102.689 E.15079
G1 X125.958 Y104.042 E.15074
G1 X127.311 Y104.042 E.15074
G1 X126.354 Y104.999 E.15079
G1 X127.311 Y105.956 E.15079
