; generated by PrusaSlicer 2.9.0 on 2025-01-15 at 03:17:02 UTC


;
;
; 

; external perimeters extrusion width = 0.45mm
; perimeters extrusion width = 0.70mm
; infill extrusion width = 0.45mm
; solid infill extrusion width = 0.80mm
; top infill extrusion width = 0.40mm
; first layer extrusion width = 0.42mm

M73 P0 R48
M73 Q0 S49
M201 X1000 Y1000 Z200 E5000 ; sets maximum accelerations, mm/sec^2
M203 X200 Y200 Z12 E120 ; sets maximum feedrates, mm / sec
M204 S1250 T1250 ; sets acceleration (S) and retract acceleration (R), mm/sec^2
M205 X8.00 Y8.00 Z0.40 E4.50 ; sets the jerk limits, mm/sec
M205 S0 T0 ; sets the minimum extruding and travel feed rate, mm/sec

; printing object Piggy_newTail_fixed.stl id:0 copy 0
; stop printing object Piggy_newTail_fixed.stl id:0 copy 0

;TYPE:Custom
M862.3 P "MK3S" ; printer model check
M862.1 P0.4 ; nozzle diameter check
M115 U3.13.3 ; tell printer latest fw version
G90 ; use absolute coordinates
M83 ; extruder relative mode
M104 S215 ; set extruder temp
M140 S60 ; set bed temp
M190 S60 ; wait for bed temp
M109 S215 ; wait for extruder temp
G28 W ; home all without mesh bed level
G80 X105.478 Y68.307 W39.043 H72.1012 ; mesh bed levelling

G1 Z0.2 F720
G1 Y-3 F1000 ; go outside print area
G92 E0
G1 X60 E9 F1000 ; intro line
G1 X100 E12.5 F1000 ; intro line

G92 E0
M221 S95

; Don't change E values below. Excessive value can damage the printer.

M907 E538 ; set extruder motor current
G21 ; set units to millimeters
G90 ; use absolute coordinates
M83 ; use relative distances for extrusion

M900 K0.05 ; Filament gcode LA 1.5
M900 K30 ; Filament gcode LA 1.0




M107
;LAYER_CHANGE
;Z:0.2
;HEIGHT:0.2
G1 E-.8 F2100
G1 Z.6 F720
; printing object Piggy_newTail_fixed.stl id:0 copy 0
G1 X139.563 Y109.323 F10800
G1 Z.2 F720
G1 E.8 F2100
M204 S800
;TYPE:Perimeter
;WIDTH:0.419999
G1 F1200
G1 X139.597 Y109.461 E.00446
G1 X140.177 Y110.572 E.0393
G1 X140.679 Y111.738 E.0398
G1 X141.119 Y113.008 E.04214
G1 X141.3 Y113.634 E.02043
G1 X141.478 Y114.355 E.02329
G1 X141.655 Y115.215 E.02753
G1 X141.852 Y116.557 E.04253
G1 X141.93 Y117.406 E.02673
G1 X141.98 Y118.781 E.04314
G1 X141.966 Y119.597 E.02559
G1 X141.899 Y120.92 E.04153
G1 X142.011 Y121.512 E.01889
G1 X142.281 Y121.958 E.01635
G1 X142.656 Y122.33 E.01656
G1 X143.016 Y122.753 E.01742
G1 X143.362 Y123.351 E.02166
G1 X143.529 Y123.825 E.01576
G1 X143.687 Y124.611 E.02514
G1 X143.718 Y125.12 E.01599
G1 X143.721 Y125.635 E.01615
G1 X143.699 Y126.12 E.01522
G1 X143.585 Y126.922 E.0254
G1 X143.435 Y127.579 E.02113
G1 X143.227 Y128.258 E.02227
G1 X143.046 Y128.743 E.01623
G1 X142.777 Y129.365 E.02125
G1 X142.403 Y130.112 E.02619
G1 X142.067 Y130.709 E.02148
G1 X141.591 Y131.463 E.02796
G1 X141.194 Y132.028 E.02165
G1 X140.776 Y132.579 E.02168
G1 X140.288 Y133.164 E.02389
G1 X139.79 Y133.695 E.02283
G1 X139.325 Y134.136 E.02009
G1 X138.86 Y134.518 E.01887
G1 X138.369 Y134.844 E.01848
G1 X137.858 Y135.073 E.01756
G1 X137.335 Y135.187 E.01678
G1 X136.967 Y135.139 E.01164
G1 X136.599 Y134.964 E.01278
G1 X136.058 Y134.438 E.02366
G1 X135.735 Y134.043 E.016
G1 X135.297 Y133.749 E.01654
G1 X134.811 Y133.622 E.01575
G1 X134.302 Y133.643 E.01597
G1 X133.824 Y133.813 E.01591
G1 X132.695 Y134.364 E.03939
G1 X131.624 Y134.798 E.03623
G1 X130.447 Y135.184 E.03884
G1 X129.15 Y135.512 E.04195
G1 X127.78 Y135.757 E.04364
G1 X126.402 Y135.903 E.04345
G1 X125.017 Y135.953 E.04345
G1 X123.653 Y135.908 E.04279
G1 X122.813 Y135.832 E.02645
G1 X121.71 Y135.678 E.03492
G1 X120.871 Y135.517 E.02679
G1 X119.815 Y135.258 E.03409
G1 X118.729 Y134.923 E.03563
G1 X117.878 Y134.606 E.02847
G1 X117.074 Y134.26 E.02744
G1 X116.247 Y133.85 E.02894
G1 X115.774 Y133.657 E.01602
G1 X115.262 Y133.618 E.0161
G1 X114.834 Y133.698 E.01365
G1 X114.497 Y133.86 E.01172
G1 X114.108 Y134.216 E.01653
G1 X113.731 Y134.665 E.01838
G1 X113.359 Y134.997 E.01563
G1 X113.049 Y135.139 E.01069
G1 X112.588 Y135.184 E.01452
G1 X112.099 Y135.065 E.01578
G1 X111.64 Y134.85 E.01589
G1 X111.206 Y134.563 E.01631
G1 X110.679 Y134.14 E.02119
G1 X110.17 Y133.654 E.02207
G1 X109.611 Y133.044 E.02594
G1 X109.102 Y132.422 E.0252
G1 X108.502 Y131.6 E.03191
G1 X108.092 Y130.971 E.02354
G1 X107.602 Y130.121 E.03076
G1 X107.2 Y129.318 E.02816
G1 X106.937 Y128.701 E.02103
G1 X106.689 Y128.004 E.0232
G1 X106.475 Y127.206 E.0259
G1 X106.335 Y126.429 E.02475
G1 X106.281 Y125.875 E.01745
G1 X106.274 Y125.321 E.01737
G1 X106.309 Y124.637 E.02147
G1 X106.409 Y124.111 E.01679
G1 X106.596 Y123.451 E.02151
G1 X106.851 Y122.934 E.01807
G1 X107.288 Y122.374 E.02227
G1 X107.636 Y122.041 E.0151
G1 X107.825 Y121.81 E.00936
G1 X108.05 Y121.303 E.01739
G1 X108.108 Y120.791 E.01616
G1 X108.034 Y119.596 E.03754
G1 X108.02 Y118.776 E.02571
G1 X108.039 Y117.955 E.02575
G1 X108.091 Y117.136 E.02573
G1 X108.185 Y116.247 E.02803
G1 X108.298 Y115.486 E.02412
G1 X108.462 Y114.626 E.02745
G1 X108.643 Y113.855 E.02483
G1 X109.024 Y112.559 E.04235
G1 X109.477 Y111.352 E.04042
G1 X109.972 Y110.267 E.03739
G1 X110.579 Y109.159 E.03961
G1 X110.638 Y108.891 E.0086
G1 X110.157 Y90.779 E.56809
G1 X110.137 Y90.645 E.00425
G1 X109.832 Y89.555 E.03549
G1 X109.572 Y88.323 E.03948
G1 X109.42 Y87.244 E.03417
G1 X109.349 Y86.252 E.03118
G1 X109.342 Y85.512 E.0232
G1 X109.379 Y84.768 E.02336
G1 X109.451 Y84.084 E.02156
G1 X109.626 Y82.995 E.03458
G1 X109.64 Y82.485 E.016
G1 X109.495 Y81.958 E.01714
G1 X109.221 Y81.536 E.01578
G1 X108.866 Y81.179 E.01579
G1 X108.553 Y80.683 E.01839
G1 X108.416 Y80.271 E.01361
G1 X108.344 Y79.754 E.01637
G1 X108.343 Y79.151 E.01891
G1 X108.422 Y78.577 E.01817
G1 X108.636 Y77.716 E.02782
G1 X109.074 Y76.554 E.03894
G1 X109.361 Y75.956 E.0208
G1 X109.653 Y75.413 E.01933
G1 X110.014 Y74.8 E.02231
G1 X110.818 Y73.603 E.04521
G1 X111.187 Y73.115 E.01918
G1 X111.614 Y72.591 E.02119
G1 X112.137 Y71.998 E.02479
G1 X112.509 Y71.62 E.01663
G1 X112.968 Y71.211 E.01928
G1 X113.515 Y70.846 E.02062
G1 X113.928 Y70.675 E.01402
G1 X114.169 Y70.702 E.0076
G1 X114.579 Y71.011 E.0161
G1 X115.121 Y71.237 E.01841
G1 X115.324 Y71.272 E.00646
G1 X115.831 Y71.202 E.01605
G1 X116.291 Y71.001 E.01574
G1 X116.729 Y70.728 E.01618
G1 X117.471 Y70.306 E.02676
G1 X118.241 Y69.971 E.02633
G1 X118.737 Y69.798 E.01647
G1 X119.737 Y69.537 E.0324
G1 X121.039 Y69.315 E.04141
G1 X122.25 Y69.191 E.03817
G1 X123.792 Y69.114 E.04841
G1 X125.579 Y69.094 E.05603
G1 X127.436 Y69.13 E.05824
G1 X128.791 Y69.215 E.04257
G1 X129.374 Y69.283 E.0184
G1 X130.248 Y69.415 E.02771
G1 X131.307 Y69.605 E.03373
G1 X132.279 Y69.884 E.03171
G1 X132.996 Y70.163 E.02412
G1 X133.729 Y70.537 E.0258
G1 X134.518 Y71.039 E.02932
G1 X134.887 Y71.197 E.01259
G1 X135.345 Y71.269 E.01454
G1 X135.852 Y71.17 E.0162
G1 X136.046 Y71.077 E.00675
G1 X136.447 Y70.775 E.01574
G1 X136.723 Y70.664 E.00933
G1 X137.11 Y70.782 E.01269
G1 X137.532 Y71.026 E.01528
G1 X137.963 Y71.366 E.01721
G1 X138.342 Y71.72 E.01626
G1 X138.73 Y72.127 E.01763
G1 X139.166 Y72.625 E.02075
G1 X139.959 Y73.642 E.04044
G1 X140.315 Y74.15 E.01945
G1 X140.773 Y74.857 E.02641
G1 X141.333 Y75.847 E.03566
G1 X141.813 Y76.877 E.03563
G1 X142.046 Y77.528 E.02168
G1 X142.228 Y78.168 E.02086
G1 X142.349 Y78.739 E.0183
G1 X142.406 Y79.302 E.01774
G1 X142.393 Y79.862 E.01756
G1 X142.309 Y80.362 E.0159
G1 X142.098 Y80.881 E.01757
G1 X141.793 Y81.265 E.01538
G1 X141.383 Y81.726 E.01934
G1 X141.221 Y82.046 E.01125
G1 X141.1 Y82.541 E.01598
G1 X141.13 Y83.049 E.01596
G1 X141.3 Y84.093 E.03316
G1 X141.375 Y84.822 E.02298
G1 X141.41 Y85.706 E.02774
G1 X141.388 Y86.54 E.02616
G1 X141.301 Y87.501 E.03025
G1 X141.087 Y88.812 E.04165
G1 X140.855 Y89.802 E.03188
G1 X140.496 Y91.072 E.04138
G1 X139.533 Y109.2 E.56919
G1 X139.549 Y109.265 E.0021
M204 S1000
G1 X139.549 Y109.265 F10800
G1 X139.921 Y109.24
M204 S800
;TYPE:External perimeter
G1 F1200
G1 X139.931 Y109.286 E.00148
G1 X140.518 Y110.41 E.03976
G1 X141.03 Y111.601 E.04065
G1 X141.479 Y112.894 E.04292
G1 X141.664 Y113.537 E.02098
G1 X141.846 Y114.271 E.02371
G1 X142.025 Y115.146 E.028
G1 X142.227 Y116.515 E.04339
G1 X142.306 Y117.382 E.0273
G1 X142.357 Y118.778 E.0438
G1 X142.343 Y119.612 E.02615
G1 X142.269 Y120.851 E.03892
G1 X142.358 Y121.355 E.01605
G1 X142.547 Y121.691 E.01209
G1 X143.134 Y122.273 E.02592
G1 X143.48 Y122.752 E.01853
G1 X143.71 Y123.202 E.01585
G1 X143.893 Y123.725 E.01737
G1 X144.062 Y124.562 E.02677
G1 X144.094 Y125.097 E.0168
G1 X144.098 Y125.652 E.0174
G1 X144.075 Y126.155 E.01579
G1 X143.956 Y126.99 E.02645
G1 X143.8 Y127.677 E.02209
G1 X143.584 Y128.379 E.02303
G1 X143.396 Y128.884 E.0169
G1 X143.119 Y129.524 E.02187
G1 X142.737 Y130.288 E.02678
G1 X142.391 Y130.902 E.0221
G1 X141.781 Y131.848 E.03529
G1 X141 Y132.899 E.04106
G1 X140.469 Y133.522 E.02567
G1 X139.984 Y134.03 E.02202
G1 X139.394 Y134.575 E.02518
G1 X138.987 Y134.886 E.01606
G1 X138.318 Y135.3 E.02467
G1 X137.825 Y135.489 E.01655
G1 X137.342 Y135.568 E.01535
G1 X136.859 Y135.505 E.01527
G1 X136.386 Y135.28 E.01642
G1 X135.871 Y134.805 E.02197
G1 X135.505 Y134.356 E.01816
G1 X135.196 Y134.119 E.01221
G1 X134.867 Y134.008 E.01089
G1 X134.456 Y133.998 E.01289
G1 X133.99 Y134.152 E.01539
G1 X132.848 Y134.709 E.03984
G1 X131.754 Y135.153 E.03702
G1 X130.552 Y135.546 E.03965
G1 X129.233 Y135.88 E.04266
G1 X128.632 Y136.001 E.01922
G1 X127.831 Y136.131 E.02544
G1 X126.429 Y136.28 E.04421
G1 X125.017 Y136.331 E.0443
G1 X123.629 Y136.284 E.04354
G1 X122.77 Y136.207 E.02704
G1 X121.648 Y136.05 E.03552
G1 X120.79 Y135.885 E.02739
G1 X119.715 Y135.622 E.0347
G1 X118.608 Y135.28 E.03633
G1 X117.3 Y134.768 E.04404
G1 X115.708 Y134.032 E.05499
G1 X115.241 Y133.994 E.01469
G1 X114.925 Y134.064 E.01015
G1 X114.691 Y134.184 E.00825
G1 X114.396 Y134.46 E.01267
G1 X114.02 Y134.907 E.01831
G1 X113.558 Y135.32 E.01943
G1 X113.155 Y135.505 E.0139
G1 X112.803 Y135.553 E.01114
G1 X112.458 Y135.552 E.01082
G1 X111.969 Y135.421 E.01587
G1 X111.455 Y135.179 E.01781
G1 X110.984 Y134.868 E.0177
G1 X110.43 Y134.424 E.02226
G1 X109.9 Y133.918 E.02298
G1 X109.326 Y133.291 E.02665
G1 X108.804 Y132.652 E.02587
G1 X108.191 Y131.814 E.03255
G1 X107.77 Y131.168 E.02418
G1 X107.27 Y130.3 E.03141
G1 X106.858 Y129.477 E.02886
G1 X106.585 Y128.839 E.02176
G1 X106.329 Y128.116 E.02405
G1 X106.106 Y127.289 E.02686
G1 X105.961 Y126.481 E.02574
G1 X105.904 Y125.896 E.01843
G1 X105.894 Y125.105 E.0248
G1 X105.935 Y124.587 E.01629
G1 X106.084 Y123.8 E.02511
G1 X106.246 Y123.308 E.01624
G1 X106.53 Y122.732 E.02014
G1 X107.008 Y122.12 E.02435
G1 X107.446 Y121.701 E.01901
G1 X107.666 Y121.27 E.01517
G1 X107.732 Y120.816 E.01438
G1 X107.657 Y119.611 E.03785
G1 X107.643 Y118.775 E.02622
G1 X107.662 Y117.939 E.02622
G1 X107.715 Y117.104 E.02623
G1 X107.811 Y116.199 E.02853
G1 X107.926 Y115.423 E.0246
G1 X108.093 Y114.548 E.02793
G1 X108.278 Y113.758 E.02544
G1 X108.666 Y112.44 E.04308
G1 X109.128 Y111.207 E.04128
G1 X109.634 Y110.098 E.03822
G1 X110.261 Y108.901 E.04237
G1 X109.78 Y90.789 E.56809
G1 X109.466 Y89.645 E.0372
G1 X109.201 Y88.389 E.04025
G1 X109.045 Y87.284 E.03499
G1 X108.972 Y86.267 E.03197
G1 X108.965 Y85.504 E.02392
G1 X109.003 Y84.739 E.02402
G1 X109.077 Y84.034 E.02223
G1 X109.218 Y83.162 E.0277
G1 X109.278 Y82.637 E.01657
G1 X109.173 Y82.166 E.01513
G1 X108.953 Y81.802 E.01334
G1 X108.569 Y81.416 E.01707
G1 X108.213 Y80.851 E.02094
G1 X108.04 Y80.318 E.01757
G1 X107.969 Y79.788 E.01677
G1 X107.967 Y79.12 E.02094
G1 X108.051 Y78.506 E.01943
G1 X108.275 Y77.603 E.02917
G1 X108.727 Y76.406 E.04012
G1 X109.025 Y75.785 E.0216
G1 X109.324 Y75.228 E.01982
G1 X109.693 Y74.602 E.02278
G1 X110.513 Y73.381 E.04612
G1 X110.891 Y72.882 E.01963
G1 X111.326 Y72.347 E.02162
G1 X111.861 Y71.74 E.02537
G1 X112.249 Y71.346 E.01734
G1 X112.737 Y70.912 E.02048
G1 X113.306 Y70.532 E.02145
G1 X113.741 Y70.341 E.0149
G1 X114.037 Y70.285 E.00945
G1 X114.332 Y70.352 E.00949
G1 X114.806 Y70.709 E.01861
G1 X115.252 Y70.883 E.01501
G1 X115.68 Y70.857 E.01344
G1 X116.166 Y70.642 E.01666
G1 X116.902 Y70.169 E.02743
G1 X117.632 Y69.805 E.02558
G1 X118.63 Y69.436 E.03336
G1 X119.658 Y69.168 E.03331
G1 X120.988 Y68.941 E.0423
G1 X122.222 Y68.815 E.03889
G1 X123.781 Y68.737 E.04894
G1 X125.581 Y68.717 E.05644
G1 X127.451 Y68.753 E.05864
G1 X128.825 Y68.84 E.04317
G1 X129.418 Y68.909 E.01872
G1 X130.317 Y69.045 E.02851
G1 X131.393 Y69.237 E.03427
G1 X132.399 Y69.526 E.03282
G1 X133.15 Y69.818 E.02526
G1 X133.917 Y70.209 E.02699
G1 X134.72 Y70.721 E.02986
G1 X135.027 Y70.847 E.0104
G1 X135.364 Y70.892 E.01066
G1 X135.825 Y70.772 E.01494
G1 X136.306 Y70.419 E.01871
G1 X136.591 Y70.309 E.00958
G1 X136.885 Y70.298 E.00922
G1 X137.366 Y70.475 E.01607
G1 X137.82 Y70.762 E.01684
G1 X138.211 Y71.082 E.01584
G1 X138.607 Y71.452 E.01699
G1 X139.009 Y71.872 E.01823
G1 X139.457 Y72.385 E.02135
G1 X140.263 Y73.417 E.04106
G1 X140.628 Y73.939 E.01997
G1 X141.096 Y74.661 E.02698
G1 X141.669 Y75.675 E.03652
G1 X142.162 Y76.734 E.03663
G1 X142.401 Y77.401 E.02222
G1 X142.594 Y78.077 E.02204
G1 X142.723 Y78.688 E.01958
G1 X142.783 Y79.293 E.01906
G1 X142.767 Y79.906 E.01923
G1 X142.672 Y80.463 E.01772
G1 X142.426 Y81.07 E.02054
G1 X142.065 Y81.525 E.01821
G1 X141.68 Y81.958 E.01817
G1 X141.564 Y82.201 E.00844
G1 X141.474 Y82.593 E.01261
G1 X141.502 Y82.989 E.01245
G1 X141.674 Y84.043 E.03348
G1 X141.752 Y84.795 E.0237
G1 X141.787 Y85.704 E.02852
G1 X141.765 Y86.562 E.02691
G1 X141.676 Y87.548 E.03104
G1 X141.457 Y88.885 E.04248
G1 X141.22 Y89.898 E.03262
G1 X140.872 Y91.092 E.03899
G1 X139.91 Y109.181 E.56797
M204 S1000
;WIPE_START
G1 F8640
G1 X139.921 Y109.24 E-.01386
G1 X139.931 Y109.286 E-.01087
G1 X140.518 Y110.41 E-.2928
G1 X141.03 Y111.601 E-.29934
G1 X141.29 Y112.35 E-.18313
;WIPE_END
G1 Z.6 F720
G1 X139.604 Y73.462 F10800
G1 Z.2 F720
G1 E.8 F2100
M204 S800
;TYPE:Solid infill
;WIDTH:0.420381
G1 F1200
G1 X138.1 Y71.958 E.06676
G1 X137.74 Y71.621 E.01548
G1 X137.4 Y71.344 E.01376
G1 X137.049 Y71.121 E.01305
G1 X136.732 Y71.012 E.01052
G1 X136.658 Y71.05 E.00261
G1 X140.162 Y74.554 E.15553
G1 X140.484 Y75.034 E.01814
G1 X140.972 Y75.897 E.03112
G1 X136.35 Y71.276 E.20513
G1 X136.238 Y71.358 E.00436
G1 X136.015 Y71.474 E.00789
G1 X141.457 Y76.916 E.24155
G1 X141.77 Y77.764 E.02837
G1 X135.591 Y71.584 E.27429
G1 X135.326 Y71.609 E.00835
G1 X135.049 Y71.576 E.00876
G1 X141.957 Y78.484 E.30662
G1 X142.059 Y79.12 E.02022
M73 P1 R48
M73 Q1 S49
G1 X134.136 Y71.197 E.35167
G1 X133.561 Y70.832 E.02138
G1 X132.901 Y70.495 E.02326
G1 X142.074 Y79.668 E.40716
G1 X142.017 Y80.145 E.01508
G1 X132.04 Y70.169 E.44282
G1 X131.291 Y69.953 E.02447
G1 X141.88 Y80.543 E.47003
G1 X141.803 Y80.711 E.0058
G1 X141.684 Y80.88 E.00649
G1 X130.624 Y69.82 E.49091
G1 X129.964 Y69.694 E.02109
G1 X141.427 Y81.157 E.5088
G1 X141.179 Y81.443 E.01188
G1 X129.36 Y69.623 E.52463
G1 X128.756 Y69.553 E.01908
M73 Q1 S48
G1 X140.975 Y81.772 E.54236
G1 X140.86 Y82.034 E.00898
G1 X140.834 Y82.165 E.00419
G1 X128.186 Y69.517 E.5614
G1 X127.616 Y69.481 E.01793
G1 X140.759 Y82.624 E.58337
G1 X140.813 Y83.212 E.01853
G1 X127.063 Y69.462 E.61031
G1 X126.519 Y69.452 E.01708
G1 X140.917 Y83.85 E.63908
G1 X140.997 Y84.464 E.01943
G1 X125.975 Y69.441 E.6668
G1 X125.441 Y69.441 E.01676
G1 X141.044 Y85.045 E.69259
G1 X141.066 Y85.6 E.01743
G1 X124.911 Y69.445 E.71706
G1 X124.381 Y69.449 E.01664
G1 X141.059 Y86.127 E.74028
G1 X141.038 Y86.64 E.01611
G1 X123.851 Y69.453 E.76287
G1 X123.341 Y69.477 E.01602
G1 X140.994 Y87.13 E.78356
G1 X140.94 Y87.609 E.01513
G1 X122.833 Y69.502 E.80371
G1 X122.324 Y69.528 E.016
G1 X140.865 Y88.068 E.82295
G1 X140.789 Y88.526 E.01457
G1 X121.838 Y69.575 E.84117
G1 X121.353 Y69.624 E.0153
G1 X140.701 Y88.972 E.85879
G1 X140.6 Y89.404 E.01392
G1 X120.881 Y69.686 E.87524
G1 X120.425 Y69.764 E.01452
G1 X140.493 Y89.831 E.89073
G1 X140.371 Y90.243 E.01349
M73 P1 R47
G1 X119.969 Y69.842 E.90555
G1 X119.535 Y69.941 E.01397
G1 X140.249 Y90.655 E.91942
G1 X140.191 Y90.853 E.00648
G1 X140.155 Y91.095 E.00768
G1 X119.111 Y70.051 E.93407
G1 X118.695 Y70.169 E.01357
M73 P2 R47
M73 Q2 S48
G1 X140.129 Y91.602 E.95136
G1 X140.102 Y92.109 E.01594
G1 X118.303 Y70.311 E.96756
G1 X117.92 Y70.461 E.01291
