; generated by PrusaSlicer 2.9.0 on 2025-01-11 at 00:06:13 UTC


;
;
; 

; external perimeters extrusion width = 0.60mm
; perimeters extrusion width = 0.60mm
; infill extrusion width = 0.80mm
; solid infill extrusion width = 0.45mm
; top infill extrusion width = 0.40mm
; first layer extrusion width = 0.42mm

; external perimeters extrusion width = 0.60mm
; perimeters extrusion width = 0.60mm
; infill extrusion width = 0.80mm
; solid infill extrusion width = 0.45mm
; top infill extrusion width = 0.40mm
; first layer extrusion width = 0.42mm

M73 P0 R58
M73 Q0 S59
M201 X1000 Y1000 Z200 E5000 ; sets maximum accelerations, mm/sec^2
M203 X200 Y200 Z12 E120 ; sets maximum feedrates, mm / sec
M204 S1250 T1250 ; sets acceleration (S) and retract acceleration (R), mm/sec^2
M205 X8.00 Y8.00 Z0.40 E4.50 ; sets the jerk limits, mm/sec
M205 S0 T0 ; sets the minimum extruding and travel feed rate, mm/sec

; printing object one_gear_no_center.stl id:0 copy 0
; stop printing object one_gear_no_center.stl id:0 copy 0
; printing object arms2_single.stl id:1 copy 0
; stop printing object arms2_single.stl id:1 copy 0

;TYPE:Custom
M862.3 P "MK3S" ; printer model check
M862.1 P0.4 ; nozzle diameter check
M115 U3.13.3 ; tell printer latest fw version
G90 ; use absolute coordinates
M83 ; extruder relative mode
M104 S215 ; set extruder temp
M140 S60 ; set bed temp
M190 S60 ; wait for bed temp
M109 S215 ; wait for extruder temp
G28 W ; home all without mesh bed level
G80 X67.8857 Y5.21906 W158.058 H201.593 ; mesh bed levelling

G1 Z0.2 F720
G1 Y-3 F1000 ; go outside print area
G92 E0
G1 X60 E9 F1000 ; intro line
G1 X100 E12.5 F1000 ; intro line

G92 E0
M221 S95

; Don't change E values below. Excessive value can damage the printer.
M907 E430 ; set extruder motor current
G21 ; set units to millimeters
G90 ; use absolute coordinates
M83 ; use relative distances for extrusion

M900 K0.05 ; Filament gcode LA 1.5
M900 K30 ; Filament gcode LA 1.0




M107
;LAYER_CHANGE
;Z:0.2
;HEIGHT:0.2
G1 E-.8 F2100
G1 Z.6 F720
; printing object one_gear_no_center.stl id:0 copy 0
G1 X96.018 Y193.006 F10800
G1 Z.2 F720
G1 E.8 F2100
M204 S800
;TYPE:External perimeter
;WIDTH:0.419999
G1 F1200
G2 X96.031 Y193.039 I2.518 J-.994 E.00111
G2 X96.092 Y193.89 I8.324 J-.168 E.02676
G1 X96.065 Y195.025 E.0356
G1 X95.832 Y196.012 E.0318
G1 X95.594 Y196.498 E.01697
G3 X95.219 Y197.159 I-1.493 J-.41 E.02407
M73 Q0 S58
G3 X94.547 Y197.995 I-3.661 J-2.256 E.03372
G3 X93.621 Y198.827 I-3.506 J-2.97 E.03915
G2 X93.065 Y199.189 I1.166 J2.4 E.02086
G2 X92.145 Y199.573 I2.293 J6.781 E.03128
G3 X90.676 Y199.827 I-2.489 J-10.014 E.04678
G3 X88.939 Y199.683 I.002 J-10.551 E.05471
G1 X88.005 Y199.364 E.03095
G3 X86.056 Y197.996 I2.943 J-6.266 E.07503
G3 X84.527 Y194.623 I4.673 J-4.152 E.11789
G3 X84.566 Y192.969 I6.375 J-.674 E.05202
G1 X84.643 Y192.44 E.01676
G1 X84.783 Y192.153 E.01001
G2 X84.615 Y191.575 I-3.617 J.733 E.01889
G1 X84.661 Y191.474 E.00348
G1 X84.916 Y191.389 E.00843
G1 X85.028 Y191.035 E.01164
G1 X85.117 Y190.99 E.00313
G1 X85.133 Y190.835 E.00489
G1 X85.397 Y190.541 E.01239
G2 X85.627 Y190.194 I-.329 J-.469 E.01336
G1 X86.048 Y189.816 E.01774
G3 X86.394 Y189.476 I.769 J.438 E.01541
G2 X86.838 Y189.174 I-.175 J-.732 E.01721
G3 X87.769 Y188.671 I3.347 J5.081 E.03322
G2 X87.999 Y188.543 I-.049 J-.36 E.00845
G1 X88.93 Y188.277 E.03036
G3 X90.092 Y188.185 I.883 J3.776 E.03669
G3 X91.865 Y188.382 I.059 J7.567 E.05606
G3 X93.076 Y188.909 I-7.803 J19.584 E.04142
G3 X94.347 Y189.926 I-6.217 J9.067 E.05109
G1 X95.068 Y190.805 E.03565
G1 X95.69 Y191.929 E.04028
G2 X95.861 Y192.423 I2.629 J-.629 E.01642
G2 X95.997 Y192.95 I2.675 J-.411 E.01709
M204 S1000
;WIPE_START
G1 F8640
G1 X96.018 Y193.006 E-.01381
G2 X96.031 Y193.039 I2.525 J-.976 E-.00819
G2 X96.092 Y193.89 I8.324 J-.169 E-.19709
G1 X96.065 Y195.025 E-.26215
G1 X95.832 Y196.012 E-.23417
G1 X95.671 Y196.341 E-.08459
;WIPE_END
G1 Z.6 F720
G1 X84.667 Y169.694 F10800
G1 Z.2 F720
G1 E.8 F2100
M204 S800
;TYPE:Perimeter
;WIDTH:0.398984
G1 F1200
G3 X84.505 Y169.342 I5.969 J-2.956 E.01147
;WIDTH:0.421967
G1 X84.259 Y168.518 E.0271
;WIDTH:0.400333
G1 X84.11 Y167.562 E.02875
;WIDTH:0.422053
G1 X84.122 Y166.572 E.03121
;WIDTH:0.436053
G1 X84.294 Y165.443 E.03733
;WIDTH:0.469032
G1 X84.378 Y165.125 E.01165
;WIDTH:0.502011
G3 X84.586 Y164.566 I1.65 J.296 E.02289
;WIDTH:0.461005
G1 X84.71 Y164.325 E.00942
;WIDTH:0.419999
G3 X85.406 Y163.303 I3.519 J1.647 E.03893
G3 X86.339 Y162.278 I2.738 J1.555 E.04382
G2 X86.953 Y161.794 I-1.924 J-3.079 E.02456
G2 X87.701 Y161.409 I-.995 J-2.851 E.02646
G3 X89.521 Y160.895 I2.623 J5.805 E.05952
;WIDTH:0.443087
G3 X90.522 Y160.853 I.681 J4.199 E.03341
;WIDTH:0.424511
G1 X91.211 Y160.914 E.02195
;WIDTH:0.419999
G1 X91.763 Y161.015 E.01759
G3 X92.8 Y161.346 I-.816 J4.343 E.03422
G3 X94.015 Y162.061 I-6.329 J12.136 E.04422
G3 X95.2 Y163.211 I-7.693 J9.114 E.05182
G3 X95.876 Y164.289 I-14.296 J9.72 E.0399
;WIDTH:0.424132
G1 X96.161 Y164.931 E.02227
;WIDTH:0.452545
G1 X96.341 Y165.38 E.01648
G1 X96.489 Y166.327 E.03265
;WIDTH:0.431556
G1 X96.537 Y166.793 E.01514
;WIDTH:0.418454
G1 X96.503 Y167.478 E.02142
;WIDTH:0.43122
G3 X96.295 Y168.726 I-8.213 J-.728 E.04089
;WIDTH:0.424989
G1 X96.135 Y169.271 E.01804
;WIDTH:0.418646
G1 X95.933 Y169.783 E.0172
;WIDTH:0.406046
G1 X95.661 Y170.26 E.01658
;WIDTH:0.42135
G1 X95.386 Y170.691 E.01609
;WIDTH:0.424723
G1 X94.707 Y171.5 E.03353
;WIDTH:0.436327
G1 X93.772 Y172.239 E.03899
;WIDTH:0.410334
G1 X93.216 Y172.568 E.01974
;WIDTH:0.401776
G1 X92.769 Y172.802 E.01506
;WIDTH:0.393394
G1 X92.303 Y173.002 E.01478
;WIDTH:0.408865
G1 X91.794 Y173.128 E.01596
;WIDTH:0.419867
G3 X90.67 Y173.285 I-2.291 J-12.301 E.03558
;WIDTH:0.414996
G1 X89.906 Y173.298 E.02364
;WIDTH:0.387929
G1 X89.056 Y173.174 E.02464
;WIDTH:0.391802
G3 X88.108 Y172.927 I2.176 J-10.317 E.02843
;WIDTH:0.411477
G1 X87.077 Y172.397 E.03553
;WIDTH:0.419825
G3 X85.845 Y171.387 I6.875 J-9.632 E.04996
;WIDTH:0.416228
G1 X85.409 Y170.878 E.0208
;WIDTH:0.41179
G1 X85.138 Y170.498 E.01432
;WIDTH:0.398984
G3 X84.694 Y169.748 I5.498 J-3.76 E.02582
M204 S1000
G1 X84.694 Y169.748 F10800
G1 X84.983 Y169.527
M204 S800
;TYPE:External perimeter
;WIDTH:0.419999
G1 F1200
G3 X84.727 Y168.736 I2.903 J-1.378 E.02614
G3 X84.518 Y167.871 I2.55 J-1.072 E.02802
G1 X84.469 Y167.605 E.00848
G2 X84.476 Y166.718 I-4.042 J-.473 E.02787
G1 X84.676 Y165.495 E.03886
G3 X85.135 Y164.318 I6.859 J2.002 E.03966
G3 X85.24 Y164.196 I.178 J.046 E.00523
G1 X85.378 Y163.907 E.01004
G2 X85.856 Y163.28 I-2.063 J-2.067 E.0248
G2 X86.009 Y163.086 I-.139 J-.268 E.00798
G2 X86.194 Y162.882 I-.213 J-.38 E.00879
G2 X86.537 Y162.599 I-.473 J-.919 E.01405
G2 X87.212 Y162.083 I-2.589 J-4.093 E.02667
G1 X87.737 Y161.854 E.01796
G1 X87.842 Y161.759 E.00444
G2 X88.183 Y161.592 I-.125 J-.688 E.01206
G1 X88.625 Y161.501 E.01415
G1 X88.693 Y161.452 E.00263
G3 X90.346 Y161.23 I1.512 J4.997 E.05252
G3 X92.716 Y161.713 I.011 J5.999 E.07636
G3 X93.758 Y162.351 I-6.688 J12.101 E.03832
G3 X94.924 Y163.469 I-5.963 J7.392 E.05071
G3 X95.968 Y165.534 I-5.888 J4.271 E.07286
G1 X96.167 Y166.728 E.03795
G3 X95.923 Y168.647 I-8.96 J-.164 E.06077
G3 X94.671 Y170.936 I-4.663 J-1.064 E.08285
G3 X94.014 Y171.573 I-1.888 J-1.289 E.02889
G3 X92.546 Y172.487 I-3.777 J-4.436 E.05442
G1 X92.471 Y172.563 E.00335
G3 X91.849 Y172.71 I-.748 J-1.78 E.02013
G3 X91.15 Y172.853 I-.866 J-2.444 E.02244
G1 X90.628 Y172.912 E.01647
G1 X89.894 Y172.937 E.02303
G3 X88.737 Y172.731 I1.199 J-10.092 E.03687
G3 X87.705 Y172.302 I.654 J-3.029 E.03523
G3 X86.692 Y171.637 I2.14 J-4.361 E.03809
G1 X86.478 Y171.48 E.00832
G3 X85.01 Y169.582 I4.986 J-5.373 E.07557
M204 S1000
;WIPE_START
G1 F8640
G1 X84.983 Y169.527 E-.01415
G3 X84.727 Y168.736 I2.903 J-1.377 E-.19251
G3 X84.518 Y167.871 I2.549 J-1.074 E-.20637
G1 X84.469 Y167.605 E-.06245
G2 X84.476 Y166.718 I-4.042 J-.475 E-.20522
G1 X84.559 Y166.208 E-.1193
;WIPE_END
G1 Z.6 F720
G1 X90.534 Y160.452 F10800
G1 Z.2 F720
G1 E.8 F2100
M204 S800
;TYPE:Perimeter
;WIDTH:0.425034
G1 F1200
G3 X90.256 Y160.47 I-.227 J-1.332 E.00887
;WIDTH:0.437888
G3 X89.68 Y160.24 I.087 J-1.053 E.02067
;WIDTH:0.419999
G3 X89.263 Y159.393 I.81 J-.925 E.03038
G1 X89.356 Y158.95 E.01419
G1 X89.605 Y158.599 E.01349
;WIDTH:0.421918
G1 X89.943 Y158.381 E.01267
;WIDTH:0.443242
G1 X90.352 Y158.291 E.01394
;WIDTH:0.450003
G1 X90.683 Y158.342 E.01134
G1 X91.119 Y158.621 E.01752
;WIDTH:0.419999
G1 X91.354 Y158.973 E.01327
G1 X91.437 Y159.376 E.0129
G3 X91.186 Y160.08 I-1.318 J-.073 E.02376
G1 X90.821 Y160.37 E.01462
;WIDTH:0.425034
G3 X90.593 Y160.441 I-.514 J-1.25 E.0076
M204 S1000
G1 X90.593 Y160.441 F10800
G1 X90.471 Y160.085
M204 S800
;TYPE:External perimeter
;WIDTH:0.419999
G1 F1200
G3 X90.325 Y160.097 I-.132 J-.698 E.0046
G1 X90.052 Y160.032 E.0088
G3 X90.648 Y158.748 I.306 J-.638 E.06886
G3 X90.529 Y160.072 I-.309 J.639 E.05394
M204 S1000
;WIPE_START
G1 F8640
G1 X90.471 Y160.085 E-.01372
G3 X90.325 Y160.097 I-.131 J-.698 E-.03389
G1 X90.052 Y160.032 E-.0648
G3 X90.648 Y158.748 I.311 J-.636 E-.5071
G3 X91.049 Y159.373 I-.309 J.639 E-.18049
;WIPE_END
G1 Z.6 F720
G1 X79.945 Y198.515 F10800
G1 Z.2 F720
G1 E.8 F2100
M204 S800
G1 F1200
G3 X79.846 Y198.47 I1.222 J-2.842 E.00341
G2 X79.261 Y198.013 I-2.532 J2.637 E.02332
G3 X77.243 Y195.809 I16.174 J-16.838 E.09376
G3 X76.679 Y195.051 I3.81 J-3.422 E.02967
G1 X76.194 Y194.354 E.02662
G3 X75.417 Y193.11 I6.172 J-4.715 E.04606
G3 X74.249 Y190.784 I13.593 J-8.285 E.0817
G1 X73.92 Y190.005 E.02651
G3 X73.506 Y188.949 I5.018 J-2.578 E.03562
G1 X73.222 Y187.984 E.03154
G3 X72.935 Y186.958 I3.814 J-1.618 E.0335
G1 X72.776 Y186.265 E.02229
G3 X72.307 Y183.449 I17.915 J-4.427 E.0896
G1 X72.224 Y182.858 E.01871
G3 X72.381 Y176.751 I32.185 J-2.225 E.19183
G2 X72.605 Y175.578 I-9.298 J-2.38 E.03747
G3 X72.965 Y173.965 I8.885 J1.135 E.05189
G3 X73.138 Y173.357 I2.255 J.313 E.01988
G3 X73.774 Y171.476 I8.703 J1.893 E.06239
G3 X73.967 Y170.905 I2.133 J.403 E.01896
G3 X74.288 Y170.151 I2.929 J.804 E.02577
G3 X75.079 Y168.539 I16.458 J7.073 E.05632
G3 X75.498 Y167.82 I3.679 J1.664 E.02614
G3 X76.286 Y166.559 I6.724 J3.322 E.0467
G3 X77.366 Y165.087 I9.659 J5.954 E.05731
G3 X78.004 Y164.346 I4.29 J3.051 E.0307
G3 X79.258 Y163.066 I8.479 J7.05 E.05625
G3 X79.95 Y162.525 I2.95 J3.061 E.02759
G3 X81.014 Y162.313 I1.146 J2.979 E.03418
G1 X81.291 Y162.296 E.0087
G1 X81.862 Y162.401 E.0182
G3 X82.737 Y162.931 I-2.245 J4.689 E.03213
G1 X83.19 Y163.456 E.02174
G1 X83.426 Y163.919 E.01629
G1 X83.594 Y164.597 E.0219
G1 X83.346 Y166.92 E.07325
G1 X83.442 Y168.045 E.0354
G2 X83.596 Y168.854 I2.694 J-.092 E.02592
G2 X83.923 Y169.836 I4.96 J-1.107 E.03251
G3 X84.303 Y170.549 I-6.086 J3.697 E.02535
G2 X85.232 Y171.832 I10.695 J-6.764 E.0497
G2 X86.252 Y172.731 I14.99 J-15.989 E.04264
G2 X87.729 Y173.531 I4.551 J-6.638 E.05276
G2 X89.471 Y173.986 I3.853 J-11.182 E.05651
G1 X90.665 Y174.036 E.03747
G2 X92.624 Y173.621 I-.276 J-6.139 E.06307
G1 X92.749 Y173.531 E.00483
G2 X93.269 Y173.351 I-.104 J-1.145 E.01742
G2 X93.926 Y173.029 I-1.075 J-3.022 E.02299
G3 X94.198 Y172.843 I.385 J.271 E.01056
G2 X95.175 Y172.093 I-2.721 J-4.554 E.03871
G3 X95.408 Y171.852 I.464 J.215 E.01071
G2 X96.072 Y171.002 I-5.158 J-4.714 E.03385
G3 X96.256 Y170.711 I.543 J.139 E.01097
G1 X96.695 Y169.9 E.02891
G1 X97.011 Y168.986 E.03032
G2 X97.218 Y167.71 I-4.523 J-1.389 E.04066
G2 X97.147 Y165.361 I-8.46 J-.919 E.07392
G1 X97.078 Y164.753 E.01919
G3 X97.307 Y163.688 I4.297 J.365 E.03425
G1 X97.624 Y163.184 E.01867
G3 X98.358 Y162.586 I2.629 J2.477 E.02977
G2 X98.735 Y162.402 I-.201 J-.89 E.01327
G3 X99.843 Y162.302 I1.405 J9.384 E.0349
G3 X100.906 Y162.644 I-.482 J3.316 E.03518
G1 X101.288 Y162.989 E.01614
G3 X103.161 Y164.987 I-11.625 J12.769 E.08596
G3 X104.13 Y166.18 I-13.558 J12.013 E.0482
G2 X105.154 Y167.738 I16.611 J-9.796 E.05848
G3 X106.132 Y169.69 I-32.64 J17.577 E.06847
G3 X106.609 Y170.735 I-4.421 J2.649 E.03609
G3 X107.728 Y174.201 I-16.878 J7.364 E.11438
G3 X107.926 Y174.96 I-2.767 J1.127 E.02467
G3 X108.189 Y176.513 I-11.9 J2.81 E.04942
G3 X108.51 Y179.838 I-23.433 J3.944 E.10482
G1 X108.468 Y182.186 E.07363
G3 X108.348 Y183.302 I-7.204 J-.209 E.03523
G3 X108.013 Y185.687 I-14.123 J-.769 E.07561
G3 X107.861 Y186.339 I-2.18 J-.164 E.02107
G3 X107.52 Y187.715 I-6.651 J-.917 E.04453
G3 X107.359 Y188.22 I-1.906 J-.328 E.01667
G3 X107.162 Y188.812 I-1.796 J-.268 E.01966
G3 X106.514 Y190.543 I-19.122 J-6.171 E.05797
G3 X106.227 Y191.251 I-2.786 J-.718 E.02402
G3 X106.024 Y191.691 I-1.336 J-.35 E.01527
G3 X105.539 Y192.662 I-7.866 J-3.323 E.03405
G3 X105.397 Y192.855 I-.28 J-.057 E.00775
G1 X104.976 Y193.54 E.02521
G2 X104.617 Y194.158 I3.013 J2.166 E.02244
G2 X104.304 Y194.689 I1.415 J1.189 E.01942
G1 X104.161 Y194.8 E.00568
G1 X103.73 Y195.382 E.02271
G2 X103.327 Y195.947 I3.164 J2.682 E.02179
G2 X102.705 Y196.662 I4.116 J4.212 E.02975
G2 X101.926 Y197.493 I10.607 J10.716 E.03572
G1 X101.571 Y197.867 E.01617
G3 X99.814 Y198.774 I-2.235 J-2.174 E.06309
G1 X99.166 Y198.736 E.02035
G3 X98.374 Y198.462 I1.017 J-4.221 E.02632
G3 X97.527 Y197.705 I1.679 J-2.733 E.03581
G3 X97.118 Y196.732 I2.122 J-1.464 E.03333
G3 X97.141 Y195.631 I4.701 J-.451 E.03461
G2 X97.223 Y194.333 I-6.605 J-1.07 E.04084
G2 X97.212 Y193.251 I-5.682 J-.484 E.03398
G2 X97.086 Y192.423 I-3.334 J.084 E.02633
G2 X95.935 Y189.974 I-8.732 J2.609 E.08516
G2 X93.337 Y187.773 I-5.335 J3.665 E.10803
G2 X90.07 Y187.034 I-3.025 J5.777 E.10621
G2 X88.52 Y187.266 I2.311 J20.669 E.04915
G2 X88.012 Y187.461 I.24 J1.385 E.01717
G2 X86.794 Y187.976 I1.222 J4.592 E.0416
G3 X86.443 Y188.186 I-.464 J-.377 E.01309
G1 X86.034 Y188.512 E.0164
G2 X84.86 Y189.727 I3.332 J4.395 E.05318
G3 X84.624 Y190.007 I-.361 J-.065 E.01202
G1 X84.331 Y190.659 E.02241
G1 X84.112 Y190.907 E.01037
G1 X84.067 Y191.138 E.00738
G1 X83.942 Y191.201 E.00439
G1 X83.908 Y191.577 E.01184
G1 X83.808 Y191.672 E.00432
G1 X83.894 Y191.883 E.00714
G1 X83.822 Y192.03 E.00513
G1 X83.599 Y192.141 E.00781
G1 X83.395 Y193.183 E.03329
G2 X83.377 Y194.491 I11.563 J.81 E.04104
G3 X83.581 Y196.33 I-18.255 J2.951 E.05804
G3 X83.345 Y197.365 I-8.162 J-1.314 E.03331
G3 X82.018 Y198.592 I-2.547 J-1.423 E.05762
G1 X81.337 Y198.761 E.022
G3 X80.001 Y198.538 I-.17 J-3.088 E.04282
M204 S1000
;WIPE_START
G1 F8640
G1 X79.945 Y198.515 E-.01398
G3 X79.846 Y198.47 I1.23 J-2.838 E-.02511
G2 X79.261 Y198.013 I-2.531 J2.637 E-.17171
G3 X77.521 Y196.148 I16.175 J-16.837 E-.5892
;WIPE_END
G1 Z.6 F720
G1 X84.227 Y192.246 F10800
G1 Z.2 F720
G1 E.8 F2100
M204 S800
;TYPE:Perimeter
;WIDTH:0.56151
G1 F1200
G1 X84.315 Y191.998 E.01135
;WIDTH:0.530362
G1 X84.294 Y191.91 E.00367
;WIDTH:0.494102
G1 X84.273 Y191.821 E.00343
;WIDTH:0.457842
G1 X84.252 Y191.733 E.00312
;WIDTH:0.421582
G1 X84.286 Y191.424 E.00979
;WIDTH:0.417463
G1 X84.462 Y191.171 E.0096
;WIDTH:0.456322
G1 X84.637 Y190.917 E.0106
;WIDTH:0.487094
G1 X84.762 Y190.69 E.00957
;WIDTH:0.517866
G1 X84.886 Y190.463 E.01021
;WIDTH:0.526946
G1 X85.003 Y190.288 E.00847
;WIDTH:0.541934
G1 X85.189 Y190.095 E.01112
;WIDTH:0.560096
G1 X85.271 Y189.925 E.00812
;WIDTH:0.590155
G1 X85.472 Y189.704 E.01359
;WIDTH:0.620214
G1 X86.004 Y189.153 E.03677
M204 S1000
;WIPE_START
G1 F8640
G1 X84.278 Y192.157 E-.8
;WIPE_END
G1 Z.6 F720
G1 X96.399 Y192.951 F10800
G1 Z.2 F720
G1 E.8 F2100
M204 S800
;WIDTH:0.463987
G1 F1200
G1 X96.103 Y191.957 E.03631
;WIDTH:0.448794
G1 X95.926 Y191.573 E.01427
;WIDTH:0.456364
G1 X95.369 Y190.558 E.0398
;WIDTH:0.467372
G1 X94.645 Y189.668 E.04049
;WIDTH:0.461978
G1 X93.777 Y188.927 E.03977
;WIDTH:0.441383
G1 X93.251 Y188.575 E.02097
;WIDTH:0.433989
G2 X91.933 Y188.014 I-5.347 J10.724 E.04661
;WIDTH:0.435364
G2 X90.692 Y187.812 I-2.291 J10.179 E.04105
;WIDTH:0.430012
G2 X89.433 Y187.824 I-.468 J16.798 E.04053
;WIDTH:0.387216
G2 X88.3 Y188.071 I.975 J7.197 E.03323
;WIDTH:0.380375
G1 X87.77 Y188.261 E.0158
;WIDTH:0.385031
G1 X86.81 Y188.753 E.03069
;WIDTH:0.386023
G1 X86.421 Y189.076 E.01442
;WIDTH:0.426628
G1 X86.347 Y189.084 E.00237
;WIDTH:0.467233
G1 X86.274 Y189.093 E.0026
;WIDTH:0.507838
G1 X86.2 Y189.101 E.00288
;WIDTH:0.548443
