; generated by PrusaSlicer 2.9.0 on 2025-01-15 at 03:24:22 UTC


;
;
; 

; external perimeters extrusion width = 0.65mm
; perimeters extrusion width = 0.65mm
; infill extrusion width = 0.65mm
; solid infill extrusion width = 0.65mm
; top infill extrusion width = 0.60mm
; first layer extrusion width = 0.65mm

M73 P0 R45
M73 C30
M73 Q0 S45
M73 D30
M201 X1000 Y1000 Z200 E5000 ; sets maximum accelerations, mm/sec^2
M203 X200 Y200 Z12 E120 ; sets maximum feedrates, mm / sec
M204 S1250 T1250 ; sets acceleration (S) and retract acceleration (R), mm/sec^2
M205 X8.00 Y8.00 Z0.40 E4.50 ; sets the jerk limits, mm/sec
M205 S0 T0 ; sets the minimum extruding and travel feed rate, mm/sec

; printing object ShakerEgg.stl id:0 copy 0
; stop printing object ShakerEgg.stl id:0 copy 0

;TYPE:Custom
M862.3 P "MK3S" ; printer model check
M862.1 P0.6 ; nozzle diameter check
M115 U3.13.3 ; tell printer latest fw version
G90 ; use absolute coordinates
M83 ; extruder relative mode
M104 S215 ; set extruder temp
M140 S60 ; set bed temp
M190 S60 ; wait for bed temp
M109 S215 ; wait for extruder temp
G28 W ; home all without mesh bed level
G80 X110.032 Y92.0466 W28.5945 H28.5945 ; mesh bed levelling

G1 Z0.2 F720
G1 Y-3 F1000 ; go outside print area
G92 E0
G1 X60 E9 F1000 ; intro line
G1 X100 E12.5 F1000 ; intro line

G92 E0
M221 S95
G21 ; set units to millimeters
G90 ; use absolute coordinates
M83 ; use relative distances for extrusion

M900 K0.04 ; Filament gcode LA 1.5
M900 K18 ; Filament gcode LA 1.0




M107
;LAYER_CHANGE
;Z:0.2
;HEIGHT:0.2
G1 E-.8 F2100
G1 Z.6 F720
; printing object ShakerEgg.stl id:0 copy 0
G1 X115.553 Y113.525 F10800
G1 Z.2 F720
G1 E.8 F1500
M204 S800
;TYPE:Perimeter
;WIDTH:0.649999
G1 F1200
G3 X126.711 Y95.254 I8.775 J-7.183 E1.83709
G3 X135.668 Y106.192 I-2.388 J11.092 E1.00157
G3 X115.611 Y113.595 I-11.34 J.15 E1.83135
M204 S1000
;WIPE_START
G1 F8640
G1 X115.553 Y113.525 E-.02099
G3 X113.833 Y110.637 I8.775 J-7.184 E-.77901
;WIPE_END
G1 Z.6 F720
G1 X114.624 Y113.313 F10800
G1 Z.2 F720
G1 E.8 F1500
M204 S800
G1 F1200
G3 X112.645 Y103.841 I9.704 J-6.97 E.65377
G3 X136.275 Y106.187 I11.683 J2.504 E2.28728
G3 X114.677 Y113.386 I-11.947 J.156 E1.97908
M204 S1000
G1 X114.677 Y113.386 F10800
G1 X113.731 Y113.079
M204 S800
G1 F1200
G3 X112.945 Y111.643 I10.596 J-6.736 E.1075
G3 X136.694 Y104.15 I11.385 J-5.296 E2.80227
G3 X136.882 Y106.182 I-15.977 J2.505 E.134
G3 X113.78 Y113.154 I-12.555 J.161 E2.12654
M204 S1000
G1 X113.78 Y113.154 F10800
G1 X112.876 Y112.826
M204 S800
G1 F1200
G3 X111.613 Y102.937 I11.469 J-6.49 E.67091
G3 X137.489 Y106.176 I12.714 J3.408 E2.4764
G3 X118.987 Y118.376 I-13.163 J.167 E1.72867
G3 X112.921 Y112.904 I5.358 J-12.04 E.54507
M204 S1000
;WIPE_START
G1 F8640
G1 X112.876 Y112.826 E-.02079
G3 X111.606 Y109.709 I11.469 J-6.49 E-.77921
;WIPE_END
G1 Z.6 F720
G1 X111.952 Y112.376 F10800
G1 Z.2 F720
G1 E.8 F1500
M204 S800
;TYPE:External perimeter
G1 F1200
G3 X111.092 Y110.142 I12.414 J-6.064 E.15729
G3 X112.4 Y99.462 I13.282 J-3.793 E.72528
G3 X121.935 Y92.782 I11.955 J6.919 E.78862
G3 X131.209 Y94.413 I2.384 J13.623 E.63053
G3 X137.749 Y103.246 I-6.921 J11.962 E.74173
G3 X138.096 Y106.171 I-14.981 J3.262 E.19359
G3 X118.735 Y118.928 I-13.77 J.172 E1.80858
M73 Q1 S45
G3 X111.992 Y112.456 I5.631 J-12.616 E.62567
M73 P1 R45
M204 S1000
;WIPE_START
G1 F8640
G1 X111.952 Y112.376 E-.02065
G3 X111.092 Y110.142 I12.415 J-6.062 E-.55343
G3 X110.857 Y109.192 I13.283 J-3.793 E-.22592
;WIPE_END
G1 Z.6 F720
G1 X133.732 Y100.447 F10800
G1 Z.2 F720
G1 E.8 F1500
M204 S800
;TYPE:Solid infill
;WIDTH:0.661119
G1 F1200
G2 X131.407 Y98.152 I-68.017 J66.574 E.21832
G2 X128.983 Y96.572 I-7.186 J8.379 E.19391
G1 X134.101 Y101.69 E.48367
G3 X134.654 Y103.117 I-8.623 J4.16 E.10238
G1 X127.545 Y96.008 E.67183
G2 X126.385 Y95.723 I-2.589 J8.022 E.07989
G1 X134.957 Y104.295 E.81009
G1 X135.102 Y105.314 E.06878
G1 X125.363 Y95.575 E.92038
G2 X124.441 Y95.528 I-.9 J8.461 E.06172
G1 X135.152 Y106.238 E1.01219
G1 X135.13 Y107.091 E.05702
G1 X123.586 Y95.546 E1.091
G1 X122.802 Y95.637 E.05274
G1 X135.038 Y107.873 E1.15635
G1 X134.913 Y108.622 E.05074
G1 X122.053 Y95.762 E1.21532
G1 X121.353 Y95.936 E.0482
G1 X134.736 Y109.319 E1.26475
G1 X134.523 Y109.981 E.04647
G1 X120.698 Y96.155 E1.30657
G2 X120.071 Y96.403 I1.469 J4.634 E.04509
G1 X134.278 Y110.609 E1.34257
G1 X134.001 Y111.207 E.04404
G1 X119.467 Y96.673 E1.37352
G1 X118.9 Y96.981 E.04312
M73 P1 R44
G1 X133.693 Y111.773 E1.39795
G1 X133.353 Y112.308 E.04236
G1 X118.361 Y97.315 E1.41685
G1 X117.848 Y97.676 E.04192
G1 X132.997 Y112.826 E1.43169
G1 X132.611 Y113.314 E.04158
G1 X117.36 Y98.063 E1.44128
G1 X116.904 Y98.481 E.04134
G1 X132.192 Y113.769 E1.44478
G1 X131.762 Y114.213 E.0413
M73 Q1 S44
G1 X116.46 Y98.912 E1.44605
G1 X116.048 Y99.374 E.04137
G1 X131.299 Y114.625 E1.44128
G1 X130.811 Y115.012 E.04162
G1 X115.662 Y99.862 E1.43169
G1 X115.306 Y100.38 E.042
G1 X130.293 Y115.367 E1.41633
G1 X129.759 Y115.708 E.04234
G1 X114.966 Y100.915 E1.398
G1 X114.658 Y101.481 E.04306
G1 X129.19 Y116.013 E1.37333
G1 X128.59 Y116.287 E.04408
G1 X114.381 Y102.079 E1.34276
G1 X114.136 Y102.707 E.04505
G1 X127.967 Y116.539 E1.30713
G1 X127.307 Y116.753 E.04636
M73 C29
G1 X113.923 Y103.369 E1.26484
G1 X113.746 Y104.066 E.04806
G1 X126.601 Y116.921 E1.21485
G1 X125.864 Y117.058 E.05009
M73 P2 R44
M73 Q2 S44
G1 X113.621 Y104.815 E1.15701
G1 X113.529 Y105.597 E.05262
M73 D29
G1 X125.073 Y117.142 E1.091
G1 X124.225 Y117.168 E.05669
G1 X113.507 Y106.45 E1.01289
G1 X113.553 Y107.37 E.06156
G1 X123.301 Y117.118 E.92123
G3 X122.273 Y116.965 I1.152 J-11.237 E.06948
G1 X113.699 Y108.39 E.81033
G1 X113.996 Y109.561 E.08073
G1 X121.114 Y116.679 E.67268
G3 X119.66 Y116.1 I2.567 J-8.551 E.10472
G1 X114.562 Y111.002 E.48178
G2 X116.439 Y113.753 I9.772 J-4.651 E.22344
G1 X118.435 Y115.749 E.18863
M204 S1000
M106 S84.15
;LAYER_CHANGE
;Z:0.35
;HEIGHT:0.15
;BEFORE_LAYER_CHANGE
G92 E0.0
;0.35


;WIPE_START
G1 F8640
G1 X116.439 Y113.753 E-.65179
G3 X116.014 Y113.272 I7.895 J-7.403 E-.14821
;WIPE_END
G1 Z.35 F720
;AFTER_LAYER_CHANGE
;0.35
M104 S210 ; set temperature
G1 X115.131 Y113.608 F10800
G1 E.8 F1500
M204 S800
;TYPE:Perimeter
;WIDTH:0.649999
G1 F2296.878
G1 X114.788 Y113.15 E.02866
G1 F2295.761
G1 X114.445 Y112.641 E.03074
G1 F2301.934
G1 X114.067 Y112.005 E.03706
G1 F2294.615
G1 X113.797 Y111.494 E.02895
G1 F2300.257
G1 X113.537 Y110.925 E.03133
G1 F2313.37
G3 X113.118 Y109.772 I13.155 J-5.441 E.06146
G1 F2303.85
G1 X112.954 Y109.18 E.03077
G1 F2298.329
G1 X112.821 Y108.581 E.03073
G1 F2303.851
G1 X112.72 Y107.976 E.03072
G1 F2312.651
G3 X112.608 Y106.168 I12.249 J-1.664 E.09081
G1 F2316.184
G1 X112.631 Y105.628 E.02707
G1 F2319.932
G1 X112.685 Y105.017 E.03072
G1 F2300.086
G1 X112.791 Y104.285 E.03705
G1 F2296.261
G1 X112.903 Y103.718 E.02895
G1 F2306.329
G1 X113.06 Y103.112 E.03135
G1 F2313.173
G3 X113.459 Y101.952 I13.645 J4.05 E.06146
G1 F2318.292
G1 X113.704 Y101.389 E.03075
G1 F2324.74
G1 X113.978 Y100.84 E.03073
G1 F2309.218
G1 X114.282 Y100.302 E.03095
G1 F2295.078
G1 X114.841 Y99.457 E.05075
G1 F2311.271
G3 X116.043 Y98.05 I10.23 J7.521 E.09277
G1 F2295.854
G1 X116.587 Y97.543 E.03725
G1 F2300.285
G1 X117.034 Y97.172 E.0291
G1 F2311.637
G3 X118.032 Y96.459 I8.753 J11.216 E.06145
G1 F2320.388
G3 X119.1 Y95.855 I7.534 J12.071 E.06147
G1 F2299.635
G1 X119.772 Y95.545 E.03707
G1 F2295.191
G3 X120.902 Y95.132 I4.879 J11.584 E.06028
G1 F2305.267
G1 X121.493 Y94.968 E.03072
G1 F2313.16
G1 X122.092 Y94.835 E.03073
G1 F2304.141
G3 X123.308 Y94.665 I2.587 J13.997 E.06152
G1 F2322.043
G1 X123.926 Y94.627 E.03101
G1 F2315.658
G1 X124.664 Y94.628 E.03696
G1 F2313.779
G1 X125.249 Y94.66 E.02934
G1 F2304.041
G1 X125.859 Y94.724 E.03072
G1 F2298.526
G1 X126.465 Y94.82 E.03073
G1 F2304.042
G1 X127.065 Y94.948 E.03073
G1 F2316.292
G3 X128.048 Y95.23 I-2.649 J11.093 E.05124
G1 F2305.114
G1 X128.743 Y95.486 E.0371
G1 F2301.333
G3 X130.885 Y96.624 I-4.45 J10.961 E.1217
G1 F2314.273
G1 X131.389 Y96.984 E.03102
G1 F2308.698
G1 X131.782 Y97.294 E.02507
G1 F2303.661
G3 X132.62 Y98.054 I-9.032 J10.794 E.05668
G1 F2314.343
G1 X133.046 Y98.503 E.031
G1 F2308.03
G1 X133.52 Y99.069 E.03698
G1 F2307.536
G1 X133.871 Y99.538 E.02934
G1 F2305.681
G3 X134.592 Y100.683 I-11.93 J8.318 E.0678
G1 F2310.845
G3 X135.121 Y101.763 I-11.009 J6.063 E.06026
G1 F2295.666
G1 X135.346 Y102.334 E.03074
G1 F2290.031
G1 X135.541 Y102.916 E.03074
G1 F2295.666
G1 X135.705 Y103.508 E.03077
G1 F2316.885
G1 X135.838 Y104.107 E.03073
G1 F2298.381
G1 X135.939 Y104.712 E.03072
G1 F2292.783
G1 X136.009 Y105.322 E.03075
G1 F2298.565
G1 X136.047 Y105.947 E.03136
G1 F2310.83
G1 X136.051 Y106.52 E.0287
G1 X136.028 Y107.059 E.02702
G1 F2296.175
G1 X135.974 Y107.671 E.03077
G1 F2290.546
G1 X135.868 Y108.403 E.03705
G1 F2291.825
G1 X135.756 Y108.969 E.0289
G1 F2297.505
G1 X135.599 Y109.575 E.03135
G1 F2313.073
G1 X135.415 Y110.161 E.03076
G1 F2307.679
G3 X134.955 Y111.299 I-13.415 J-4.758 E.0615
G1 F2313.4
G1 X134.681 Y111.848 E.03073
G1 F2294.622
G1 X134.377 Y112.386 E.03095
G1 F2289.025
G1 X133.818 Y113.231 E.05075
G1 F2306.726
G1 X133.441 Y113.722 E.03101
G1 F2296.103
G1 X133.042 Y114.189 E.03077
G1 F2290.474
G3 X132.246 Y114.992 I-10.379 J-9.502 E.05665
G1 F2310.479
G3 X131.385 Y115.707 I-9.422 J-10.455 E.05607
G1 F2291.565
G1 X130.885 Y116.064 E.03077
G1 F2285.874
G1 X130.368 Y116.393 E.03069
G1 F2291.567
G3 X128.344 Y117.359 I-6.268 J-10.528 E.11249
G1 F2306.705
G3 X126.567 Y117.853 I-4.269 J-11.934 E.09246
G1 F2297.17
G1 X125.961 Y117.954 E.03077
G1 F2302.707
G1 X125.351 Y118.023 E.03075
G1 F2309.373
G3 X124.153 Y118.065 I-1.069 J-13.365 E.06006
G1 F2314.671
G1 X123.614 Y118.042 E.02702
G1 F2315.373
G1 X123.003 Y117.989 E.03072
G1 F2310.015
G3 X121.793 Y117.786 I1.741 J-14.122 E.06147
G1 F2315.107
G1 X121.075 Y117.604 E.0371
G1 F2307.372
G3 X118.291 Y116.393 I3.268 J-11.323 E.15249
G1 F2325.3
G1 X117.774 Y116.064 E.03069
G1 F2318.679
G1 X117.27 Y115.704 E.03102
G1 F2308.903
G3 X116.039 Y114.634 I7.698 J-10.092 E.08175
G1 F2316.282
G1 X115.613 Y114.185 E.031
G1 F2304.546
G1 X115.188 Y113.677 E.03317
M204 S1000
;WIPE_START
G1 F8640
G1 X115.131 Y113.608 E-.02067
G1 X114.788 Y113.15 E-.13212
G1 X114.445 Y112.641 E-.14172
G1 X114.067 Y112.005 E-.17083
G1 X113.797 Y111.494 E-.13345
G1 X113.537 Y110.925 E-.14445
G3 X113.445 Y110.697 I13.156 J-5.435 E-.05676
;WIPE_END
G1 Z.75 F720
G1 X114.193 Y113.371 F10800
G1 Z.35 F720
G1 E.8 F1500
M204 S800
G1 F2162.353
G1 X113.924 Y112.973 E.02406
G1 F2172.129
G1 X113.529 Y112.309 E.0387
G1 F2160.849
G1 X113.24 Y111.763 E.03094
G1 F2169.404
G1 X112.969 Y111.166 E.03284
G1 F2185.699
G3 X112.527 Y109.952 I13.847 J-5.727 E.06473
G1 F2174.141
G1 X112.354 Y109.33 E.03234
G1 F2165.691
G1 X112.214 Y108.699 E.03237
G1 F2174.141
G1 X112.108 Y108.062 E.03234
G1 F2184.742
G3 X111.99 Y106.157 I12.879 J-1.749 E.09568
G1 F2190.277
G1 X112.015 Y105.591 E.02838
G1 F2195.563
G1 X112.071 Y104.947 E.03238
G1 F2168.821
G1 X112.182 Y104.183 E.03867
G1 F2162.987
G1 X112.301 Y103.577 E.03093
G1 F2176.375
G1 X112.466 Y102.942 E.03286
G1 F2185.512
G3 X112.886 Y101.721 I14.364 J4.263 E.06469
G1 F2192.321
G1 X113.144 Y101.128 E.03239
G1 F2200.897
G1 X113.432 Y100.55 E.03234
G1 F2180.217
G1 X113.752 Y99.984 E.03257
G1 F2161.403
G1 X114.342 Y99.093 E.05352
G1 F2182.97
G3 X115.605 Y97.614 I10.759 J7.91 E.0975
G1 F2162.381
G1 X116.18 Y97.079 E.03934
G1 F2169.337
G1 X116.649 Y96.688 E.03058
G1 F2183.469
G3 X117.7 Y95.938 I9.215 J11.807 E.06469
G1 F2196.168
G3 X118.824 Y95.302 I7.931 J12.707 E.06471
G1 F2168.222
G1 X119.526 Y94.979 E.0387
G1 F2161.597
G3 X120.721 Y94.541 I5.165 J12.25 E.06377
G1 F2174.997
G1 X121.344 Y94.369 E.03237
G1 F2185.496
G1 X121.974 Y94.229 E.03232
G1 F2173.5
G3 X123.254 Y94.049 I2.724 J14.735 E.06476
G1 F2201.8
G1 X123.903 Y94.009 E.03257
G1 F2188.729
G1 X124.682 Y94.01 E.03902
G1 F2186.309
G1 X125.297 Y94.044 E.03085
G1 F2174.471
G1 X125.94 Y94.112 E.03239
G1 F2166.031
G1 X126.578 Y94.213 E.03235
G1 F2174.472
G1 X127.21 Y94.347 E.03236
G1 F2190.341
G1 X127.731 Y94.481 E.02694
G1 F2184.352
G1 X128.244 Y94.644 E.02696
G1 F2175.5
G1 X128.969 Y94.911 E.0387
G1 F2169.74
G3 X131.231 Y96.112 I-4.677 J11.541 E.1285
G1 F2186.999
G1 X131.76 Y96.489 E.03254
G1 F2179.525
G1 X132.175 Y96.817 E.02649
G1 F2172.868
G3 X133.057 Y97.617 I-9.504 J11.359 E.05966
G1 F2187.092
G1 X133.504 Y98.088 E.03252
G1 F2178.582
G1 X134.004 Y98.686 E.03904
G1 X134.374 Y99.179 E.03087
G1 F2175.547
G3 X135.13 Y100.379 I-12.534 J8.742 E.07106
G1 F2183.554
G3 X135.69 Y101.522 I-11.643 J6.417 E.06378
G1 F2163.276
G1 X135.927 Y102.123 E.03236
G1 F2154.653
G1 X136.132 Y102.735 E.03233
G1 F2163.277
G1 X136.305 Y103.358 E.03238
G1 F2191.444
G1 X136.445 Y103.989 E.03237
G1 F2166.881
G1 X136.551 Y104.626 E.03234
G1 F2158.314
G1 X136.625 Y105.268 E.03237
G1 F2167.098
G1 X136.665 Y105.923 E.03287
G1 F2183.18
G1 X136.669 Y106.531 E.03045
G1 F2182.689
G1 X136.644 Y107.097 E.02838
G1 F2164.031
G1 X136.588 Y107.741 E.03238
G1 F2155.42
G1 X136.477 Y108.505 E.03867
G1 F2157.137
G1 X136.358 Y109.111 E.03093
G1 F2165.75
G1 X136.193 Y109.746 E.03286
G1 F2186.383
G1 X135.999 Y110.362 E.03235
G1 F2178.129
G3 X135.515 Y111.56 I-14.122 J-5.009 E.06474
G1 F2186.817
G1 X135.227 Y112.138 E.03234
G1 F2161.903
G1 X134.907 Y112.704 E.03257
G1 F2153.314
G1 X134.618 Y113.161 E.02708
G1 F2159.089
G1 X134.317 Y113.595 E.02645
G1 F2176.86
G1 X133.921 Y114.111 E.03258
G1 F2163.856
G1 X133.501 Y114.602 E.03236
G1 F2155.242
G1 X133.054 Y115.074 E.03256
G1 F2161.494
G1 X132.663 Y115.447 E.02707
G1 F2182.579
G1 X132.266 Y115.796 E.02648
G1 F2176.824
G1 X131.757 Y116.201 E.03258
G1 F2157.833
G1 X131.231 Y116.576 E.03236
G1 F2149.124
G1 X130.686 Y116.923 E.03236
G1 F2157.836
G1 X130.124 Y117.241 E.03234
G1 F2162.682
G1 X129.542 Y117.531 E.03257
G1 F2154.107
G1 X129.047 Y117.749 E.02709
G1 F2159.873
G1 X128.555 Y117.94 E.02643
G1 F2176.833
G3 X126.684 Y118.459 I-4.491 J-12.557 E.09734
G1 F2164.149
G1 X126.047 Y118.566 E.03235
G1 F2172.623
G1 X125.405 Y118.639 E.03236
G1 F2180.381
G3 X124.142 Y118.683 I-1.124 J-14.081 E.06332
G1 F2188.266
G1 X123.576 Y118.659 E.02837
G1 F2189.511
G1 X122.933 Y118.602 E.03233
G1 F2181.312
G3 X121.659 Y118.389 I1.833 J-14.866 E.06472
G1 F2188.773
G1 X120.91 Y118.199 E.0387
G1 F2177.798
G3 X119.706 Y117.787 I3.696 J-12.77 E.06376
G1 F2171.47
G3 X118.535 Y117.241 I5.741 J-13.84 E.06473
G1 F2178.233
G1 X117.973 Y116.923 E.03234
G1 F2202.171
G1 X117.428 Y116.576 E.03236
G1 F2192.795
G1 X116.899 Y116.198 E.03257
G1 F2179.799
G3 X115.602 Y115.071 I8.111 J-10.635 E.08612
G1 F2189.67
G1 X115.155 Y114.599 E.03256
G1 F2175.731
G1 X114.655 Y114.002 E.039
G1 F2163.83
G1 X114.285 Y113.508 E.03091
G1 F2162.353
G1 X114.243 Y113.446 E.00375
M204 S1000
;WIPE_START
G1 F8640
G1 X114.193 Y113.371 E-.02081
G1 X113.924 Y112.973 E-.11092
G1 X113.529 Y112.309 E-.1784
G1 X113.24 Y111.763 E-.14264
G1 X112.969 Y111.166 E-.15139
G3 X112.667 Y110.374 I13.845 J-5.732 E-.19584
;WIPE_END
G1 Z.75 F720
G1 X113.291 Y113.117 F10800
G1 Z.35 F720
G1 E.8 F1500
M204 S800
G1 F2027.055
G1 X112.991 Y112.613 E.02938
G1 F2008.042
G1 X112.684 Y112.031 E.03296
G1 F2022.326
G1 X112.4 Y111.408 E.03429
G1 F2039.843
G1 X112.151 Y110.777 E.03398
G1 F2045.206
G1 X111.936 Y110.133 E.03401
G1 F2028.333
G1 X111.754 Y109.479 E.034
G1 F2014.162
G1 X111.608 Y108.817 E.03395
G1 F2028.334
G1 X111.496 Y108.148 E.03397
G1 F2038.615
G3 X111.373 Y106.146 I13.51 J-1.835 E.10055
G1 F2047.53
G1 X111.398 Y105.553 E.02973
G1 F2055.766
G1 X111.457 Y104.877 E.03399
G1 F2024.484
G1 X111.552 Y104.206 E.03394
G1 F2010.271
G1 X111.654 Y103.65 E.02831
G1 F2020.598
G1 X111.787 Y103.1 E.02834
G1 F2041.758
G3 X112.194 Y101.807 I15.192 J4.079 E.06792
G1 F2048.416
G1 X112.448 Y101.178 E.03398
G1 F2059.424
G1 X112.735 Y100.563 E.03399
G1 F2047.641
G1 X113.072 Y99.932 E.03583
G1 F2020.417
G1 X113.388 Y99.403 E.03086
G1 F2008.546
G1 X113.673 Y98.974 E.0258
G1 F2021.405
G1 X114.051 Y98.457 E.03208
G1 F2037.302
G1 X114.478 Y97.93 E.03397
G1 F2047.923
G1 X114.957 Y97.399 E.03582
G1 F2020.904
G1 X115.392 Y96.963 E.03085
G1 F2009.039
