; generated by PrusaSlicer 2.9.0 on 2025-01-11 at 00:39:03 UTC


;
;
; 

; external perimeters extrusion width = 1.00mm
; perimeters extrusion width = 0.45mm
; infill extrusion width = 0.45mm
; solid infill extrusion width = 0.45mm
; top infill extrusion width = 0.40mm
; first layer extrusion width = 1.00mm

; external perimeters extrusion width = 1.00mm
; perimeters extrusion width = 0.45mm
; infill extrusion width = 0.45mm
; solid infill extrusion width = 0.45mm
; top infill extrusion width = 0.40mm
; first layer extrusion width = 1.00mm

; external perimeters extrusion width = 1.00mm
; perimeters extrusion width = 0.45mm
; infill extrusion width = 0.45mm
; solid infill extrusion width = 0.45mm
; top infill extrusion width = 0.40mm
; first layer extrusion width = 1.00mm

; external perimeters extrusion width = 1.00mm
; perimeters extrusion width = 0.45mm
; infill extrusion width = 0.45mm
; solid infill extrusion width = 0.45mm
; top infill extrusion width = 0.40mm
; first layer extrusion width = 1.00mm

; external perimeters extrusion width = 1.00mm
; perimeters extrusion width = 0.45mm
; infill extrusion width = 0.45mm
; solid infill extrusion width = 0.45mm
; top infill extrusion width = 0.40mm
; first layer extrusion width = 1.00mm

; external perimeters extrusion width = 1.00mm
; perimeters extrusion width = 0.45mm
; infill extrusion width = 0.45mm
; solid infill extrusion width = 0.45mm
; top infill extrusion width = 0.40mm
; first layer extrusion width = 1.00mm

; external perimeters extrusion width = 1.00mm
; perimeters extrusion width = 0.45mm
; infill extrusion width = 0.45mm
; solid infill extrusion width = 0.45mm
; top infill extrusion width = 0.40mm
; first layer extrusion width = 1.00mm

; external perimeters extrusion width = 1.00mm
; perimeters extrusion width = 0.45mm
; infill extrusion width = 0.45mm
; solid infill extrusion width = 0.45mm
; top infill extrusion width = 0.40mm
; first layer extrusion width = 1.00mm

; external perimeters extrusion width = 1.00mm
; perimeters extrusion width = 0.45mm
; infill extrusion width = 0.45mm
; solid infill extrusion width = 0.45mm
; top infill extrusion width = 0.40mm
; first layer extrusion width = 1.00mm

M73 P0 R67
M73 C32
M73 Q0 S68
M73 D32
M201 X1000 Y1000 Z200 E5000 ; sets maximum accelerations, mm/sec^2
M203 X200 Y200 Z12 E120 ; sets maximum feedrates, mm / sec
M204 S1250 T1250 ; sets acceleration (S) and retract acceleration (R), mm/sec^2
M205 X8.00 Y8.00 Z0.40 E4.50 ; sets the jerk limits, mm/sec
M205 S0 T0 ; sets the minimum extruding and travel feed rate, mm/sec

; printing object nested-rings.stl id:3 copy 0
; stop printing object nested-rings.stl id:3 copy 0
; printing object nested-rings.stl id:1 copy 0
; stop printing object nested-rings.stl id:1 copy 0
; printing object nested-rings.stl id:8 copy 0
; stop printing object nested-rings.stl id:8 copy 0
; printing object nested-rings.stl id:5 copy 0
; stop printing object nested-rings.stl id:5 copy 0
; printing object nested-rings.stl id:6 copy 0
; stop printing object nested-rings.stl id:6 copy 0
; printing object nested-rings.stl id:7 copy 0
; stop printing object nested-rings.stl id:7 copy 0
; printing object nested-rings.stl id:2 copy 0
; stop printing object nested-rings.stl id:2 copy 0
; printing object nested-rings.stl id:4 copy 0
; stop printing object nested-rings.stl id:4 copy 0
; printing object nested-rings.stl id:0 copy 0
; stop printing object nested-rings.stl id:0 copy 0

;TYPE:Custom
M862.3 P "MK3S" ; printer model check
M862.1 P0.4 ; nozzle diameter check
M115 U3.13.3 ; tell printer latest fw version
G90 ; use absolute coordinates
M83 ; extruder relative mode
M104 S215 ; set extruder temp
M140 S60 ; set bed temp
M190 S60 ; wait for bed temp
M109 S215 ; wait for extruder temp
G28 W ; home all without mesh bed level
G80 X62.412 Y42.412 W125.176 H125.176 ; mesh bed levelling

G1 Z0.2 F720
G1 Y-3 F1000 ; go outside print area
G92 E0
G1 X60 E9 F1000 ; intro line
G1 X100 E12.5 F1000 ; intro line

G92 E0
M221 S95

; Don't change E values below. Excessive value can damage the printer.
M907 E430 ; set extruder motor current
G21 ; set units to millimeters
G90 ; use absolute coordinates
M83 ; use relative distances for extrusion

M900 K0.05 ; Filament gcode LA 1.5
M900 K30 ; Filament gcode LA 1.0




M107
;LAYER_CHANGE
;Z:0.2
;HEIGHT:0.2
G1 E-.8 F2100
M73 Q0 S67
G1 Z.6 F720
; printing object nested-rings.stl id:0 copy 0
G1 X186.638 Y147.254 F10800
G1 Z.2 F720
G1 E.8 F2100
M204 S800
;TYPE:External perimeter
;WIDTH:0.808166
G1 F1200
G3 X186.734 Y147.656 I-23.47 J5.806 E.0263
;WIDTH:0.802344
G3 X187.063 Y150.156 I-17 J3.511 E.15937
;WIDTH:0.80227
G1 X187.077 Y150.589 E.02735
;WIDTH:0.796838
G3 X186.641 Y154.766 I-16.082 J.431 E.26403
;WIDTH:0.807648
G3 X186.016 Y156.775 I-22.858 J-6.006 E.13383
;WIDTH:0.796828
G1 X185.693 Y157.553 E.05281
;WIDTH:0.807648
G3 X184.712 Y159.414 I-21.462 J-10.118 E.13381
;WIDTH:0.796862
G3 X174.733 Y166.646 I-13.733 J-8.449 E.79276
;WIDTH:0.791754
G1 X173.922 Y166.818 E.05162
;WIDTH:0.791576
G3 X171.412 Y167.077 I-2.977 J-16.536 E.15723
;WIDTH:0.796838
G3 X167.236 Y166.641 I-.431 J-16.082 E.26396
;WIDTH:0.807648
G3 X165.226 Y166.016 I6.005 J-22.858 E.13389
;WIDTH:0.79683
G1 X164.448 Y165.693 E.05281
;WIDTH:0.807884
G3 X162.575 Y164.705 I10.053 J-21.326 E.13474
;WIDTH:0.796862
G3 X155.355 Y154.733 I8.459 J-13.725 E.79191
M73 P0 R66
;WIDTH:0.791754
G1 X155.183 Y153.922 E.05162
;WIDTH:0.791576
G3 X154.924 Y151.412 I16.535 J-2.977 E.15723
;WIDTH:0.796838
G3 X155.361 Y147.236 I16.082 J-.431 E.26397
;WIDTH:0.807648
G3 X155.985 Y145.226 I22.857 J6.005 E.13387
;WIDTH:0.79683
G1 X156.308 Y144.448 E.05281
;WIDTH:0.807652
G3 X157.289 Y142.587 I21.462 J10.118 E.13382
;WIDTH:0.796844
G3 X166.846 Y135.459 I13.748 J8.464 E.76552
;WIDTH:0.802342
G3 X168.901 Y135.053 I5.017 J19.987 E.13233
;WIDTH:0.807914
G3 X170.603 Y134.918 I2.714 J23.432 E.10863
;WIDTH:0.796664
G1 X171.431 Y134.92 E.05189
;WIDTH:0.802342
G3 X175.164 Y135.464 I-.557 J16.889 E.23871
;WIDTH:0.807682
G3 X176.775 Y135.985 I-6.484 J22.784 E.10769
;WIDTH:0.79683
G3 X184.267 Y141.901 I-5.839 J15.096 E.60746
G3 X186.023 Y145.245 I-14.14 J9.559 E.23726
G1 X186.303 Y146.039 E.05278
;WIDTH:0.808166
G3 X186.623 Y147.196 I-23.135 J7.021 E.07639
M204 S1000
;WIPE_START
G1 F8640
G1 X186.638 Y147.254 E-.01383
G3 X186.734 Y147.656 I-23.468 J5.817 E-.09543
G3 X187.063 Y150.156 I-17 J3.509 E-.58275
G1 X187.077 Y150.589 E-.10003
G3 X187.078 Y150.623 I-16.082 J.43 E-.00796
;WIPE_END
G1 Z.6 F720
G1 X160.387 Y142.847 F10800
G1 Z.2 F720
G1 E.8 F2100
M204 S800
;WIDTH:0.796834
G1 F1200
G3 X164.014 Y139.581 I10.627 J8.156 E.30768
;WIDTH:0.805812
G3 X165.564 Y138.767 I9.919 J16.999 E.11109
;WIDTH:0.796842
G3 X167.545 Y138.067 I5.762 J13.163 E.13183
;WIDTH:0.801418
G3 X169.253 Y137.73 I4.171 J16.619 E.10985
;WIDTH:0.806036
G3 X170.672 Y137.618 I2.253 J19.443 E.09034
;WIDTH:0.796686
G1 X171.361 Y137.619 E.04318
;WIDTH:0.801418
G3 X173.094 Y137.78 I-.722 J17.118 E.10982
;WIDTH:0.806034
G3 X174.486 Y138.075 I-3.361 J19.279 E.09031
;WIDTH:0.79683
G3 X182.42 Y144.014 I-3.516 J12.967 E.6363
;WIDTH:0.80581
G3 X183.234 Y145.564 I-16.998 J9.918 E.11109
;WIDTH:0.796828
G3 X184.347 Y149.96 I-12.618 J5.534 E.28557
;WIDTH:0.79696
G1 X184.383 Y150.65 E.04332
G1 X184.383 Y150.66 E.00063
;WIDTH:0.796858
G3 X184.217 Y153.116 I-14.209 J.272 E.15451
;WIDTH:0.79259
G3 X183.924 Y154.474 I-14.897 J-2.503 E.08663
;WIDTH:0.796832
G3 X177.987 Y162.42 I-12.937 J-3.476 E.63696
;WIDTH:0.80581
G3 X176.437 Y163.234 I-9.919 J-16.999 E.11109
;WIDTH:0.796856
G3 X170.29 Y164.367 I-5.454 J-12.356 E.39543
;WIDTH:0.79259
G3 X167.528 Y163.924 I.766 J-13.636 E.17468
;WIDTH:0.796832
G3 X159.581 Y157.987 I3.475 J-12.937 E.63702
;WIDTH:0.805812
G3 X158.767 Y156.437 I16.999 J-9.919 E.11109
;WIDTH:0.796862
G3 X157.784 Y148.885 I12.301 J-5.441 E.48405
;WIDTH:0.792592
G3 X158.077 Y147.528 I14.897 J2.503 E.08657
;WIDTH:0.796834
G3 X160.351 Y142.894 I12.937 J3.475 E.32563
M204 S1000
;WIPE_START
G1 F8640
G1 X160.387 Y142.847 E-.01367
G3 X162.78 Y140.436 I10.627 J8.155 E-.78633
;WIPE_END
G1 Z.6 F720
G1 X166.905 Y160.868 F10800
G1 Z.2 F720
G1 E.8 F2100
M204 S800
;WIDTH:0.796838
G1 F1200
G3 X162.516 Y157.498 I4.099 J-9.882 E.35088
;WIDTH:0.800494
G3 X161.746 Y156.343 I10.969 J-8.141 E.08748
;WIDTH:0.803986
G1 X161.233 Y155.339 E.07135
;WIDTH:0.796828
G1 X161.02 Y154.821 E.03511
;WIDTH:0.800492
G3 X160.406 Y152.395 I10.514 J-3.949 E.15797
;WIDTH:0.80398
G1 X160.317 Y151.271 E.07135
;WIDTH:0.796862
G3 X160.45 Y149.309 I11.352 J-.216 E.12344
;WIDTH:0.793506
G3 X160.684 Y148.226 I11.878 J1.998 E.06918
;WIDTH:0.79684
G3 X164.503 Y142.516 I10.331 J2.778 E.4384
;WIDTH:0.800492
G3 X165.658 Y141.746 I8.141 J10.969 E.08748
;WIDTH:0.803986
G1 X166.663 Y141.233 E.07141
;WIDTH:0.79683
G1 X167.18 Y141.02 E.03505
;WIDTH:0.80049
G3 X169.606 Y140.406 I3.949 J10.514 E.15797
;WIDTH:0.804154
G3 X170.741 Y140.317 I1.792 J15.457 E.07208
;WIDTH:0.79671
G1 X171.29 Y140.318 E.03441
;WIDTH:0.800492
G3 X172.672 Y140.446 I-.576 J13.647 E.08747
;WIDTH:0.80398
G1 X173.776 Y140.68 E.07142
;WIDTH:0.796854
G3 X180.764 Y146.664 I-2.783 J10.323 E.59621
M73 C31
;WIDTH:0.796526
G1 X180.981 Y147.18 E.03508
;WIDTH:0.800492
G3 X181.391 Y148.506 I-12.877 J4.704 E.08747
;WIDTH:0.80398
G1 X181.598 Y149.615 E.07139
;WIDTH:0.796826
G1 X181.656 Y150.172 E.03511
;WIDTH:0.79696
G1 X181.684 Y150.721 E.03447
G1 X181.684 Y150.731 E.00063
;WIDTH:0.796856
G3 X181.551 Y152.692 I-11.351 J.215 E.12337
;WIDTH:0.7935
G3 X181.317 Y153.775 I-11.878 J-1.998 E.06918
;WIDTH:0.796836
G3 X177.498 Y159.485 I-10.331 J-2.778 E.4384
;WIDTH:0.800492
G3 X176.343 Y160.255 I-8.141 J-10.969 E.08748
;WIDTH:0.80398
G1 X175.339 Y160.768 E.07135
;WIDTH:0.796828
G1 X174.821 Y160.981 E.03511
;WIDTH:0.800492
G3 X172.395 Y161.595 I-3.949 J-10.514 E.15797
;WIDTH:0.80398
G1 X171.271 Y161.684 E.07135
;WIDTH:0.79686
G3 X169.309 Y161.551 I-.216 J-11.352 E.12344
;WIDTH:0.793502
G3 X168.226 Y161.317 I1.999 J-11.878 E.06918
;WIDTH:0.796838
G3 X166.96 Y160.891 I2.778 J-10.331 E.08379
M204 S1000
;WIPE_START
G1 F8640
G1 X166.905 Y160.868 E-.01377
G3 X164.018 Y159.089 I4.099 J-9.882 E-.78623
;WIPE_END
G1 Z.6 F720
G1 X176.013 Y157.202 F10800
G1 Z.2 F720
G1 E.8 F2100
M204 S800
;WIDTH:0.78609
G1 F1200
G1 X175.509 Y157.587 E.03919
;WIDTH:0.788406
G1 X174.975 Y157.924 E.03914
;WIDTH:0.791358
G1 X174.23 Y158.302 E.05199
;WIDTH:0.79178
G3 X172.845 Y158.766 I-3.626 J-8.532 E.09105
;WIDTH:0.786088
G3 X170.36 Y158.956 I-1.894 J-8.402 E.15455
;WIDTH:0.7883
G1 X169.724 Y158.88 E.0397
;WIDTH:0.79136
G3 X168.126 Y158.447 I1.612 J-9.098 E.10317
;WIDTH:0.788214
G1 X167.538 Y158.193 E.03969
;WIDTH:0.78832
G3 X166.126 Y157.322 I4.351 J-8.635 E.10295
;WIDTH:0.791546
G3 X164.919 Y156.169 I5.744 J-7.224 E.10405
;WIDTH:0.786092
G1 X164.414 Y155.509 E.05135
;WIDTH:0.7883
G1 X164.073 Y154.967 E.03969
;WIDTH:0.79136
G1 X163.699 Y154.23 E.05143
;WIDTH:0.79178
G3 X163.235 Y152.845 I8.532 J-3.626 E.09105
;WIDTH:0.786088
G3 X163.045 Y150.36 I8.402 J-1.894 E.15455
;WIDTH:0.7883
G1 X163.121 Y149.724 E.0397
;WIDTH:0.79136
G3 X163.556 Y148.122 I9.092 J1.611 E.10345
;WIDTH:0.78609
G1 X163.895 Y147.364 E.05131
;WIDTH:0.788322
G3 X164.679 Y146.126 I8.519 J4.525 E.09091
;WIDTH:0.791548
G3 X165.832 Y144.919 I7.224 J5.744 E.10405
;WIDTH:0.786092
G1 X166.492 Y144.415 E.05132
;WIDTH:0.788408
G1 X167.026 Y144.078 E.03914
;WIDTH:0.804404
G1 X167.56 Y143.796 E.03824
;WIDTH:0.807188
G3 X168.731 Y143.347 I4.249 J9.305 E.07975
;WIDTH:0.804214
G3 X170.374 Y143.041 I2.614 J9.477 E.10592
;WIDTH:0.806872
G3 X171.833 Y143.061 I.588 J10.37 E.09276
;WIDTH:0.804284
G1 X172.47 Y143.154 E.04075
;WIDTH:0.789012
G1 X173.094 Y143.298 E.03973
;WIDTH:0.786218
G1 X173.879 Y143.556 E.05107
;WIDTH:0.786088
G1 X174.637 Y143.895 E.05131
;WIDTH:0.788318
G3 X175.875 Y144.679 I-4.525 J8.519 E.09091
;WIDTH:0.791544
G3 X177.082 Y145.832 I-5.744 J7.224 E.10405
;WIDTH:0.78609
G1 X177.587 Y146.492 E.05135
;WIDTH:0.791364
G3 X178.3 Y147.772 I-7.582 J5.062 E.09128
;WIDTH:0.786096
G1 X178.596 Y148.548 E.05132
;WIDTH:0.788318
G1 X178.767 Y149.156 E.03915
;WIDTH:0.804282
G1 X178.886 Y149.754 E.0386
;WIDTH:0.807086
G1 X178.958 Y150.372 E.03953
G1 X178.98 Y150.811 E.02793
;WIDTH:0.78609
G1 X178.956 Y151.641 E.05131
;WIDTH:0.788298
G1 X178.88 Y152.277 E.0397
;WIDTH:0.79136
G3 X178.445 Y153.879 I-9.092 J-1.611 E.10345
;WIDTH:0.786088
G1 X178.106 Y154.637 E.05131
;WIDTH:0.788318
G3 X177.322 Y155.876 I-8.519 J-4.525 E.09096
;WIDTH:0.791544
G3 X176.169 Y157.082 I-7.224 J-5.745 E.104
;WIDTH:0.78609
G1 X176.06 Y157.166 E.0085
M204 S1000
;WIPE_START
G1 F8640
G1 X176.013 Y157.202 E-.01367
G1 X175.509 Y157.587 E-.14644
G1 X174.975 Y157.924 E-.1458
G1 X174.23 Y158.302 E-.1929
G3 X172.998 Y158.727 I-3.628 J-8.531 E-.30119
;WIPE_END
G1 Z.6 F720
; stop printing object nested-rings.stl id:0 copy 0
; printing object nested-rings.stl id:7 copy 0
G1 X140.535 Y146.847 F10800
G1 Z.2 F720
G1 E.8 F2100
M204 S800
;WIDTH:0.999656
G1 F1200
G3 X141.039 Y149.751 I-16.22 J4.308 E.23478
;WIDTH:0.99982
G1 X141.082 Y150.579 E.06597
G1 X141.082 Y150.592 E.00103
;WIDTH:0.99966
G3 X140.639 Y154.768 I-16.464 J.366 E.33499
;WIDTH:1.01042
G3 X140.014 Y156.777 I-22.75 J-5.975 E.16932
;WIDTH:0.999652
G1 X139.691 Y157.555 E.06701
;WIDTH:1.01063
G3 X138.703 Y159.427 I-21.257 J-10.019 E.17038
;WIDTH:0.99966
G3 X121.232 Y166.64 I-13.712 J-8.449 E1.60693
;WIDTH:1.01042
G3 X119.223 Y166.015 I5.976 J-22.751 E.16932
;WIDTH:0.999654
G1 X118.445 Y165.692 E.06701
;WIDTH:1.01063
G3 X116.573 Y164.704 I10.019 J-21.257 E.17038
;WIDTH:0.999662
G3 X109.361 Y147.233 I8.449 J-13.712 E1.6069
;WIDTH:1.01042
G3 X109.986 Y145.224 I22.75 J5.976 E.16932
;WIDTH:0.999656
G1 X110.309 Y144.446 E.06701
;WIDTH:1.01063
G3 X111.297 Y142.574 I21.257 J10.019 E.17038
;WIDTH:0.999662
G3 X120.849 Y135.459 I13.739 J8.475 E.97046
;WIDTH:1.00517
G3 X122.901 Y135.053 I5.007 J19.952 E.16744
;WIDTH:1.01067
G3 X124.604 Y134.918 I2.707 J23.355 E.1375
;WIDTH:0.999502
G1 X125.434 Y134.92 E.06602
;WIDTH:1.00516
G3 X129.163 Y135.464 I-.559 J16.877 E.30215
;WIDTH:1.01046
G3 X130.777 Y135.986 I-6.458 J22.699 E.1365
;WIDTH:0.999656
G3 X138.269 Y141.905 I-5.841 J15.095 E.77104
G3 X140.023 Y145.247 I-14.141 J9.554 E.30087
G3 X140.52 Y146.789 I-15.708 J5.908 E.12893
M204 S1000
;WIPE_START
G1 F8640
G1 X140.535 Y146.847 E-.01383
G3 X141.039 Y149.751 I-16.22 J4.311 E-.68144
G1 X141.062 Y150.204 E-.10473
;WIPE_END
G1 Z.6 F720
G1 X114.386 Y142.845 F10800
G1 Z.2 F720
G1 E.8 F2100
M204 S800
;WIDTH:0.999662
G1 F1200
G3 X121.547 Y138.067 I10.643 J8.195 E.69715
;WIDTH:1.00424
G3 X123.253 Y137.73 I4.162 J16.583 E.13906
;WIDTH:1.00879
G3 X124.673 Y137.618 I2.246 J19.366 E.11442
;WIDTH:0.999524
G1 X125.363 Y137.619 E.05488
;WIDTH:1.00424
G3 X127.094 Y137.78 I-.72 J17.083 E.13902
;WIDTH:1.00879
G3 X128.487 Y138.076 I-3.346 J19.204 E.1144
;WIDTH:0.999654
G3 X130.456 Y138.776 I-3.818 J13.856 E.16639
;WIDTH:1.00875
G3 X132.014 Y139.598 I-8.305 J17.622 E.14152
;WIDTH:0.999654
G3 X138.347 Y149.963 I-7.047 J11.423 E1.00274
;WIDTH:0.99982
G1 X138.383 Y150.65 E.05474
G1 X138.383 Y150.663 E.00103
;WIDTH:0.99969
G3 X138.217 Y153.117 I-14.219 J.269 E.19592
;WIDTH:0.995474
G3 X137.923 Y154.476 I-14.878 J-2.501 E.11017
;WIDTH:0.999654
G3 X137.225 Y156.457 I-13.065 J-3.494 E.16726
;WIDTH:1.00875
G3 X136.402 Y158.015 I-17.623 J-8.306 E.14155
;WIDTH:0.999654
G3 X119.544 Y163.225 I-11.407 J-7.03 E1.53224
;WIDTH:1.00875
G3 X117.986 Y162.403 I8.305 J-17.622 E.14152
;WIDTH:0.999694
G3 X111.783 Y148.884 I7.03 J-11.408 E1.25447
;WIDTH:0.995476
G3 X112.077 Y147.525 I14.878 J2.501 E.11017
;WIDTH:0.999654
G3 X112.775 Y145.544 I13.065 J3.494 E.16726
;WIDTH:1.00875
G3 X113.598 Y143.986 I17.623 J8.306 E.14155
;WIDTH:0.999662
G3 X114.35 Y142.892 I11.431 J7.054 E.10565
M204 S1000
;WIPE_START
G1 F8640
G1 X114.386 Y142.845 E-.01367
G3 X116.782 Y140.438 I10.643 J8.195 E-.78633
;WIPE_END
G1 Z.6 F720
G1 X120.903 Y160.867 F10800
G1 Z.2 F720
G1 E.8 F2100
M204 S800
;WIDTH:0.99966
G1 F1200
G3 X116.514 Y157.496 I4.1 J-9.88 E.44532
;WIDTH:1.00332
