; generated by PrusaSlicer 2.9.0 on 2025-01-11 at 00:42:05 UTC


;
;
; 

; external perimeters extrusion width = 1.00mm
; perimeters extrusion width = 0.45mm
; infill extrusion width = 0.45mm
; solid infill extrusion width = 0.45mm
; top infill extrusion width = 0.40mm
; first layer extrusion width = 1.00mm

M73 P0 R7
M73 Q0 S7
M201 X1000 Y1000 Z200 E5000 ; sets maximum accelerations, mm/sec^2
M203 X200 Y200 Z12 E120 ; sets maximum feedrates, mm / sec
M204 S1250 T1250 ; sets acceleration (S) and retract acceleration (R), mm/sec^2
M205 X8.00 Y8.00 Z0.40 E4.50 ; sets the jerk limits, mm/sec
M205 S0 T0 ; sets the minimum extruding and travel feed rate, mm/sec

; printing object nested-rings.stl id:0 copy 0
; stop printing object nested-rings.stl id:0 copy 0

;TYPE:Custom
M862.3 P "MK3S" ; printer model check
M862.1 P0.4 ; nozzle diameter check
M115 U3.13.3 ; tell printer latest fw version
G90 ; use absolute coordinates
M83 ; extruder relative mode
M104 S215 ; set extruder temp
M140 S60 ; set bed temp
M190 S60 ; wait for bed temp
M109 S215 ; wait for extruder temp
G28 W ; home all without mesh bed level
G80 X108.413 Y88.4125 W33.175 H33.175 ; mesh bed levelling

G1 Z0.2 F720
G1 Y-3 F1000 ; go outside print area
G92 E0
G1 X60 E9 F1000 ; intro line
G1 X100 E12.5 F1000 ; intro line

G92 E0
M221 S95

; Don't change E values below. Excessive value can damage the printer.
M907 E430 ; set extruder motor current
G21 ; set units to millimeters
G90 ; use absolute coordinates
M83 ; use relative distances for extrusion

M900 K0.05 ; Filament gcode LA 1.5
M900 K30 ; Filament gcode LA 1.0




M107
;LAYER_CHANGE
;Z:0.2
;HEIGHT:0.2
G1 E-.8 F2100
M73 P1 R7
M73 Q1 S7
G1 Z.6 F720
; printing object nested-rings.stl id:0 copy 0
G1 X140.535 Y100.847 F10800
G1 Z.2 F720
G1 E.8 F2100
M204 S800
;TYPE:External perimeter
;WIDTH:0.999656
G1 F1200
G3 X141.039 Y103.75 I-16.22 J4.307 E.2347
;WIDTH:0.99982
G1 X141.082 Y104.579 E.06605
G1 X141.082 Y104.591 E.00095
;WIDTH:0.99966
G3 X140.639 Y108.768 I-16.464 J.367 E.33507
;WIDTH:1.01042
G3 X140.014 Y110.777 I-22.75 J-5.976 E.16932
;WIDTH:0.999652
G1 X139.691 Y111.555 E.06701
;WIDTH:1.01063
G3 X138.703 Y113.427 I-21.257 J-10.02 E.17038
;WIDTH:0.99966
G3 X121.232 Y120.639 I-13.712 J-8.449 E1.60689
M73 Q2 S7
;WIDTH:1.01042
G3 X119.223 Y120.014 I5.976 J-22.75 E.16932
;WIDTH:0.999654
G1 X118.445 Y119.691 E.06701
;WIDTH:1.01063
G3 X116.573 Y118.703 I10.019 J-21.256 E.17038
M73 P2 R7
;WIDTH:0.999662
G3 X109.361 Y101.232 I8.449 J-13.712 E1.6069
;WIDTH:1.01042
G3 X109.986 Y99.223 I22.75 J5.976 E.16932
;WIDTH:0.999656
G1 X110.309 Y98.445 E.06701
;WIDTH:1.01063
G3 X111.297 Y96.573 I21.257 J10.02 E.17038
;WIDTH:0.999662
G3 X120.849 Y89.458 I13.739 J8.475 E.97046
;WIDTH:1.00517
G3 X122.901 Y89.053 I5.007 J19.952 E.16742
;WIDTH:1.01067
G3 X124.604 Y88.918 I2.707 J23.355 E.1375
;WIDTH:0.999502
G1 X125.434 Y88.919 E.06602
;WIDTH:1.00516
G3 X129.163 Y89.463 I-.559 J16.878 E.30215
;WIDTH:1.01046
G3 X130.777 Y89.986 I-6.458 J22.699 E.13653
;WIDTH:0.999656
G3 X138.269 Y95.904 I-5.841 J15.094 E.77099
G3 X140.023 Y99.247 I-14.141 J9.555 E.30094
G3 X140.52 Y100.789 I-15.708 J5.907 E.12893
M204 S1000
;WIPE_START
G1 F8640
G1 X140.535 Y100.847 E-.01383
G3 X141.039 Y103.75 I-16.219 J4.311 E-.68121
G1 X141.062 Y104.204 E-.10496
;WIPE_END
G1 Z.6 F720
G1 X114.386 Y96.844 F10800
G1 Z.2 F720
G1 E.8 F2100
M204 S800
;WIDTH:0.999662
G1 F1200
G3 X121.547 Y92.066 I10.643 J8.196 E.69715
M73 Q3 S7
;WIDTH:1.00424
G3 X123.253 Y91.729 I4.162 J16.584 E.13906
;WIDTH:1.00879
G3 X124.673 Y91.617 I2.246 J19.366 E.11442
;WIDTH:0.999524
G1 X125.363 Y91.618 E.05488
;WIDTH:1.00424
G3 X127.094 Y91.78 I-.72 J17.083 E.13903
M73 P3 R7
;WIDTH:1.00879
G3 X128.487 Y92.075 I-3.346 J19.203 E.11438
;WIDTH:0.999654
G3 X130.456 Y92.775 I-3.818 J13.856 E.16639
;WIDTH:1.00875
G3 X132.014 Y93.598 I-8.305 J17.623 E.14155
;WIDTH:0.999654
G3 X138.347 Y103.962 I-7.047 J11.422 E1.00267
;WIDTH:0.99982
G1 X138.383 Y104.65 E.05482
G1 X138.383 Y104.662 E.00095
;WIDTH:0.99969
G3 X138.217 Y107.117 I-14.219 J.269 E.196
;WIDTH:0.995474
G3 X137.923 Y108.476 I-14.878 J-2.501 E.11017
;WIDTH:0.999654
G3 X137.225 Y110.456 I-13.065 J-3.495 E.16718
;WIDTH:1.00875
G3 X136.402 Y112.014 I-17.623 J-8.305 E.14155
;WIDTH:0.999654
G3 X119.544 Y117.225 I-11.407 J-7.029 E1.53227
;WIDTH:1.00875
G3 X117.986 Y116.402 I8.305 J-17.623 E.14155
;WIDTH:0.999694
G3 X111.783 Y102.883 I7.03 J-11.407 E1.25447
;WIDTH:0.995476
G3 X112.077 Y101.524 I14.878 J2.501 E.11017
;WIDTH:0.999654
G3 X112.775 Y99.544 I13.065 J3.495 E.16718
;WIDTH:1.00875
G3 X113.598 Y97.986 I17.623 J8.305 E.14155
;WIDTH:0.999662
G3 X114.35 Y96.892 I11.431 J7.054 E.10565
M204 S1000
;WIPE_START
G1 F8640
G1 X114.386 Y96.844 E-.01385
G3 X116.781 Y94.437 I10.642 J8.196 E-.78615
;WIPE_END
G1 Z.6 F720
G1 X120.903 Y114.867 F10800
G1 Z.2 F720
G1 E.8 F2100
M204 S800
;WIDTH:0.99966
G1 F1200
G3 X116.514 Y111.496 I4.1 J-9.881 E.44532
M73 Q4 S7
;WIDTH:1.00332
G3 X115.746 Y110.343 I10.941 J-8.122 E.11068
;WIDTH:1.00677
G1 X115.232 Y109.336 E.09061
;WIDTH:0.999654
G1 X115.018 Y108.818 E.04459
M73 P4 R7
;WIDTH:1.00332
G3 X114.61 Y107.495 I12.857 J-4.695 E.11061
;WIDTH:1.00676
G1 X114.403 Y106.383 E.09065
;WIDTH:0.999694
G3 X114.449 Y103.307 I10.775 J-1.374 E.24557
;WIDTH:0.996386
G3 X114.684 Y102.223 I11.859 J1.997 E.08797
;WIDTH:0.999662
G3 X118.504 Y96.514 I10.33 J2.78 E.55632
;WIDTH:1.00332
G3 X119.657 Y95.746 I8.121 J10.941 E.11068
;WIDTH:1.00677
G1 X120.664 Y95.232 E.09061
;WIDTH:0.999654
G1 X121.182 Y95.018 E.04459
;WIDTH:1.00332
G3 X123.605 Y94.406 I3.945 J10.508 E.19999
;WIDTH:1.00691
G3 X124.742 Y94.316 I1.785 J15.379 E.09144
;WIDTH:0.999546
G1 X125.292 Y94.317 E.04375
;WIDTH:1.00332
G3 X126.672 Y94.446 I-.574 J13.614 E.11073
;WIDTH:1.00691
G3 X127.787 Y94.683 I-2.657 J15.253 E.09139
;WIDTH:0.99969
G3 X134.765 Y100.666 I-2.794 J10.319 E.75589
;WIDTH:0.999274
G1 X134.982 Y101.182 E.04451
;WIDTH:1.00332
G3 X135.39 Y102.505 I-12.856 J4.695 E.11061
;WIDTH:1.00676
G1 X135.597 Y103.617 E.09065
;WIDTH:0.999654
G1 X135.655 Y104.174 E.04455
;WIDTH:0.99982
G1 X135.684 Y104.72 E.0435
G1 X135.684 Y104.733 E.00103
;WIDTH:0.99969
G3 X135.551 Y106.693 I-11.361 J.212 E.15648
;WIDTH:0.996384
G3 X135.316 Y107.777 I-11.859 J-1.997 E.08797
;WIDTH:0.99966
G3 X131.496 Y113.486 I-10.33 J-2.78 E.55632
;WIDTH:1.00332
G3 X130.343 Y114.254 I-8.121 J-10.941 E.11068
;WIDTH:1.00676
G1 X129.336 Y114.768 E.09061
;WIDTH:0.999654
G1 X128.818 Y114.982 E.04459
;WIDTH:1.00332
G3 X127.495 Y115.39 I-4.695 J-12.856 E.11061
;WIDTH:1.00676
G1 X126.383 Y115.597 E.09065
;WIDTH:0.999692
G3 X123.307 Y115.551 I-1.374 J-10.775 E.24557
;WIDTH:0.996384
G3 X122.223 Y115.316 I1.997 J-11.859 E.08797
;WIDTH:0.99966
G3 X120.959 Y114.89 I2.78 J-10.33 E.10618
M204 S1000
;WIPE_START
G1 F8640
G1 X120.903 Y114.867 E-.01398
G3 X118.017 Y113.088 I4.1 J-9.88 E-.78602
;WIPE_END
G1 Z.6 F720
G1 X130.173 Y111.071 F10800
G1 Z.2 F720
G1 E.8 F2100
M204 S800
;WIDTH:0.988984
G1 F1200
G3 X129.505 Y111.588 I-5.419 J-6.306 E.06648
;WIDTH:0.99108
G1 X128.963 Y111.929 E.05048
;WIDTH:1.00695
G1 X128.441 Y112.204 E.04729
;WIDTH:1.00986
G3 X127.271 Y112.654 I-4.248 J-9.302 E.10085
;WIDTH:1.00692
G1 X126.642 Y112.813 E.052
;WIDTH:0.99193
G1 X126.017 Y112.916 E.04998
;WIDTH:0.988984
G3 X124.355 Y112.955 I-1.058 J-9.639 E.13094
;WIDTH:0.99108
G1 X123.719 Y112.879 E.0505
;WIDTH:0.994186
G3 X122.122 Y112.445 I1.618 J-9.103 E.13108
;WIDTH:0.994446
G3 X120.809 Y111.792 I3.373 J-8.44 E.11615
;WIDTH:0.988986
G3 X118.412 Y109.505 I4.426 J-7.038 E.26238
;WIDTH:0.99108
G1 X118.071 Y108.963 E.05048
;WIDTH:1.00696
G1 X117.796 Y108.441 E.04729
;WIDTH:1.00986
G3 X117.346 Y107.271 I9.302 J-4.248 E.10085
M73 Q5 S7
;WIDTH:1.00692
G1 X117.187 Y106.642 E.052
;WIDTH:0.99193
G1 X117.084 Y106.017 E.04998
;WIDTH:0.988984
G3 X117.045 Y104.355 I9.639 J-1.058 E.13094
;WIDTH:0.99108
G1 X117.121 Y103.719 E.0505
;WIDTH:0.994186
G3 X117.555 Y102.122 I9.103 J1.618 E.13108
;WIDTH:0.994448
G3 X118.208 Y100.809 I8.44 J3.373 E.11615
M73 P5 R7
;WIDTH:0.988988
G3 X120.495 Y98.412 I7.038 J4.426 E.26238
;WIDTH:0.991082
G1 X121.037 Y98.071 E.05048
;WIDTH:1.00695
G1 X121.559 Y97.796 E.04729
;WIDTH:1.00986
G3 X122.729 Y97.346 I4.248 J9.302 E.10085
;WIDTH:1.00683
G3 X124.374 Y97.04 I2.616 J9.478 E.13427
;WIDTH:1.0095
G3 X125.831 Y97.06 I.587 J10.379 E.11721
;WIDTH:1.00692
G1 X126.66 Y97.19 E.06726
;WIDTH:1.00942
G3 X128.251 Y97.707 I-2.368 J9.989 E.13459
;WIDTH:1.00959
G3 X132.111 Y101.373 I-3.353 J7.395 E.43595
;WIDTH:1.00974
G3 X132.654 Y102.729 I-9.078 J4.423 E.11753
;WIDTH:1.00683
G3 X132.96 Y104.374 I-9.485 J2.617 E.13427
;WIDTH:1.00439
G1 X132.979 Y104.816 E.03537
;WIDTH:0.98899
G1 X132.955 Y105.645 E.06524
;WIDTH:0.991078
G1 X132.879 Y106.281 E.0505
;WIDTH:0.994182
G3 X132.445 Y107.878 I-9.103 J-1.618 E.13108
;WIDTH:0.994444
G3 X131.792 Y109.191 I-8.44 J-3.373 E.11615
;WIDTH:0.988984
G3 X130.219 Y111.032 I-7.038 J-4.426 E.19117
M204 S1000
M106 S84.15
;LAYER_CHANGE
;Z:0.5
;HEIGHT:0.3
;BEFORE_LAYER_CHANGE
G92 E0.0
;0.5


;WIPE_START
G1 F8640
G1 X130.173 Y111.071 E-.01393
G3 X129.505 Y111.588 I-5.416 J-6.308 E-.19513
G1 X128.963 Y111.929 E-.14786
G1 X128.441 Y112.204 E-.13623
G3 X127.271 Y112.654 I-4.249 J-9.301 E-.28963
G1 X127.199 Y112.672 E-.01722
;WIPE_END
G1 Z.5 F720
;AFTER_LAYER_CHANGE
;0.5
M104 S210 ; set temperature
G1 Z.9
G1 X140.746 Y100.768 F10800
G1 Z.5 F720
G1 E.8 F2100
M204 S800
;WIDTH:0.999655
G1 F1500
G3 X140.752 Y100.792 I-15.849 J4.29 E.00289
;WIDTH:1.00515
G1 X141.031 Y102.032 E.14914
G1 X141.164 Y102.872 E.09979
;WIDTH:1.01061
G1 X141.251 Y103.721 E.10072
G1 X141.301 Y104.573 E.10073
;WIDTH:0.999813
G1 X141.301 Y104.585 E.0014
;WIDTH:0.999659
G3 X140.851 Y108.818 I-16.633 J.375 E.49794
;WIDTH:1.01057
G1 X140.502 Y110.041 E.15009
G1 X140.219 Y110.855 E.1017
;WIDTH:0.999656
G3 X138.184 Y114.594 I-15.582 J-6.054 E.49793
;WIDTH:1.01057
G3 X136.82 Y116.233 I-19.08 J-14.503 E.25173
;WIDTH:0.999656
G3 X129.208 Y120.752 I-11.878 J-11.336 E1.04558
;WIDTH:1.00515
G1 X127.968 Y121.031 E.14914
G1 X127.128 Y121.164 E.09979
;WIDTH:1.01061
G1 X126.279 Y121.251 E.10072
G1 X125.415 Y121.301 E.10214
;WIDTH:0.999659
G3 X121.182 Y120.851 I-.375 J-16.633 E.49794
;WIDTH:1.01057
G1 X119.959 Y120.502 E.15009
G1 X119.145 Y120.219 E.1017
;WIDTH:0.999656
G3 X115.406 Y118.184 I6.054 J-15.583 E.49793
;WIDTH:1.01057
G3 X113.767 Y116.82 I14.503 J-19.08 E.25173
;WIDTH:0.999656
G3 X109.248 Y109.208 I11.336 J-11.878 E1.04558
;WIDTH:1.00515
G1 X108.969 Y107.968 E.14914
G1 X108.836 Y107.128 E.09979
;WIDTH:1.01061
G1 X108.749 Y106.279 E.10072
G1 X108.699 Y105.415 E.10214
;WIDTH:0.999659
G3 X109.149 Y101.182 I16.633 J-.375 E.49794
M73 Q6 S7
;WIDTH:1.01057
G1 X109.498 Y99.959 E.15009
G1 X109.781 Y99.145 E.1017
;WIDTH:0.999659
G3 X111.816 Y95.406 I15.583 J6.054 E.49793
M73 P6 R7
;WIDTH:1.01057
G3 X113.18 Y93.767 I19.08 J14.503 E.25173
;WIDTH:0.999656
G3 X120.792 Y89.248 I11.878 J11.336 E1.04558
;WIDTH:1.00515
G1 X122.032 Y88.969 E.14914
G1 X122.872 Y88.836 E.09979
;WIDTH:1.01133
G1 X123.721 Y88.75 E.10079
G1 X124.629 Y88.699 E.10741
;WIDTH:0.999141
G1 X125.439 Y88.701 E.09444
;WIDTH:1.00515
G1 X126.708 Y88.786 E.14924
G3 X129.22 Y89.252 I-1.942 J17.476 E.30005
;WIDTH:1.01061
G1 X130.037 Y89.497 E.10066
G1 X130.855 Y89.781 E.10219
;WIDTH:0.999656
G3 X134.594 Y91.816 I-6.054 J15.582 E.49793
;WIDTH:1.01057
G3 X136.233 Y93.18 I-14.503 J19.08 E.25173
;WIDTH:0.999655
G3 X140.73 Y100.711 I-11.336 J11.878 E1.03579
M204 S1000
;WIPE_START
G1 F8640
G1 X140.746 Y100.768 E-.01367
G3 X140.752 Y100.792 I-15.926 J3.994 E-.00571
G1 X141.031 Y102.032 E-.29348
G1 X141.164 Y102.872 E-.19637
G1 X141.251 Y103.721 E-.19706
G1 X141.275 Y104.126 E-.09371
;WIPE_END
G1 Z.9 F720
G1 X114.216 Y96.71 F10800
G1 Z.5 F720
G1 E.8 F2100
M204 S800
;WIDTH:0.999656
G1 F1500
G3 X121.491 Y91.856 I10.791 J8.292 E1.03863
;WIDTH:1.00422
G1 X122.525 Y91.623 E.12425
G1 X123.224 Y91.512 E.08296
;WIDTH:1.00938
G1 X123.933 Y91.441 E.08398
G1 X124.694 Y91.398 E.08984
;WIDTH:0.999216
G1 X125.368 Y91.4 E.07859
;WIDTH:1.00422
G1 X126.426 Y91.471 E.1243
G1 X127.128 Y91.564 E.08301
;WIDTH:1.00938
G1 X127.828 Y91.696 E.08396
G1 X128.569 Y91.871 E.08974
;WIDTH:0.999655
G3 X136.787 Y98.209 I-3.589 J13.151 E1.24196
;WIDTH:0.995597
G3 X137.43 Y99.479 I-13.154 J7.448 E.1654
;WIDTH:0.999655
G3 X138.565 Y103.945 I-12.613 J5.584 E.54006
;WIDTH:0.999819
G1 X138.602 Y104.644 E.08167
G1 X138.602 Y104.656 E.0014
;WIDTH:0.999656
G3 X122.501 Y118.374 I-13.61 J.335 E2.82585
M73 P7 R7
M73 Q7 S7
G3 X116.154 Y115.338 I2.564 J-13.51 E.82997
G3 X114.18 Y96.758 I8.853 J-10.336 E2.40237
M73 P7 R6
M204 S1000
;WIPE_START
G1 F8640
G1 X114.216 Y96.71 E-.01385
G3 X116.605 Y94.297 I10.79 J8.292 E-.78615
;WIPE_END
G1 Z.9 F720
G1 X120.839 Y115.078 F10800
G1 Z.5 F720
G1 E.8 F2100
M204 S800
;WIDTH:0.999655
G1 F1500
G3 X119.292 Y114.291 I4.225 J-10.216 E.20268
;WIDTH:0.99624
G3 X118.354 Y113.642 I6.569 J-10.501 E.13262
;WIDTH:0.999659
G3 X116.34 Y111.629 I6.642 J-8.658 E.33312
;WIDTH:1.00331
G1 X115.853 Y110.936 E.09919
G1 X115.557 Y110.452 E.06644
;WIDTH:1.00691
G1 X115.286 Y109.95 E.06706
G1 X115.032 Y109.425 E.06856
;WIDTH:0.999655
G1 X114.814 Y108.897 E.06664
;WIDTH:1.00331
G1 X114.544 Y108.094 E.09921
G3 X114.189 Y106.423 I11.293 J-3.272 E.20023
;WIDTH:1.00691
G1 X114.131 Y105.855 E.06712
G1 X114.097 Y105.273 E.06854
;WIDTH:0.999656
G1 X114.098 Y104.702 E.06661
;WIDTH:1.00331
G1 X114.156 Y103.857 E.09919
G1 X114.23 Y103.294 E.0665
;WIDTH:1.00743
G1 X114.336 Y102.733 E.06715
G1 X114.478 Y102.135 E.07229
;WIDTH:0.999656
G3 X115.709 Y99.292 I10.66 J2.929 E.36259
;WIDTH:0.996243
G3 X116.358 Y98.354 I10.501 J6.569 E.13262
;WIDTH:0.999661
G3 X118.371 Y96.34 I8.658 J6.642 E.33312
;WIDTH:1.00331
G1 X119.064 Y95.853 E.09919
G1 X119.548 Y95.557 E.06644
;WIDTH:1.00691
G1 X120.05 Y95.286 E.06706
G1 X120.575 Y95.032 E.06856
;WIDTH:0.999655
G1 X121.103 Y94.814 E.06664
;WIDTH:1.00331
G1 X121.906 Y94.544 E.09921
G3 X123.577 Y94.189 I3.272 J11.293 E.20023
;WIDTH:1.00742
G1 X124.145 Y94.131 E.06716
G1 X124.758 Y94.097 E.07221
;WIDTH:0.999295
G1 X125.298 Y94.099 E.06297
;WIDTH:1.00329
G3 X126.706 Y94.23 I-.567 J13.757 E.16567
;WIDTH:1.00742
G1 X127.267 Y94.336 E.06715
G1 X127.865 Y94.478 E.07229
;WIDTH:0.999655
G3 X130.708 Y95.709 I-2.929 J10.66 E.36259
;WIDTH:0.996237
G3 X131.646 Y96.358 I-6.569 J10.501 E.13262
;WIDTH:0.999656
G3 X133.66 Y98.371 I-6.642 J8.658 E.33312
;WIDTH:1.0033
G1 X134.147 Y99.064 E.09919
M73 Q7 S6
G1 X134.443 Y99.548 E.06644
;WIDTH:1.00691
G1 X134.714 Y100.05 E.06706
G1 X134.968 Y100.575 E.06856
;WIDTH:0.999653
G1 X135.186 Y101.103 E.06664
;WIDTH:1.0033
G1 X135.456 Y101.906 E.09921
G3 X135.811 Y103.577 I-11.293 J3.272 E.20023
;WIDTH:1.00691
G1 X135.869 Y104.145 E.06712
G1 X135.902 Y104.714 E.067
;WIDTH:0.999811
G1 X135.903 Y104.727 E.00152
;WIDTH:0.999656
G1 X135.902 Y105.298 E.06661
;WIDTH:1.00331
G1 X135.844 Y106.143 E.09919
G1 X135.77 Y106.706 E.0665
;WIDTH:1.00742
G1 X135.664 Y107.267 E.06715
G1 X135.522 Y107.865 E.07229
;WIDTH:0.999655
G3 X134.291 Y110.708 I-10.66 J-2.929 E.36259
;WIDTH:0.996237
G3 X133.642 Y111.646 I-10.501 J-6.569 E.13262
;WIDTH:0.999656
G3 X131.629 Y113.66 I-8.658 J-6.642 E.33312
;WIDTH:1.0033
G1 X130.936 Y114.147 E.09919
G1 X130.452 Y114.443 E.06644
;WIDTH:1.00691
G1 X129.95 Y114.714 E.06706
G1 X129.425 Y114.968 E.06856
;WIDTH:0.999655
G1 X128.897 Y115.186 E.06664
;WIDTH:1.00331
G1 X128.094 Y115.456 E.09921
G3 X126.423 Y115.811 I-3.272 J-11.293 E.20023
M73 Q8 S6
;WIDTH:1.00691
G1 X125.855 Y115.869 E.06712
G1 X125.273 Y115.903 E.06854
;WIDTH:0.999656
G1 X124.702 Y115.902 E.06661
;WIDTH:1.00331
G1 X123.857 Y115.844 E.09919
G1 X123.294 Y115.77 E.0665
;WIDTH:1.00742
G1 X122.733 Y115.664 E.06715
G1 X122.135 Y115.522 E.07229
;WIDTH:0.999655
G3 X120.894 Y115.101 I2.929 J-10.66 E.15296
M204 S1000
;WIPE_START
G1 F8640
G1 X120.839 Y115.078 E-.01377
G3 X119.292 Y114.291 I4.224 J-10.217 E-.40119
M73 P8 R6
G3 X118.354 Y113.642 I6.571 J-10.5 E-.26347
G3 X117.944 Y113.312 I6.642 J-8.658 E-.12157
;WIPE_END
G1 Z.9 F720
G1 X130.316 Y111.243 F10800
G1 Z.5 F720
G1 E.8 F2100
M204 S800
;WIDTH:0.988667
G1 F1500
