; generated by PrusaSlicer 2.9.0 on 2025-01-15 at 03:12:01 UTC


;
;
; 

; external perimeters extrusion width = 0.45mm
; perimeters extrusion width = 0.45mm
; infill extrusion width = 0.45mm
; solid infill extrusion width = 0.45mm
; top infill extrusion width = 0.40mm
; first layer extrusion width = 0.42mm

M73 P0 R47
M73 Q0 S48
M201 X1000 Y1000 Z200 E5000 ; sets maximum accelerations, mm/sec^2
M203 X200 Y200 Z12 E120 ; sets maximum feedrates, mm / sec
M204 S1250 T1250 ; sets acceleration (S) and retract acceleration (R), mm/sec^2
M205 X8.00 Y8.00 Z0.40 E4.50 ; sets the jerk limits, mm/sec
M205 S0 T0 ; sets the minimum extruding and travel feed rate, mm/sec

; printing object Low Poly Akita Dog.stl id:0 copy 0
; stop printing object Low Poly Akita Dog.stl id:0 copy 0

;TYPE:Custom
M862.3 P "MK3S" ; printer model check
M862.1 P0.4 ; nozzle diameter check
M115 U3.13.0 ; tell printer latest fw version
G90 ; use absolute coordinates
M83 ; extruder relative mode
M104 S215 ; set extruder temp
M140 S60 ; set bed temp
M190 S60 ; wait for bed temp
M109 S215 ; wait for extruder temp
G28 W ; home all without mesh bed level
G80 ; mesh bed leveling

G1 Z0.2 F720
G1 Y-3 F1000 ; go outside print area
G92 E0
G1 X60 E9 F1000 ; intro line
G1 X100 E12.5 F1000 ; intro line

G92 E0
M221 S95

; Don't change E values below. Excessive value can damage the printer.
M907 E430 ; set extruder motor current
G21 ; set units to millimeters
G90 ; use absolute coordinates
M83 ; use relative distances for extrusion
M900 K0.05 ; Filament gcode LA 1.5
M900 K30 ; Filament gcode LA 1.0
M107
;LAYER_CHANGE
;Z:0.2
;HEIGHT:0.2
G1 E-.8 F2100
G1 Z.6 F720
G1 X117.287 Y99.587 F10800
G1 Z.2 F720
G1 E.8 F2100
M204 S800
;TYPE:Skirt/Brim
;WIDTH:0.42
G1 F1200
G3 X119.733 Y98.515 I2.322 J1.972 E.08668
G1 X122.829 Y99.319 E.10029
G3 X124.566 Y102.151 I-1.275 J2.731 E.11033
G1 X124.255 Y106.364 E.13246
G3 X125.744 Y106.359 I.754 J3.132 E.04711
G1 X125.434 Y102.172 E.13164
G3 X127.281 Y99.272 I3.017 J-.117 E.11469
M73 Q0 S47
G1 X130.265 Y98.515 E.09652
G3 X133.279 Y100.593 I.128 J3.04 E.12316
G1 X134.588 Y109.187 E.27257
G1 X134.773 Y109.935 E.02416
G1 X135.34 Y115.101 E.16295
G3 X135.092 Y116.211 I-3.132 J-.116 E.03586
G3 X133.799 Y117.605 I-3.781 J-2.21 E.06009
G1 X133.032 Y117.885 E.0256
G1 X129.278 Y118.172 E.11805
G1 X128.679 Y118.306 E.01925
G3 X121.322 Y118.306 I-3.679 J-77.899 E.23076
G1 X120.721 Y118.172 E.01931
G1 X116.922 Y117.872 E.11949
G3 X115.837 Y117.366 I.745 J-3.018 E.03777
G3 X114.726 Y115.685 I2.719 J-3.004 E.06385
G1 X114.661 Y115.057 E.0198
G1 X115.227 Y109.934 E.16161
G1 X115.412 Y109.187 E.02413
G1 X116.722 Y100.587 E.27276
G3 X117.248 Y99.633 I2.887 J.972 E.03434
M204 S1000
G1 X117.248 Y99.633 F10800
G1 X117.539 Y99.87
M204 S800
G1 F1200
G3 X119.723 Y98.893 I2.061 J1.678 E.07781
G1 X122.702 Y99.676 E.09658
G3 X124.189 Y102.135 I-1.128 J2.362 E.09538
G1 X123.843 Y106.822 E.14736
G3 X126.157 Y106.826 I1.151 J4 E.07352
G1 X125.811 Y102.174 E.14626
G3 X127.401 Y99.63 I2.629 J-.126 E.10009
G1 X130.328 Y98.888 E.09468
G3 X132.911 Y100.679 I.068 J2.66 E.10543
G1 X134.221 Y109.283 E.27288
G1 X134.399 Y109.987 E.02277
G1 X134.963 Y115.121 E.16194
G3 X132.976 Y117.511 I-2.643 J-.176 E.10414
G1 X129.221 Y117.798 E.11808
G1 X128.649 Y117.929 E.0184
G3 X121.352 Y117.93 I-3.649 J-77.151 E.22888
G1 X120.779 Y117.798 E.01844
G1 X116.975 Y117.498 E.11964
G3 X115.038 Y115.077 I.699 J-2.544 E.10391
G1 X115.601 Y109.986 E.1606
G1 X115.779 Y109.283 E.02274
G1 X117.09 Y100.674 E.27304
G3 X117.502 Y99.917 I2.51 J.874 E.02714
M204 S1000
G1 X117.502 Y99.917 F10800
G1 X117.798 Y100.147
M204 S800
G1 F1200
G3 X119.659 Y99.266 I1.798 J1.394 E.06699
G1 X122.525 Y100.01 E.09284
G3 X123.812 Y102.139 I-.941 J2.023 E.08274
G1 X123.433 Y107.26 E.161
G3 X126.567 Y107.26 I1.567 J5.951 E.09936
G1 X126.188 Y102.157 E.16044
G3 X127.525 Y99.988 I2.23 J-.122 E.08501
G1 X130.334 Y99.266 E.09094
G3 X132.543 Y100.766 I.071 J2.272 E.08948
G1 X133.855 Y109.382 E.27326
G1 X134.026 Y110.038 E.02126
G1 X134.585 Y115.139 E.1609
G3 X132.919 Y117.137 I-2.261 J-.192 E.08686
G1 X129.162 Y117.425 E.11814
G1 X128.618 Y117.553 E.01752
G3 X121.382 Y117.553 I-3.618 J-76.391 E.22696
G1 X120.838 Y117.425 E.01752
G1 X117.068 Y117.132 E.11856
G3 X115.415 Y115.098 I.599 J-2.175 E.08769
G1 X115.974 Y110.038 E.15962
G1 X116.145 Y109.382 E.02126
G1 X117.458 Y100.763 E.27336
G3 X117.762 Y100.194 I2.138 J.778 E.0203
M204 S1000
G1 X117.762 Y100.194 F10800
G1 X118.064 Y100.416
M204 S800
G1 F1200
G3 X119.598 Y99.639 I1.53 J1.119 E.05596
G1 X122.351 Y100.345 E.08911
G3 X123.435 Y102.139 I-.759 J1.683 E.06989
G1 X123.022 Y107.704 E.17497
G3 X125.239 Y107.415 I2.823 J12.991 E.07018
G1 X126.978 Y107.704 E.05527
G1 X126.565 Y102.14 E.17494
G3 X127.651 Y100.345 I1.831 J-.118 E.07002
G1 X130.34 Y99.644 E.08713
G3 X132.174 Y100.853 I.073 J1.886 E.07351
G1 X133.489 Y109.483 E.27371
G1 X133.652 Y110.09 E.01971
G1 X134.208 Y115.158 E.15986
G3 X132.86 Y116.763 I-1.888 J-.217 E.06961
G1 X129.102 Y117.051 E.11817
G1 X128.587 Y117.177 E.01662
G3 X121.414 Y117.177 I-3.587 J-75.616 E.22499
G1 X120.898 Y117.051 E.01665
G1 X117.156 Y116.765 E.11767
G3 X115.792 Y115.12 I.508 J-1.809 E.07127
G1 X116.348 Y110.09 E.15867
G1 X116.511 Y109.483 E.01971
G1 X117.825 Y100.854 E.27368
G3 X118.03 Y100.465 I1.769 J.681 E.01382
M204 S1000
G1 X118.03 Y100.465 F10800
G1 X118.339 Y100.675
M204 S800
G1 F1200
G3 X119.598 Y100.018 I1.244 J.848 E.04637
G1 X122.225 Y100.702 E.08511
G3 X123.058 Y102.121 I-.612 J1.314 E.05486
G1 X122.61 Y108.148 E.18949
G1 X124.576 Y107.849 E.06235
G3 X125.428 Y107.85 I.425 J1.299 E.02717
G1 X127.39 Y108.148 E.06222
G1 X126.942 Y102.121 E.18949
G3 X127.775 Y100.702 I1.441 J-.108 E.05488
G1 X130.402 Y100.018 E.08511
G1 X130.787 Y100.05 E.01211
G3 X131.807 Y100.943 I-.448 J1.541 E.04388
G1 X133.124 Y109.589 E.27422
G1 X133.278 Y110.142 E.018
G1 X133.831 Y115.177 E.15882
G3 X132.799 Y116.39 I-1.521 J-.248 E.05248
G1 X128.998 Y116.681 E.11953
G1 X128.559 Y116.8 E.01426
G3 X121.441 Y116.8 I-3.559 J-74.915 E.22326
G1 X121.002 Y116.681 E.01426
G1 X117.204 Y116.39 E.11943
G3 X116.169 Y115.142 I.484 J-1.454 E.05357
G1 X116.722 Y110.142 E.15773
G1 X116.876 Y109.589 E.018
G1 X118.193 Y100.944 E.27419
G3 X118.306 Y100.726 I1.39 J.579 E.00771
M204 S1000
G1 X118.306 Y100.726 F10800
G1 X118.622 Y100.924
M204 S800
G1 F1200
G3 X119.539 Y100.392 I.965 J.607 E.03457
G1 X122.102 Y101.059 E.08304
G3 X122.682 Y102.103 I-.471 J.945 E.0398
G1 X122.199 Y108.592 E.20402
G1 X124.654 Y108.219 E.07786
G3 X125.344 Y108.218 I.346 J.962 E.02207
G1 X127.801 Y108.592 E.07792
G1 X127.318 Y102.103 E.20402
M73 Q1 S47
G3 X127.898 Y101.059 I1.051 J-.099 E.0398
M73 P1 R47
G1 X130.461 Y100.392 E.08304
G3 X131.44 Y101.037 I-.048 J1.139 E.03861
G1 X132.759 Y109.699 E.27472
G1 X132.905 Y110.195 E.01621
G1 X133.454 Y115.165 E.15678
G3 X132.735 Y116.017 I-1.16 J-.25 E.03639
G1 X128.898 Y116.31 E.12066
G1 X128.528 Y116.424 E.01214
G3 X121.473 Y116.424 I-3.528 J-74.144 E.22129
G1 X121.102 Y116.31 E.01217
G1 X117.251 Y116.016 E.1211
G3 X116.546 Y115.165 I.535 J-1.161 E.03583
G1 X117.095 Y110.195 E.15678
G1 X117.241 Y109.699 E.01621
G1 X118.56 Y101.037 E.27472
G3 X118.592 Y100.976 I1.027 J.494 E.00216
M204 S1000
G1 X118.592 Y100.976 F10800
G1 X118.926 Y101.138
M204 S800
G1 F1200
G1 X119.487 Y100.768 E.02107
G1 X121.978 Y101.417 E.08071
G3 X122.305 Y102.086 I-.339 J.58 E.02475
G1 X121.788 Y109.036 E.21851
G1 X124.738 Y108.587 E.09356
G3 X125.263 Y108.587 I.262 J.634 E.01689
G1 X128.212 Y109.036 E.09353
G1 X127.695 Y102.086 E.21851
G3 X128.022 Y101.417 I.666 J-.089 E.02475
G1 X130.592 Y100.781 E.08301
G1 X131.074 Y101.138 E.01881
G1 X132.395 Y109.817 E.27526
G1 X132.531 Y110.248 E.01417
G1 X133.073 Y115.15 E.15464
G1 X132.663 Y115.644 E.02013
G1 X128.788 Y115.94 E.12185
G1 X128.494 Y116.048 E.00982
G3 X121.506 Y116.048 I-3.494 J-73.334 E.21919
G1 X121.212 Y115.94 E.00982
G1 X117.337 Y115.644 E.12185
G1 X116.927 Y115.15 E.02013
G1 X117.469 Y110.248 E.15464
G1 X117.605 Y109.817 E.01417
G1 X118.917 Y101.197 E.27339
M204 S1000
;WIPE_START
G1 F8640
G1 X118.926 Y101.138 E-.01378
G1 X119.487 Y100.768 E-.15517
G1 X121.978 Y101.417 E-.59438
G3 X122.104 Y101.513 I-.339 J.58 E-.03667
;WIPE_END
G1 Z.6 F720
G1 X119.504 Y93.395 F10800
G1 Z.2 F720
G1 E.8 F2100
M204 S800
G1 F1200
G3 X116.862 Y90.841 I.358 J-3.013 E.12376
G1 X116.947 Y85.398 E.17068
G3 X119.247 Y82.666 I2.977 J.172 E.12005
G1 X122.511 Y82.497 E.10248
G3 X125.002 Y84.689 I-.504 J3.084 E.10967
G3 X127.651 Y82.488 I2.952 J.86 E.11462
G1 X130.636 Y82.637 E.09371
G3 X133.043 Y85.294 I-.589 J2.952 E.12041
G1 X133.12 Y90.966 E.17786
G3 X130.504 Y93.394 I-2.982 J-.589 E.1196
G1 X126.697 Y93.13 E.11965
G3 X125.006 Y91.945 I.665 J-2.75 E.06627
G3 X123.422 Y93.102 I-2.386 J-1.603 E.06276
G1 X119.563 Y93.391 E.12134
M204 S1000
G1 X119.563 Y93.391 F10800
G1 X119.536 Y93.015
M204 S800
G1 F1200
G1 X119.506 Y93.017 E.00094
G3 X117.239 Y90.819 I.351 J-2.63 E.10604
G1 X117.323 Y85.422 E.16924
G3 X119.285 Y83.041 I2.603 J.147 E.10351
G1 X122.463 Y82.871 E.09979
G3 X124.606 Y84.737 I-.417 J2.644 E.09392
G1 X124.827 Y86.849 E.06658
G1 X125.167 Y86.849 E.01066
G1 X125.391 Y84.745 E.06634
G3 X127.647 Y82.866 I2.541 J.756 E.09757
G1 X130.587 Y83.012 E.0923
G3 X132.666 Y85.319 I-.526 J2.564 E.10424
G1 X132.752 Y90.878 E.17432
G3 X130.5 Y93.016 I-2.608 J-.492 E.104
G1 X126.751 Y92.756 E.11783
G3 X125.71 Y92.206 I.686 J-2.559 E.03723
G1 X124.98 Y91.317 E.03607
G3 X123.31 Y92.741 I-2.52 J-1.265 E.07068
G1 X119.596 Y93.01 E.11675
M204 S1000
G1 X119.596 Y93.01 F10800
G1 X119.57 Y92.634
M204 S800
G1 F1200
G1 X119.511 Y92.639 E.00186
G3 X117.617 Y90.795 I.343 J-2.248 E.08845
G1 X117.7 Y85.445 E.16777
G3 X119.324 Y83.417 I2.232 J.123 E.08693
G1 X122.458 Y83.249 E.09841
G1 X122.724 Y83.303 E.00851
G3 X124.234 Y84.804 I-.747 J2.262 E.06921
G1 X124.822 Y90.424 E.17717
G3 X123.198 Y92.38 I-2.279 J-.241 E.08449
G1 X119.629 Y92.63 E.11218
M204 S1000
G1 X119.629 Y92.63 F10800
G1 X119.603 Y92.263
M204 S800
G1 F1200
G1 X119.573 Y92.265 E.00094
G3 X117.994 Y90.77 I.271 J-1.866 E.07266
G1 X118.077 Y85.467 E.16629
G3 X119.363 Y83.792 I1.87 J.105 E.07034
G1 X122.411 Y83.624 E.09571
G3 X123.862 Y84.874 I-.369 J1.896 E.06283
G1 X124.441 Y90.403 E.17431
G3 X123.139 Y92.006 I-1.884 J-.2 E.06848
G1 X119.663 Y92.259 E.10928
M204 S1000
G1 X119.663 Y92.259 F10800
G1 X119.636 Y91.883
M204 S800
G1 F1200
G1 X119.581 Y91.887 E.00173
G3 X118.372 Y90.742 I.26 J-1.485 E.05531
G1 X118.454 Y85.491 E.16466
G3 X119.438 Y84.166 I1.472 J.066 E.05492
G1 X122.483 Y84.019 E.09559
G3 X123.505 Y84.997 I-.471 J1.515 E.04597
G1 X124.062 Y90.408 E.17055
G3 X123.023 Y91.646 I-1.489 J-.195 E.05351
G1 X119.696 Y91.879 E.10457
M204 S1000
G1 X119.696 Y91.879 F10800
G1 X119.67 Y91.503
M204 S800
G1 F1200
G1 X119.591 Y91.508 E.00248
G3 X118.75 Y90.711 I.253 J-1.11 E.03811
G1 X118.83 Y85.515 E.16294
G3 X119.557 Y84.525 I1.072 J.025 E.04101
G1 X122.338 Y84.375 E.08732
G3 X123.133 Y85.07 I-.298 J1.144 E.03432
G1 X123.684 Y90.412 E.16838
G3 X122.961 Y91.272 I-1.117 J-.205 E.03685
G1 X119.73 Y91.499 E.10156
M204 S1000
G1 X119.73 Y91.499 F10800
G1 X119.703 Y91.122
M204 S800
G1 F1200
G1 X119.609 Y91.129 E.00296
G1 X119.158 Y90.746 E.01855
G1 X119.207 Y85.536 E.16336
G3 X119.663 Y84.887 I.679 J-.008 E.02656
G1 X122.371 Y84.778 E.08498
G1 X122.762 Y85.149 E.0169
G1 X123.304 Y90.408 E.16577
G1 X122.892 Y90.899 E.0201
G1 X119.763 Y91.118 E.09835
M204 S1000
;WIPE_START
G1 F8640
G1 X119.703 Y91.122 E-.01388
G1 X119.609 Y91.129 E-.02176
G1 X119.158 Y90.746 E-.13662
G1 X119.184 Y88.027 E-.62774
;WIPE_END
G1 Z.6 F720
G1 X125.182 Y90.46 F10800
G1 Z.2 F720
G1 E.8 F2100
M204 S800
G1 F1200
G3 X125.178 Y90.422 I2.275 J-.276 E.0012
G1 X125.751 Y84.861 E.17528
G3 X127.667 Y83.242 I2.173 J.629 E.08337
G1 X130.537 Y83.387 E.0901
G3 X132.289 Y85.343 I-.462 J2.176 E.08807
G1 X132.383 Y90.793 E.17091
G3 X130.495 Y92.638 I-2.236 J-.4 E.08832
G1 X126.808 Y92.381 E.11588
G3 X125.19 Y90.52 I.649 J-2.197 E.08164
M204 S1000
G1 X125.19 Y90.52 F10800
G1 X125.567 Y90.467
M204 S800
G1 F1200
G3 X125.559 Y90.403 I1.866 J-.26 E.00202
G1 X126.123 Y84.928 E.17257
G3 X127.664 Y83.62 I1.802 J.56 E.06688
G1 X130.486 Y83.762 E.08859
G3 X131.912 Y85.37 I-.392 J1.784 E.07204
G1 X132.006 Y90.768 E.16928
G3 X130.487 Y92.259 I-1.858 J-.373 E.07086
G1 X126.919 Y92.02 E.11212
G3 X125.576 Y90.526 I.514 J-1.813 E.06643
M204 S1000
G1 X125.576 Y90.526 F10800
G1 X125.946 Y90.463
M204 S800
G1 F1200
G3 X125.937 Y90.409 I1.483 J-.253 E.00172
G1 X126.495 Y84.997 E.17059
G3 X127.662 Y83.997 I1.433 J.491 E.05054
G1 X130.436 Y84.137 E.08709
G3 X131.54 Y85.428 I-.332 J1.401 E.05696
G1 X131.628 Y90.742 E.16664
G3 X130.419 Y91.887 I-1.469 J-.34 E.05531
G1 X126.977 Y91.646 E.10819
G3 X125.957 Y90.522 I.452 J-1.436 E.04988
M204 S1000
G1 X125.957 Y90.522 F10800
G1 X126.323 Y90.444
M204 S800
G1 F1200
G3 X126.316 Y90.412 I1.11 J-.237 E.00103
G1 X126.867 Y85.07 E.16838
G3 X127.663 Y84.375 I1.163 J.529 E.03416
G1 X130.387 Y84.512 E.08552
G3 X131.166 Y85.481 I-.275 J1.019 E.04168
G1 X131.25 Y90.711 E.164
G3 X130.409 Y91.508 I-1.094 J-.313 E.03811
G1 X127.039 Y91.272 E.10592
G3 X126.337 Y90.503 I.394 J-1.065 E.03391
M204 S1000
G1 X126.337 Y90.503 F10800
G1 X126.696 Y90.408
M204 S800
G1 F1200
G1 X127.271 Y85.084 E.1679
G1 X127.698 Y84.754 E.01692
G1 X130.337 Y84.887 E.08285
G3 X130.793 Y85.536 I-.223 J.641 E.02656
G1 X130.842 Y90.746 E.16336
G1 X130.391 Y91.129 E.01855
G1 X127.04 Y90.864 E.1054
G1 X126.732 Y90.456 E.01603
M204 S1000
;WIPE_START
G1 F8640
G1 X126.696 Y90.408 E-.01385
G1 X127.062 Y87.023 E-.78615
;WIPE_END
G1 Z.6 F720
; printing object Low Poly Akita Dog.stl id:0 copy 0
G1 X124.938 Y114.871 F10800
G1 Z.2 F720
M73 P1 R46
G1 E.8 F2100
M204 S800
;TYPE:Perimeter
;WIDTH:0.419999
G1 F1200
G1 X121.802 Y114.78 E.09837
G1 X121.475 Y114.681 E.01071
G1 X118.289 Y114.437 E.10019
G1 X118.712 Y110.613 E.12063
G1 X118.846 Y110.138 E.01547
G1 X120.05 Y102.233 E.25071
G1 X120.995 Y102.479 E.03062
G1 X120.45 Y109.83 E.23112
G2 X121.099 Y110.431 I.583 J.022 E.03148
G1 X125 Y109.838 E.12372
G1 X129.029 Y110.436 E.12771
G2 X129.55 Y109.83 I-.063 J-.581 E.02759
G1 X129.005 Y102.479 E.23112
G1 X129.95 Y102.233 E.03062
G1 X131.1 Y109.785 E.23952
G1 X131.288 Y110.613 E.02662
G1 X131.711 Y114.437 E.12063
G1 X128.525 Y114.681 E.10019
G1 X128.245 Y114.779 E.0093
M73 P2 R46
M73 Q2 S47
G1 X125 Y114.873 E.10179
M204 S1000
G1 X124.968 Y115.249 F10800
M204 S800
;TYPE:External perimeter
G1 F1200
G1 X121.649 Y115.153 E.10411
G1 X121.446 Y115.057 E.00704
G1 X117.872 Y114.784 E.11239
G1 X118.357 Y110.389 E.13864
G1 X118.473 Y110.081 E.01032
G1 X119.74 Y101.763 E.26381
G1 X121.394 Y102.193 E.05358
G1 X120.826 Y109.858 E.24099
G2 X121.042 Y110.059 I.203 J-.002 E.01035
G1 X124.567 Y109.522 E.1118
G1 X125.056 Y109.465 E.01544
G1 X129 Y110.06 E.12506
G2 X129.174 Y109.858 I-.049 J-.218 E.00896
G1 X128.606 Y102.193 E.24099
G1 X130.26 Y101.763 E.05358
G1 X131.473 Y109.728 E.25262
G1 X131.663 Y110.572 E.02713
G1 X132.128 Y114.784 E.13287
G1 X128.554 Y115.057 E.11239
G1 X128.351 Y115.153 E.00704
G1 X125.028 Y115.249 E.10423
M204 S1000
;WIPE_START
G1 F8640
G1 X124.968 Y115.249 E-.01385
G1 X121.649 Y115.153 E-.76669
G1 X121.573 Y115.117 E-.01946
;WIPE_END
G1 Z.6 F720
G1 X129.198 Y102.604 F10800
G1 Z.2 F720
G1 E.8 F2100
M204 S800
;TYPE:Solid infill
;WIDTH:0.425214
G1 F1200
G1 X129.747 Y103.153 E.02468
G1 X129.844 Y103.791 E.02051
G1 X129.41 Y103.357 E.01951
G1 X129.453 Y103.941 E.01861
G1 X129.941 Y104.429 E.02194
G1 X130.038 Y105.066 E.02048
G1 X129.496 Y104.524 E.02437
G1 X129.539 Y105.108 E.01861
G1 X130.135 Y105.704 E.02679
G1 X130.233 Y106.342 E.02052
G1 X129.582 Y105.691 E.02927
G1 X129.625 Y106.275 E.01861
G1 X130.33 Y106.98 E.03169
G1 X130.427 Y107.617 E.02048
G1 X129.668 Y106.859 E.0341
G1 X129.711 Y107.442 E.01858
G1 X130.524 Y108.255 E.03655
G1 X130.621 Y108.893 E.02051
G1 X129.754 Y108.026 E.03898
G1 X129.797 Y108.609 E.01858
G1 X130.718 Y109.531 E.04143
G1 X130.815 Y110.169 E.02051
G1 X129.84 Y109.193 E.04385
G1 X129.883 Y109.777 E.01861
G1 X130.975 Y110.869 E.04909
