; generated by PrusaSlicer 2.9.0 on 2025-01-15 at 03:09:48 UTC


;
;
; 

; external perimeters extrusion width = 0.68mm
; perimeters extrusion width = 0.68mm
; infill extrusion width = 0.68mm
; solid infill extrusion width = 0.68mm
; top infill extrusion width = 0.60mm
; first layer extrusion width = 0.65mm

M73 P0 R55
M73 Q0 S55
M201 X1000 Y1000 Z200 E5000 ; sets maximum accelerations, mm/sec^2
M203 X200 Y200 Z12 E120 ; sets maximum feedrates, mm / sec
M204 S1250 T1250 ; sets acceleration (S) and retract acceleration (R), mm/sec^2
M205 X8.00 Y8.00 Z0.40 E4.50 ; sets the jerk limits, mm/sec
M205 S0 T0 ; sets the minimum extruding and travel feed rate, mm/sec

; printing object Low Poly Akita Dog.stl id:0 copy 0
; stop printing object Low Poly Akita Dog.stl id:0 copy 0

;TYPE:Custom
M862.3 P "MK3S" ; printer model check
M862.1 P0.6 ; nozzle diameter check
M115 U3.13.3 ; tell printer latest fw version
G90 ; use absolute coordinates
M83 ; extruder relative mode
M104 S215 ; set extruder temp
M140 S60 ; set bed temp
M190 S60 ; wait for bed temp
M109 S215 ; wait for extruder temp
G28 W ; home all without mesh bed level
G80 X108.354 Y68.9175 W33.2919 H57.451 ; mesh bed levelling

G1 Z0.2 F720
G1 Y-3 F1000 ; go outside print area
G92 E0
G1 X60 E9 F1000 ; intro line
G1 X100 E12.5 F1000 ; intro line

G92 E0
M221 S95
G21 ; set units to millimeters
G90 ; use absolute coordinates
M83 ; use relative distances for extrusion
M900 K0.04 ; Filament gcode LA 1.5
M900 K18 ; Filament gcode LA 1.0
M107
;LAYER_CHANGE
;Z:0.2
;HEIGHT:0.2
G1 E-.8 F2100
G1 Z.6 F720
G1 X113.14 Y96.699 F10800
G1 Z.2 F720
G1 E.8 F1500
M204 S800
;TYPE:Skirt/Brim
;WIDTH:0.65
G1 F1200
G3 X113.601 Y96.248 I2.732 J2.334 E.0326
G3 X115.842 Y95.257 I2.789 J3.278 E.12543
G1 X116.465 Y95.265 E.03145
G1 X121.175 Y96.472 E.24544
G3 X123.666 Y100.283 I-1.429 J3.654 E.24519
G1 X123.094 Y108.02 E.39162
G3 X126.905 Y108.025 I1.896 J7.637 E.19431
G1 X126.336 Y100.333 E.38934
G3 X128.685 Y96.525 I3.928 J-.205 E.24024
G1 X133.331 Y95.295 E.2426
G3 X134.716 Y95.349 I.533 J4.09 E.0703
G3 X137.309 Y97.335 I-1.26 J4.333 E.1687
G1 X137.599 Y98.104 E.04149
G1 X139.717 Y112.009 E.71
G1 X139.92 Y112.874 E.04485
G1 X140.833 Y121.138 E.4197
G3 X137.81 Y124.908 I-3.972 J-.088 E.26221
G1 X131.531 Y125.401 E.31793
G1 X130.868 Y125.541 E.03421
G3 X119.133 Y125.542 I-5.868 J-125.99 E.59258
G1 X118.469 Y125.401 E.03427
G1 X112.311 Y124.93 E.31176
G3 X110.652 Y124.164 I.673 J-3.635 E.09321
G3 X109.394 Y122.444 I4.591 J-4.679 E.10805
G3 X109.167 Y121.138 I3.899 J-1.351 E.0672
G1 X110.08 Y112.874 E.4197
G1 X110.283 Y112.009 E.04485
G1 X112.401 Y98.103 E.71005
G3 X113.082 Y96.768 I3.471 J.93 E.07621
M204 S1000
G1 X113.082 Y96.768 F10800
G1 X113.551 Y97.149
M204 S800
G1 F1200
G3 X113.95 Y96.746 I2.284 J1.859 E.02867
G3 X115.913 Y95.861 I2.431 J2.771 E.1103
G1 X116.416 Y95.871 E.0254
G1 X120.995 Y97.053 E.23872
G3 X123.059 Y100.258 I-1.24 J3.065 E.20509
G1 X122.432 Y108.743 E.42948
G3 X125.454 Y108.392 I2.975 J12.406 E.15394
G1 X127.567 Y108.74 E.1081
G1 X126.943 Y100.343 E.42504
G3 X128.879 Y97.102 I3.322 J-.214 E.20262
G1 X133.455 Y95.89 E.23896
G3 X134.994 Y96.079 I.412 J3.004 E.07915
G3 X136.78 Y97.634 I-1.586 J3.626 E.1214
G1 X137.004 Y98.227 E.032
G1 X139.125 Y112.155 E.71118
G1 X139.319 Y112.957 E.04165
G1 X140.226 Y121.174 E.4173
G3 X137.67 Y124.317 I-3.358 J-.121 E.21949
G1 X131.441 Y124.799 E.31537
G1 X130.821 Y124.935 E.03204
G3 X119.18 Y124.936 I-5.821 J-124.801 E.58784
G1 X118.558 Y124.799 E.03215
G1 X112.388 Y124.327 E.31236
G3 X111.041 Y123.696 I.574 J-2.978 E.07586
G3 X109.969 Y122.247 I4.18 J-4.213 E.09134
G3 X109.774 Y121.174 I3.145 J-1.126 E.0553
G1 X110.681 Y112.957 E.4173
G1 X110.875 Y112.155 E.04165
M73 P0 R54
G1 X112.996 Y98.228 E.71113
G3 X113.495 Y97.22 I2.839 J.78 E.05713
M204 S1000
G1 X113.495 Y97.22 F10800
G1 X113.976 Y97.587
M204 S800
G1 F1200
G3 X114.301 Y97.242 I1.851 J1.413 E.02397
G3 X115.981 Y96.465 I2.072 J2.277 E.0949
G1 X116.362 Y96.476 E.01924
G1 X120.815 Y97.633 E.23225
G3 X122.452 Y100.233 I-1.054 J2.479 E.16503
G1 X121.771 Y109.455 E.46678
G1 X124.32 Y109.067 E.13015
G3 X125.695 Y109.069 I.683 J2.511 E.07024
G1 X128.229 Y109.455 E.12939
G1 X127.549 Y100.314 E.4627
G3 X129.142 Y97.65 I2.702 J-.193 E.16685
G1 X133.578 Y96.485 E.23152
G3 X134.76 Y96.64 I.291 J2.36 E.06083
G3 X136.252 Y97.935 I-1.299 J3.005 E.10131
G1 X136.409 Y98.35 E.0224
G1 X138.534 Y112.306 E.7126
G1 X138.717 Y113.04 E.03819
G1 X139.619 Y121.21 E.41492
G3 X137.535 Y123.724 I-2.745 J-.155 E.17649
G1 X131.349 Y124.197 E.31317
G1 X130.772 Y124.33 E.02989
G3 X119.228 Y124.33 I-5.772 J-123.58 E.58294
G1 X118.651 Y124.197 E.02989
G1 X112.465 Y123.724 E.31317
G3 X111.434 Y123.232 I.478 J-2.327 E.05824
G3 X110.419 Y121.634 I2.084 J-2.444 E.097
G1 X110.381 Y121.21 E.02149
G1 X111.283 Y113.04 E.41492
G1 X111.466 Y112.306 E.03819
G1 X113.591 Y98.35 E.7126
G3 X113.923 Y97.66 I2.236 J.65 E.03883
M204 S1000
G1 X113.923 Y97.66 F10800
G1 X114.418 Y98.008
M204 S800
G1 F1200
G3 X114.658 Y97.733 I1.402 J.986 E.01846
G3 X116.046 Y97.069 I1.708 J1.788 E.07898
G1 X116.3 Y97.081 E.01284
G1 X120.633 Y98.213 E.22607
G3 X121.845 Y100.246 I-.87 J1.896 E.12704
G1 X121.109 Y110.17 E.50233
G1 X124.431 Y109.664 E.16962
G3 X125.578 Y109.665 I.571 J1.938 E.05871
G1 X128.891 Y110.169 E.16916
G1 X128.156 Y100.283 E.50041
G3 X129.405 Y98.199 I2.081 J-.169 E.1309
G1 X133.954 Y97.069 E.23661
G3 X135.724 Y98.235 I-.29 J2.366 E.11087
G1 X135.813 Y98.473 E.01283
G1 X137.944 Y112.464 E.7144
G1 X138.115 Y113.124 E.03442
G1 X139.013 Y121.247 E.41254
G3 X137.459 Y123.121 I-2.152 J-.203 E.13054
G1 X131.252 Y123.596 E.31424
G1 X130.722 Y123.724 E.02752
G3 X119.278 Y123.724 I-5.722 J-122.317 E.57789
G1 X118.748 Y123.596 E.02752
G1 X112.307 Y123.055 E.32628
G3 X111.009 Y121.489 I.999 J-2.149 E.10612
G1 X111.885 Y113.124 E.42456
G1 X112.056 Y112.464 E.03442
G1 X114.187 Y98.473 E.7144
G3 X114.368 Y98.083 I1.633 J.521 E.02176
M204 S1000
G1 X114.368 Y98.083 F10800
G1 X114.883 Y98.417
M204 S800
G1 F1200
G3 X116.178 Y97.676 I1.369 J.891 E.07822
G1 X120.416 Y98.78 E.22107
G3 X121.238 Y100.216 I-.647 J1.324 E.08868
M73 P1 R54
M73 Q1 S55
G1 X120.447 Y110.884 E.53999
G1 X124.55 Y110.26 E.2095
G3 X125.447 Y110.26 I.449 J1.382 E.04603
G1 X129.553 Y110.884 E.20965
G1 X128.762 Y100.254 E.53807
G3 X129.602 Y98.775 I1.46 J-.149 E.09158
G1 X133.822 Y97.676 E.22013
G1 X134.203 Y97.726 E.0194
G3 X135.218 Y98.596 I-.553 J1.672 E.06922
G1 X137.355 Y112.63 E.71659
G1 X137.514 Y113.208 E.03026
G1 X138.406 Y121.283 E.4101
G3 X137.382 Y122.518 I-1.602 J-.286 E.08468
G1 X131.151 Y122.995 E.31545
G1 X130.669 Y123.118 E.02511
G3 X119.331 Y123.118 I-5.669 J-121.003 E.57254
G1 X118.849 Y122.995 E.02511
G1 X112.618 Y122.518 E.31545
G3 X111.594 Y121.283 I.578 J-1.521 E.08468
G1 X112.486 Y113.208 E.4101
G1 X112.645 Y112.63 E.03026
G1 X114.782 Y98.596 E.71659
G3 X114.836 Y98.494 I1.47 J.712 E.00583
M204 S1000
G1 X114.836 Y98.494 F10800
G1 X115.368 Y98.782
M204 S800
G1 F1200
G3 X116.118 Y98.288 I1.111 J.87 E.04614
G1 X120.193 Y99.349 E.21256
G3 X120.631 Y100.189 I-.426 J.757 E.05058
G1 X119.786 Y111.599 E.57754
G1 X124.68 Y110.854 E.24989
G3 X125.321 Y110.854 I.32 J.839 E.03309
G1 X130.215 Y111.599 E.24989
G1 X129.369 Y100.226 E.57568
G3 X129.807 Y99.349 I.875 J-.111 E.05247
G1 X133.882 Y98.288 E.21256
G3 X134.632 Y98.782 I-.361 J1.364 E.04614
G1 X136.769 Y112.811 E.71634
G1 X136.913 Y113.293 E.02539
G1 X137.792 Y121.258 E.40451
G1 X137.244 Y121.92 E.04338
G1 X130.967 Y122.4 E.31778
G1 X130.619 Y122.512 E.01845
G3 X119.381 Y122.512 I-5.619 J-119.765 E.56749
G1 X119.033 Y122.4 E.01845
G1 X112.756 Y121.92 E.31778
G1 X112.208 Y121.258 E.04338
G1 X113.087 Y113.293 E.40451
G1 X113.231 Y112.811 E.02539
G1 X115.354 Y98.871 E.71179
M204 S1000
;WIPE_START
G1 F8640
G1 X115.368 Y98.782 E-.0208
G3 X116.118 Y98.288 I1.111 J.87 E-.21104
G1 X118.499 Y98.908 E-.56816
;WIPE_END
G1 Z.6 F720
G1 X116.233 Y85.746 F10800
G1 Z.2 F720
G1 E.8 F1500
M204 S800
G1 F1200
G3 X114.283 Y85.012 I.24 J-3.591 E.1067
G3 X112.816 Y83.081 I2.566 J-3.474 E.12408
G1 X112.677 Y82.49 E.03065
G1 X112.795 Y73.539 E.45188
G3 X115.791 Y69.933 I3.924 J.212 E.25358
G1 X120.969 Y69.655 E.26176
G3 X124.294 Y72.503 I-.533 J3.987 E.23368
G1 X124.725 Y76.602 E.20805
G1 X125.273 Y76.601 E.02766
G1 X125.665 Y72.703 E.19776
G3 X129.186 Y69.647 I3.852 J.881 E.25173
G1 X133.899 Y69.88 E.2382
G3 X135.149 Y70.288 I-.673 J4.18 E.06664
G3 X136.888 Y72.14 I-2.25 J3.856 E.13004
G1 X137.188 Y73.369 E.06386
M73 Q1 S54
G1 X137.339 Y82.327 E.45225
G3 X136.495 Y84.274 I-3.578 J-.394 E.10873
G3 X134.487 Y85.635 I-3.329 J-2.75 E.12412
G1 X133.89 Y85.742 E.03062
G1 X127.862 Y85.338 E.30497
G3 X126.257 Y84.594 I.701 J-3.615 E.09018
G3 X125 Y82.955 I4.773 J-4.964 E.10466
G3 X122.849 Y85.133 I-4.184 J-1.981 E.15748
G1 X122.362 Y85.296 E.02592
G1 X116.322 Y85.745 E.30573
M204 S1000
G1 X116.322 Y85.745 F10800
G1 X116.319 Y85.143
M204 S800
G1 F1200
G3 X114.683 Y84.554 I.136 J-2.942 E.0891
G3 X113.384 Y82.866 I2.151 J-3.001 E.10907
G1 X113.284 Y82.458 E.0212
G1 X113.398 Y73.615 E.44642
G3 X115.869 Y70.537 I3.323 J.137 E.21331
G1 X120.964 Y70.263 E.25756
G3 X123.694 Y72.604 I-.544 J3.396 E.19103
G1 X124.643 Y81.612 E.45723
G3 X124.145 Y83.222 I-2.945 J-.028 E.08628
G3 X122.209 Y84.708 I-2.887 J-1.757 E.12604
G1 X116.409 Y85.136 E.29357
M204 S1000
G1 X116.365 Y84.531 F10800
M204 S800
G1 F1200
G1 X116.309 Y84.535 E.00283
G3 X115.082 Y84.094 I.13 J-2.292 E.06674
G3 X113.954 Y82.655 I1.745 J-2.529 E.09371
G1 X113.884 Y82.357 E.01545
G1 X114.005 Y73.648 E.43966
G3 X116.028 Y71.124 I2.703 J.094 E.17502
G1 X120.893 Y70.867 E.24592
G1 X121.169 Y70.916 E.01415
G3 X123.108 Y72.766 I-.796 J2.775 E.14068
G1 X124.036 Y81.643 E.45054
G3 X122.06 Y84.118 I-2.774 J-.187 E.17009
G1 X116.455 Y84.524 E.28368
M204 S1000
G1 X116.455 Y84.524 F10800
G1 X116.412 Y83.919
M204 S800
G1 F1200
G1 X116.298 Y83.927 E.00577
G3 X115.477 Y83.633 I.138 J-1.678 E.04453
G3 X114.484 Y82.263 I1.172 J-1.894 E.08761
G1 X114.611 Y73.682 E.43321
G3 X116.187 Y71.712 I2.084 J.051 E.13678
G1 X120.828 Y71.471 E.23459
G3 X122.521 Y72.923 I-.393 J2.172 E.11803
G1 X123.429 Y81.675 E.44416
G3 X121.919 Y83.528 I-2.171 J-.228 E.12769
G1 X116.502 Y83.913 E.27413
M204 S1000
G1 X116.502 Y83.913 F10800
G1 X116.459 Y83.307
M204 S800
G1 F1200
G1 X116.287 Y83.319 E.0087
G3 X115.086 Y82.182 I.367 J-1.589 E.08755
G1 X115.218 Y73.718 E.42731
G3 X116.345 Y72.299 I1.462 J.005 E.09865
G1 X120.833 Y72.084 E.22681
G3 X121.931 Y73.066 I-.445 J1.602 E.07703
G1 X122.822 Y81.707 E.4385
G3 X121.79 Y82.934 I-1.601 J-.298 E.08462
G1 X116.549 Y83.301 E.26521
M204 S1000
G1 X116.549 Y83.301 F10800
G1 X116.507 Y82.695
M204 S800
G1 F1200
G1 X116.339 Y82.707 E.0085
G3 X115.695 Y82.096 I.598 J-1.276 E.04559
G1 X115.824 Y73.754 E.42115
G3 X116.432 Y72.903 I.892 J-.006 E.05641
G1 X120.719 Y72.687 E.21668
G1 X121.336 Y73.215 E.04099
G1 X122.172 Y81.795 E.43516
G1 X121.655 Y82.335 E.03774
G1 X116.597 Y82.689 E.25595
M204 S1000
;WIPE_START
G1 F8640
G1 X116.507 Y82.695 E-.02083
G1 X116.339 Y82.707 E-.03889
G3 X115.695 Y82.096 I.599 J-1.276 E-.20853
G1 X115.731 Y79.793 E-.53175
;WIPE_END
G1 Z.6 F720
G1 X125.359 Y81.815 F10800
G1 Z.2 F720
G1 E.8 F1500
M204 S800
G1 F1200
G1 X126.266 Y72.794 E.45767
G3 X129.233 Y70.253 I3.244 J.785 E.21064
G1 X133.84 Y70.485 E.23285
G3 X136.456 Y72.748 I-.561 J3.292 E.18354
G1 X136.586 Y73.455 E.03629
G1 X136.737 Y82.248 E.44393
G3 X136.059 Y83.85 I-2.931 J-.294 E.08914
G3 X134.304 Y85.056 I-2.879 J-2.31 E.10904
G1 X133.891 Y85.133 E.02121
G1 X127.993 Y84.745 E.29837
G3 X126.642 Y84.123 I.552 J-2.981 E.07585
G3 X125.417 Y82.218 I2.595 J-3.014 E.11593
G1 X125.372 Y81.904 E.01601
M204 S1000
G1 X125.372 Y81.904 F10800
G1 X125.971 Y81.813
M204 S800
G1 F1200
G3 X125.965 Y81.77 I2.893 J-.437 E.00219
G1 X126.867 Y72.884 E.45086
G3 X129.228 Y70.861 I2.648 J.7 E.1669
G1 X133.784 Y71.09 E.23027
G3 X135.98 Y73.492 I-.463 J2.628 E.17668
G1 X136.129 Y82.226 E.44095
G3 X135.623 Y83.428 I-2.281 J-.254 E.06675
G3 X134.124 Y84.476 I-2.431 J-1.881 E.09375
G1 X133.822 Y84.529 E.01548
G1 X128.065 Y84.141 E.29127
G3 X127.03 Y83.656 I.462 J-2.331 E.05827
G3 X125.986 Y81.902 I1.834 J-2.28 E.10525
M204 S1000
G1 X125.986 Y81.902 F10800
G1 X126.582 Y81.802
M204 S800
G1 F1200
G3 X126.572 Y81.732 I2.152 J-.364 E.00357
G1 X127.468 Y72.975 E.44435
G3 X129.222 Y71.468 I2.064 J.628 E.1232
G1 X133.727 Y71.695 E.2277
G3 X135.378 Y73.579 I-.404 J2.02 E.13592
G1 X135.521 Y82.204 E.43544
G3 X135.183 Y83.007 I-1.667 J-.229 E.04449
G3 X133.761 Y83.925 I-1.827 J-1.273 E.08764
G1 X128.137 Y83.537 E.28457
G3 X126.599 Y81.89 I.597 J-2.099 E.11953
M204 S1000
G1 X127.189 Y81.76 F10800
M204 S800
G1 F1200
G3 X127.178 Y81.707 I1.59 J-.351 E.00273
G1 X128.069 Y73.066 E.4385
M73 P2 R54
G3 X129.224 Y72.076 I1.51 J.593 E.07993
M73 Q2 S54
G1 X133.674 Y72.3 E.22492
G3 X134.777 Y73.667 I-.356 J1.416 E.09514
G1 X134.914 Y82.182 E.42988
G3 X133.713 Y83.319 I-1.568 J-.453 E.08755
G1 X128.21 Y82.934 E.27846
G3 X127.211 Y81.847 I.569 J-1.525 E.07735
M204 S1000
G1 X127.828 Y81.795 F10800
M204 S800
G1 F1200
G1 X128.664 Y73.215 E.43516
G1 X129.281 Y72.687 E.04099
G1 X133.568 Y72.903 E.21668
G3 X134.176 Y73.754 I-.284 J.845 E.05641
G1 X134.305 Y82.096 E.42115
G3 X133.661 Y82.707 I-1.242 J-.665 E.04559
G1 X128.345 Y82.335 E.269
G1 X127.89 Y81.86 E.0332
M204 S1000
;WIPE_START
G1 F8640
G1 X127.828 Y81.795 E-.02074
G1 X128.155 Y78.436 E-.77926
;WIPE_END
G1 Z.6 F720
; printing object Low Poly Akita Dog.stl id:0 copy 0
G1 X118.152 Y113.334 F10800
G1 Z.2 F720
G1 E.8 F1500
M204 S800
;TYPE:Perimeter
;WIDTH:0.649999
G1 F1200
G2 X118.415 Y113.524 I.785 J-.812 E.01643
G2 X118.914 Y113.588 I.39 J-1.05 E.02561
G1 X125 Y112.662 E.31075
G1 X131.233 Y113.599 E.31817
G2 X131.803 Y113.39 I-.085 J-1.115 E.03104
G2 X132.082 Y112.991 I-.773 J-.836 E.02477
G1 X132.131 Y112.621 E.01884
G1 X131.259 Y100.868 E.59491
G1 X133.023 Y100.409 E.09201
G1 X134.981 Y113.263 E.65634
G3 X135.125 Y113.827 I-1.722 J.74 E.0295
G1 X135.827 Y120.187 E.323
G1 X130.603 Y120.587 E.26447
G1 X130.27 Y120.685 E.01752
G1 X125 Y120.836 E.26613
G1 X119.73 Y120.685 E.26613
G1 X119.397 Y120.587 E.01752
G1 X114.173 Y120.187 E.26447
G1 X114.875 Y113.827 E.323
G1 X115.019 Y113.263 E.02938
G1 X116.977 Y100.409 E.65634
G1 X118.741 Y100.868 E.09201
G1 X117.869 Y112.621 E.59491
G2 X117.956 Y113.082 I1.674 J-.078 E.02376
G2 X118.09 Y113.269 I.981 J-.56 E.01163
M204 S1000
G1 X118.09 Y113.269 F10800
G1 X118.576 Y112.902
M204 S800
;TYPE:External perimeter
G1 F1200
G2 X118.823 Y112.988 I.221 J-.236 E.01359
G1 X125.039 Y112.054 E.3173
G1 X131.177 Y112.988 E.31341
G2 X131.526 Y112.666 I.028 J-.319 E.027
G1 X130.617 Y100.408 E.62047
G1 X133.522 Y99.651 E.15154
G1 X135.581 Y113.172 E.69039
G3 X135.728 Y113.761 I-1.391 J.66 E.03085
G1 X136.5 Y120.745 E.35469
G1 X130.649 Y121.192 E.29621
G1 X130.423 Y121.288 E.01239
G1 X125 Y121.443 E.27386
G1 X119.69 Y121.292 E.26815
G1 X119.351 Y121.192 E.01784
G1 X113.5 Y120.745 E.29621
G1 X114.302 Y113.49 E.36845
M73 P2 R53
G1 X114.419 Y113.172 E.0171
G1 X116.478 Y99.651 E.69039
G1 X119.383 Y100.408 E.15154
G1 X118.474 Y112.666 E.62047
G2 X118.52 Y112.832 I.323 E.0088
M204 S1000
;WIPE_START
G1 F8640
G1 X118.576 Y112.902 E-.0207
G2 X118.823 Y112.988 I.221 J-.236 E-.06217
G1 X121.894 Y112.527 E-.71713
;WIPE_END
G1 Z.6 F720
G1 X131.828 Y100.971 F10800
G1 Z.2 F720
G1 E.8 F1500
M204 S800
;TYPE:Solid infill
;WIDTH:0.663844
G1 F1200
G1 X132.723 Y101.865 E.06531
G1 X132.881 Y102.901 E.05411
G1 X131.851 Y101.871 E.07521
G1 X131.921 Y102.819 E.04908
G1 X133.039 Y103.937 E.08163
G1 X133.196 Y104.973 E.0541
G1 X131.991 Y103.767 E.08802
G1 X132.06 Y104.715 E.04907
G1 X133.354 Y106.009 E.09448
G1 X133.512 Y107.045 E.05411
G1 X132.13 Y105.663 E.10091
G1 X132.2 Y106.611 E.04908
G1 X133.67 Y108.081 E.10733
G1 X133.827 Y109.116 E.05405
G1 X132.27 Y107.559 E.11369
G1 X132.34 Y108.507 E.04908
G1 X133.985 Y110.152 E.12011
G1 X134.143 Y111.188 E.05411
G1 X132.41 Y109.455 E.12654
G1 X132.48 Y110.403 E.04908
G1 X134.301 Y112.224 E.13296
G1 X134.459 Y113.26 E.05411
G1 X132.549 Y111.351 E.13942
