; generated by PrusaSlicer 2.9.0 on 2025-01-13 at 18:53:18 UTC


;
;
; 

; external perimeters extrusion width = 0.45mm
; perimeters extrusion width = 0.45mm
; infill extrusion width = 0.45mm
; solid infill extrusion width = 0.45mm
; top infill extrusion width = 0.40mm
; first layer extrusion width = 0.42mm

M73 P0 R44
M73 Q0 S45
M201 X1000 Y1000 Z200 E5000 ; sets maximum accelerations, mm/sec^2
M203 X200 Y200 Z12 E120 ; sets maximum feedrates, mm / sec
M204 S1250 T1250 ; sets acceleration (S) and retract acceleration (R), mm/sec^2
M205 X8.00 Y8.00 Z0.40 E4.50 ; sets the jerk limits, mm/sec
M205 S0 T0 ; sets the minimum extruding and travel feed rate, mm/sec

; printing object Lizard.stl id:0 copy 0
; stop printing object Lizard.stl id:0 copy 0

;TYPE:Custom
M862.3 P "MK3S" ; printer model check
M862.1 P0.4 ; nozzle diameter check
M115 U3.12.2 ; tell printer latest fw version
G90 ; use absolute coordinates
M83 ; extruder relative mode
M104 S215 ; set extruder temp
M140 S60 ; set bed temp
M190 S60 ; wait for bed temp
M109 S215 ; wait for extruder temp
G28 W ; home all without mesh bed level
G80 ; mesh bed leveling

G1 Z0.2 F720
G1 Y-3 F1000 ; go outside print area
G92 E0
G1 X60 E9 F1000 ; intro line
G1 X100 E12.5 F1000 ; intro line

G92 E0
M221 S95

; Don't change E values below. Excessive value can damage the printer.
M907 E430 ; set extruder motor current
G21 ; set units to millimeters
G90 ; use absolute coordinates
M83 ; use relative distances for extrusion
M900 K0.05 ; Filament gcode LA 1.5
M900 K30 ; Filament gcode LA 1.0
M107
;LAYER_CHANGE
;Z:0.2
;HEIGHT:0.2
G1 E-.8 F2100
G1 Z.6 F720
G1 X75.701 Y45.532 F10800
G1 Z.2 F720
G1 E.8 F2100
M204 S800
;TYPE:Skirt/Brim
;WIDTH:0.42
G1 F1200
G1 X76.434 Y44.439 E.04126
G1 X77.022 Y43.853 E.02603
G1 X91.14 Y31.66 E.5849
G1 X92.092 Y31.086 E.03486
G1 X93.037 Y30.876 E.03035
G1 X130.546 Y28.033 E1.17944
G1 X133.904 Y28.466 E.10616
G1 X134.483 Y28.603 E.01866
G1 X181.23 Y44.332 E1.54646
G1 X181.84 Y44.658 E.02169
G1 X182.362 Y45.085 E.02115
G1 X182.805 Y45.623 E.02185
G1 X183.154 Y46.29 E.0236
G1 X183.322 Y46.849 E.0183
G1 X183.395 Y47.557 E.02232
G1 X183.346 Y48.328 E.02422
G1 X183.155 Y49.014 E.02233
G1 X182.807 Y49.677 E.02348
G1 X182.265 Y50.312 E.02618
G1 X181.648 Y50.766 E.02402
G1 X180.991 Y51.062 E.02259
G1 X134.536 Y66.682 E1.5367
G1 X133.958 Y66.819 E.01862
M73 Q0 S44
G1 X130.395 Y67.257 E.11256
G1 X93.016 Y64.399 E1.17541
G1 X92.281 Y64.261 E.02345
G1 X91.763 Y64.052 E.01751
G1 X91.164 Y63.653 E.02257
G1 X76.995 Y51.422 E.58689
G1 X76.171 Y50.541 E.03782
G1 X75.571 Y49.474 E.03838
G1 X75.273 Y48.214 E.0406
G1 X75.315 Y46.745 E.04608
G1 X75.683 Y45.589 E.03804
M204 S1000
;WIPE_START
G1 F8640
G1 X75.701 Y45.532 E-.0138
G1 X76.434 Y44.439 E-.30388
G1 X77.022 Y43.853 E-.19168
G1 X77.975 Y43.03 E-.29064
;WIPE_END
G1 Z.6 F720
; printing object Lizard.stl id:0 copy 0
G1 X132.35 Y36.378 F10800
G1 Z.2 F720
G1 E.8 F2100
M204 S800
;TYPE:External perimeter
;WIDTH:0.59134
G1 F1200
G1 X132.103 Y36.114 E.01649
M204 S1000
;WIPE_START
G1 F8640
G1 X132.35 Y36.378 E-.08348
G1 X132.103 Y36.114 E-.08348
;WIPE_END
G1 E-.63304 F2100
G1 Z.6 F720
G1 X133.612 Y37.378 F10800
G1 Z.2 F720
G1 E.8 F2100
M204 S800
;WIDTH:0.473893
G1 F1200
G1 X133.433 Y37.396 E.00645
G1 X133.051 Y37.205 E.0153
G1 X132.695 Y36.91 E.01657
;WIDTH:0.483511
G1 X132.58 Y36.733 E.00773
;WIDTH:0.519658
G1 X132.465 Y36.555 E.0084
;WIDTH:0.555804
G1 X132.35 Y36.378 E.009
G1 X132.363 Y36.387 E.00067
;WIDTH:0.551517
G1 X132.551 Y36.459 E.00851
;WIDTH:0.5168
G1 X132.739 Y36.532 E.00795
;WIDTH:0.482082
G1 X132.928 Y36.604 E.00739
;WIDTH:0.47455
G1 X133.252 Y36.823 E.01404
G1 X133.544 Y37.111 E.01472
;WIDTH:0.473893
G1 X133.627 Y37.26 E.00611
G1 X133.62 Y37.318 E.00209
M204 S1000
;WIPE_START
G1 F8640
G1 X133.612 Y37.378 E-.01398
G1 X133.433 Y37.396 E-.04154
G1 X133.051 Y37.205 E-.09862
G1 X132.695 Y36.91 E-.10676
G1 X132.58 Y36.733 E-.04874
G1 X132.465 Y36.555 E-.04893
G1 X132.35 Y36.378 E-.04874
G1 X132.363 Y36.387 E-.00365
G1 X132.551 Y36.459 E-.04648
G1 X132.739 Y36.532 E-.04657
G1 X132.928 Y36.604 E-.0467
G1 X133.252 Y36.823 E-.0903
G1 X133.544 Y37.111 E-.0947
G1 X133.627 Y37.26 E-.03938
G1 X133.62 Y37.318 E-.01349
;WIPE_END
G1 E-.01142 F2100
G1 Z.6 F720
G1 X130.401 Y38.24 F10800
G1 Z.2 F720
G1 E.8 F2100
M204 S800
;WIDTH:0.417293
G1 F1200
G1 X130.303 Y38.255 E.00309
G1 X130.142 Y38.146 E.00605
;WIDTH:0.42883
G1 X130.117 Y37.706 E.01414
G1 X130.188 Y37.405 E.00992
;WIDTH:0.478426
G1 X130.255 Y37.25 E.00611
;WIDTH:0.528021
G1 X130.321 Y37.095 E.0068
;WIDTH:0.577616
G1 X130.387 Y36.94 E.00749
G1 X130.386 Y36.954 E.00062
;WIDTH:0.572385
G1 X130.424 Y37.181 E.01013
;WIDTH:0.524534
G1 X130.463 Y37.408 E.00922
;WIDTH:0.476682
G1 X130.502 Y37.636 E.00834
;WIDTH:0.42883
G1 X130.495 Y38.05 E.01329
;WIDTH:0.417293
G1 X130.428 Y38.186 E.00472
M204 S1000
;WIPE_START
G1 F8640
G1 X130.401 Y38.24 E-.01394
G1 X130.303 Y38.255 E-.02289
G1 X130.142 Y38.146 E-.04489
G1 X130.117 Y37.706 E-.10176
G1 X130.188 Y37.405 E-.07141
G1 X130.255 Y37.25 E-.03899
G1 X130.321 Y37.095 E-.0389
G1 X130.387 Y36.94 E-.0389
G1 X130.386 Y36.954 E-.00324
G1 X130.424 Y37.181 E-.05314
G1 X130.463 Y37.408 E-.05318
G1 X130.502 Y37.636 E-.05341
G1 X130.495 Y38.05 E-.09561
G1 X130.428 Y38.186 E-.03501
;WIPE_END
G1 E-.13473 F2100
G1 Z.6 F720
G1 X133.796 Y31.417 F10800
G1 Z.2 F720
G1 E.8 F2100
M204 S800
;WIDTH:0.53249
G1 F1200
G1 X133.764 Y31.55 E.00557
G1 X133.409 Y31.924 E.02099
;WIDTH:0.507969
G1 X133.123 Y32.156 E.01424
G1 X132.721 Y32.383 E.01785
G1 X132.531 Y32.582 E.01064
;WIDTH:0.476688
G1 X132.341 Y32.782 E.00995
G1 X132.491 Y32.59 E.00879
;WIDTH:0.507969
G1 X132.642 Y32.398 E.00945
G1 X132.855 Y31.901 E.02091
;WIDTH:0.53249
G1 X133.249 Y31.378 E.02666
G1 X133.418 Y31.243 E.00881
G1 X133.656 Y31.274 E.00977
G1 X133.754 Y31.374 E.0057
M204 S1000
;WIPE_START
G1 F8640
G1 X133.796 Y31.417 E-.01388
G1 X133.764 Y31.55 E-.03159
G1 X133.409 Y31.924 E-.11907
G1 X133.123 Y32.156 E-.08503
G1 X132.721 Y32.383 E-.1066
G1 X132.531 Y32.582 E-.06353
G1 X132.341 Y32.782 E-.0637
G1 X132.491 Y32.59 E-.05626
G1 X132.642 Y32.398 E-.0564
G1 X132.855 Y31.901 E-.12485
G1 X133.061 Y31.627 E-.07909
;WIPE_END
G1 Z.6 F720
G1 X130.474 Y35.435 F10800
G1 Z.2 F720
G1 E.8 F2100
M204 S800
;TYPE:Perimeter
;WIDTH:0.419999
G1 F1200
G1 X130.302 Y35.164 E.01006
G1 X129.901 Y34.849 E.01599
G1 X129.405 Y34.638 E.0169
G1 X129.638 Y34.577 E.00755
G1 X130.153 Y34.326 E.01796
G1 X130.319 Y34.196 E.00661
G1 X130.652 Y33.802 E.01617
G1 X130.796 Y33.33 E.01547
G1 X131.022 Y33.476 E.00844
G1 X131.385 Y33.537 E.01154
G1 X131.694 Y33.519 E.0097
G1 X131.699 Y33.762 E.00762
G1 X131.862 Y34.191 E.01439
G1 X132.148 Y34.441 E.01191
G1 X132.002 Y34.531 E.00538
G1 X131.715 Y34.829 E.01297
G1 X131.571 Y35.324 E.01616
G1 X131.577 Y35.582 E.00809
G1 X131.089 Y35.6 E.01531
G1 X130.681 Y35.814 E.01445
G1 X130.584 Y35.609 E.00711
G1 X130.506 Y35.486 E.00457
M204 S1000
;WIPE_START
G1 F8640
G1 X130.474 Y35.435 E-.0139
G1 X130.302 Y35.164 E-.07411
G1 X129.901 Y34.849 E-.11774
G1 X129.405 Y34.638 E-.12446
G1 X129.638 Y34.577 E-.05561
G1 X130.153 Y34.326 E-.13229
G1 X130.319 Y34.196 E-.04868
G1 X130.652 Y33.802 E-.11912
G1 X130.796 Y33.33 E-.11395
G1 X130.797 Y33.33 E-.00014
;WIPE_END
G1 Z.6 F720
G1 X126.963 Y40.216 F10800
G1 Z.2 F720
G1 E.8 F2100
M204 S800
;WIDTH:0.558114
G1 F1200
G1 X127.01 Y40.295 E.00394
;WIDTH:0.541774
G1 X127.129 Y40.525 E.01074
;WIDTH:0.514496
G1 X127.247 Y40.755 E.01014
;WIDTH:0.487218
G1 X127.432 Y41.242 E.01925
G1 X127.417 Y41.484 E.00896
;WIDTH:0.481125
G1 X127.329 Y41.798 E.01188
;WIDTH:0.437311
G1 X127.241 Y42.112 E.01069
;WIDTH:0.438855
G1 X127.192 Y42.225 E.00405
;WIDTH:0.484214
G1 X127.144 Y42.338 E.0045
;WIDTH:0.529573
G1 X127.095 Y42.451 E.00498
;WIDTH:0.574932
G1 X127.046 Y42.564 E.00545
G1 X127.007 Y42.466 E.00467
;WIDTH:0.528278
G1 X126.967 Y42.368 E.00427
;WIDTH:0.481623
G1 X126.928 Y42.271 E.00381
;WIDTH:0.434969
G1 X126.889 Y42.173 E.00344
;WIDTH:0.402856
G1 X126.907 Y41.969 E.00613
;WIDTH:0.445037
G1 X126.953 Y41.637 E.01121
;WIDTH:0.487218
G1 X126.998 Y41.305 E.01238
G1 X126.999 Y40.717 E.02172
;WIDTH:0.522666
G1 X126.981 Y40.466 E.01004
;WIDTH:0.558114
G1 X126.968 Y40.275 E.0082
M204 S1000
;WIPE_START
G1 F8640
G1 X126.963 Y40.216 E-.01367
G1 X127.01 Y40.295 E-.02123
G1 X127.129 Y40.525 E-.05979
G1 X127.247 Y40.755 E-.05969
G1 X127.432 Y41.242 E-.12029
G1 X127.417 Y41.484 E-.05599
G1 X127.329 Y41.798 E-.0753
G1 X127.241 Y42.112 E-.0753
G1 X127.192 Y42.225 E-.02844
G1 X127.144 Y42.338 E-.02835
G1 X127.095 Y42.451 E-.02844
G1 X127.046 Y42.564 E-.02844
G1 X127.007 Y42.466 E-.02435
G1 X126.967 Y42.368 E-.02444
G1 X126.928 Y42.271 E-.02414
G1 X126.889 Y42.173 E-.02435
G1 X126.907 Y41.969 E-.04729
G1 X126.943 Y41.71 E-.0605
;WIPE_END
G1 Z.6 F720
G1 X125.144 Y35.27 F10800
G1 Z.2 F720
G1 E.8 F2100
M204 S800
;WIDTH:0.497383
G1 F1200
G1 X125.02 Y35.468 E.00883
G1 X124.908 Y35.845 E.01486
G1 X124.91 Y36.293 E.01693
G1 X124.983 Y36.499 E.00826
;WIDTH:0.471138
G1 X125.055 Y36.705 E.00777
G1 X124.98 Y36.57 E.0055
;WIDTH:0.497383
G1 X124.599 Y35.94 E.02782
G1 X124.436 Y35.534 E.01653
G1 X124.645 Y35.426 E.00889
G1 X125.087 Y35.288 E.0175
M204 S1000
;WIPE_START
G1 F8640
G1 X125.144 Y35.27 E-.0138
G1 X125.02 Y35.468 E-.05394
G1 X124.908 Y35.845 E-.09081
G1 X124.91 Y36.293 E-.10345
G1 X124.983 Y36.499 E-.05046
G1 X125.055 Y36.705 E-.05039
G1 X124.98 Y36.57 E-.03566
G1 X124.599 Y35.94 E-.17
G1 X124.436 Y35.534 E-.10102
G1 X124.645 Y35.426 E-.05432
G1 X124.96 Y35.328 E-.07615
;WIPE_END
G1 Z.6 F720
G1 X126.963 Y40.216 F10800
G1 Z.2 F720
G1 E.8 F2100
M204 S800
;WIDTH:0.558114
G1 F1200
G1 X126.829 Y39.882 E.01542
;WIDTH:0.514756
G1 X126.694 Y39.549 E.0141
;WIDTH:0.471398
G1 X126.574 Y39.302 E.00978
;WIDTH:0.437865
G1 X126.454 Y39.054 E.00905
;WIDTH:0.404332
G1 X126.028 Y38.298 E.02608
;WIDTH:0.356852
G1 X125.596 Y37.598 E.02147
;WIDTH:0.390361
G1 X125.348 Y37.193 E.01372
;WIDTH:0.42868
G1 X125.1 Y36.789 E.01521
M204 S1000
;WIPE_START
G1 F8640
G1 X126.755 Y39.833 E-.8
;WIPE_END
G1 Z.6 F720
G1 X127.039 Y43.195 F10800
G1 Z.2 F720
G1 E.8 F2100
M204 S800
;WIDTH:0.6217
G1 F1200
G1 X127.039 Y42.932 E.01266
;WIDTH:0.590673
G1 X127.039 Y42.668 E.01202
;WIDTH:0.574932
G1 X127.046 Y42.564 E.00461
M204 S1000
;WIPE_START
G1 F8640
G1 X127.039 Y43.195 E-.14571
G1 X127.039 Y42.932 E-.06073
G1 X127.039 Y42.668 E-.06096
G1 X127.046 Y42.564 E-.02407
;WIPE_END
G1 E-.50853 F2100
G1 Z.6 F720
G1 X132.134 Y34.932 F10800
G1 Z.2 F720
G1 E.8 F2100
M204 S800
;TYPE:External perimeter
;WIDTH:0.419999
G1 F1200
G1 X132.055 Y35 E.00327
G1 X131.938 Y35.41 E.01337
G1 X131.967 Y35.585 E.00556
;WIDTH:0.462835
G1 X132.001 Y35.718 E.00479
;WIDTH:0.50567
G1 X132.035 Y35.85 E.00524
;WIDTH:0.548505
G1 X132.069 Y35.982 E.00573
;WIDTH:0.59134
G1 X132.103 Y36.114 E.00622
G1 X131.967 Y36.076 E.00644
;WIDTH:0.548505
G1 X131.832 Y36.037 E.00591
;WIDTH:0.50567
G1 X131.697 Y35.999 E.0054
;WIDTH:0.462835
G1 X131.562 Y35.961 E.0049
;WIDTH:0.419999
G1 X131.158 Y35.971 E.01267
G1 X130.835 Y36.179 E.01205
;WIDTH:0.461005
G1 X130.726 Y36.349 E.00702
;WIDTH:0.50201
G1 X130.617 Y36.52 E.00774
;WIDTH:0.543015
G1 X130.508 Y36.69 E.0084
;WIDTH:0.58402
G1 X130.399 Y36.86 E.00909
G1 X130.385 Y36.744 E.00526
;WIDTH:0.543015
G1 X130.372 Y36.628 E.00485
;WIDTH:0.50201
G1 X130.359 Y36.512 E.00446
;WIDTH:0.461005
G1 X130.345 Y36.396 E.00406
;WIDTH:0.419999
G1 X130.289 Y35.873 E.01649
G1 X130.023 Y35.42 E.01647
G1 X129.679 Y35.155 E.01362
G1 X129.364 Y35.022 E.01072
G1 X128.851 Y34.92 E.0164
;WIDTH:0.445584
G1 X128.325 Y34.871 E.01769
G1 X127.598 Y34.899 E.02436
;WIDTH:0.423974
G1 X127.033 Y34.951 E.01798
;WIDTH:0.441697
G1 X126.242 Y35.066 E.0265
G1 X125.874 Y35.201 E.013
;WIDTH:0.424458
G1 X125.53 Y35.451 E.01349
;WIDTH:0.419999
G1 X125.378 Y35.68 E.00862
G1 X125.315 Y35.93 E.00808
G1 X125.317 Y36.18 E.00784
G1 X125.439 Y36.614 E.01414
G1 X125.686 Y37.094 E.01693
G1 X126.639 Y38.628 E.05662
G1 X127.052 Y39.364 E.02646
G1 X127.628 Y40.602 E.04281
G1 X127.859 Y41.234 E.0211
G1 X127.84 Y41.512 E.00874
G1 X127.603 Y42.17 E.02193
G1 X127.5 Y42.615 E.01432
G1 X127.53 Y43.717 E.03457
G1 X126.584 Y43.665 E.02971
G1 X126.546 Y43.428 E.00753
G1 X126.588 Y42.723 E.02214
G1 X126.533 Y42.232 E.01549
G1 X126.587 Y41.347 E.0278
G1 X126.593 Y40.796 E.01728
G1 X126.533 Y40.334 E.01461
G1 X126.32 Y39.7 E.02097
G1 X126 Y38.985 E.02456
M73 Q1 S44
G1 X125.716 Y38.45 E.01899
G1 X125.299 Y37.772 E.02496
G1 X124.483 Y36.553 E.04599
G1 X124.191 Y36.065 E.01783
M73 P1 R44
G1 X123.996 Y35.544 E.01744
G1 X124.016 Y35.391 E.00484
G1 X124.142 Y35.238 E.00621
G1 X124.51 Y35.032 E.01322
G1 X125.018 Y34.873 E.01669
G1 X125.625 Y34.747 E.01944
;WIDTH:0.441697
G1 X127 Y34.572 E.04596
;WIDTH:0.423974
G1 X127.59 Y34.523 E.01876
;WIDTH:0.445584
G1 X128.297 Y34.469 E.02374
G1 X128.806 Y34.393 E.01723
;WIDTH:0.419999
G1 X129.548 Y34.21 E.02396
G1 X129.979 Y33.992 E.01514
G1 X130.317 Y33.624 E.01567
G1 X130.445 Y33.169 E.01482
;WIDTH:0.420837
G1 X130.379 Y32.635 E.01691
;WIDTH:0.436881
G1 X130.318 Y31.971 E.02184
;WIDTH:0.463793
G1 X130.318 Y31.485 E.01701
;WIDTH:0.490705
G1 X130.317 Y30.999 E.0181
G1 X130.381 Y30.804 E.00764
G1 X130.551 Y30.858 E.00664
G1 X130.721 Y31.055 E.00969
G1 X130.754 Y31.35 E.01105
;WIDTH:0.490143
G1 X130.733 Y31.683 E.01241
;WIDTH:0.462127
G1 X130.711 Y32.015 E.0116
;WIDTH:0.43411
G1 X130.755 Y32.598 E.01902
;WIDTH:0.420837
G1 X130.896 Y32.927 E.01125
;WIDTH:0.419999
G1 X131.161 Y33.126 E.01039
G1 X131.583 Y33.16 E.01327
;WIDTH:0.424176
G1 X132.068 Y32.985 E.01635
;WIDTH:0.443691
G1 X132.303 Y32.826 E.00946
G1 X132.1 Y33.288 E.01682
;WIDTH:0.419999
G1 X132.063 Y33.617 E.01038
G1 X132.168 Y33.971 E.01158
G1 X132.559 Y34.261 E.01526
G1 X132.844 Y34.312 E.00908
;WIDTH:0.393262
G1 X133.13 Y34.363 E.00846
;WIDTH:0.399494
G1 X133.404 Y34.361 E.00812
;WIDTH:0.432462
G1 X133.679 Y34.36 E.00891
;WIDTH:0.469665
G1 X134.124 Y34.329 E.01583
;WIDTH:0.506867
G1 X134.57 Y34.299 E.01724
G1 X134.834 Y34.39 E.01077
G1 X134.978 Y34.542 E.00808
G1 X134.893 Y34.635 E.00486
G1 X134.677 Y34.728 E.00907
;WIDTH:0.508417
G1 X134.476 Y34.757 E.00786
G1 X134.06 Y34.75 E.0161
;WIDTH:0.469215
G1 X133.645 Y34.744 E.01471
;WIDTH:0.430013
G1 X133.342 Y34.71 E.00981
;WIDTH:0.39937
G1 X133.039 Y34.676 E.00904
;WIDTH:0.394363
G1 X132.784 Y34.689 E.00746
;WIDTH:0.419999
G1 X132.529 Y34.702 E.00801
G1 X132.323 Y34.767 E.00677
G1 X132.179 Y34.892 E.00598
M204 S1000
;WIPE_START
G1 F8640
G1 X132.134 Y34.932 E-.0139
G1 X132.055 Y35 E-.02407
G1 X131.938 Y35.41 E-.09845
G1 X131.967 Y35.585 E-.04096
G1 X132.001 Y35.718 E-.0317
G1 X132.035 Y35.85 E-.03147
G1 X132.069 Y35.982 E-.03147
G1 X132.103 Y36.114 E-.03147
G1 X131.967 Y36.076 E-.03261
G1 X131.832 Y36.037 E-.03245
G1 X131.697 Y35.999 E-.03238
G1 X131.562 Y35.961 E-.03238
G1 X131.158 Y35.971 E-.09331
G1 X130.835 Y36.179 E-.08871
G1 X130.726 Y36.349 E-.04663
G1 X130.617 Y36.52 E-.04682
G1 X130.508 Y36.69 E-.04663
G1 X130.404 Y36.852 E-.04459
;WIPE_END
G1 Z.6 F720
G1 X130.839 Y33.797 F10800
G1 Z.2 F720
G1 E.8 F2100
M204 S800
;TYPE:Solid infill
;WIDTH:0.424223
G1 F1200
G1 X131.544 Y34.502 E.03161
G1 X131.421 Y34.659 E.00632
G1 X131.346 Y34.843 E.0063
G1 X130.733 Y34.231 E.02746
G1 X130.476 Y34.513 E.0121
G1 X131.369 Y35.406 E.04004
M204 S1000
;WIPE_START
G1 F8640
G1 X130.476 Y34.513 E-.29161
G1 X130.733 Y34.231 E-.0881
G1 X131.346 Y34.843 E-.20001
G1 X131.421 Y34.659 E-.04588
G1 X131.544 Y34.502 E-.04605
G1 X131.151 Y34.109 E-.12835
;WIPE_END
G1 Z.6 F720
G1 X93.574 Y38.901 F10800
G1 Z.2 F720
G1 E.8 F2100
M204 S800
;TYPE:External perimeter
;WIDTH:0.655882
G1 F1200
G1 X93.753 Y38.77 E.01131
M204 S1000
;WIPE_START
G1 F8640
G1 X93.574 Y38.901 E-.05122
G1 X93.753 Y38.77 E-.05122
;WIPE_END
G1 E-.69756 F2100
G1 Z.6 F720
G1 X94.075 Y35.23 F10800
G1 Z.2 F720
G1 E.8 F2100
M204 S800
;WIDTH:0.562556
G1 F1200
G1 X94.168 Y35.417 E.00902
M204 S1000
;WIPE_START
G1 F8640
G1 X94.075 Y35.23 E-.04822
G1 X94.168 Y35.417 E-.04822
;WIPE_END
G1 E-.70356 F2100
G1 Z.6 F720
G1 X93.274 Y33.883 F10800
G1 Z.2 F720
G1 E.8 F2100
M204 S800
;TYPE:Perimeter
;WIDTH:0.3581
G1 F1200
