; generated by PrusaSlicer 2.9.0 on 2025-01-13 at 18:52:12 UTC


;
;
; 

; external perimeters extrusion width = 1.00mm
; perimeters extrusion width = 1.00mm
; infill extrusion width = 0.65mm
; solid infill extrusion width = 0.65mm
; top infill extrusion width = 0.60mm
; first layer extrusion width = 0.65mm

M73 P0 R49
M73 Q0 S50
M201 X1000 Y1000 Z200 E5000 ; sets maximum accelerations, mm/sec^2
M203 X200 Y200 Z12 E120 ; sets maximum feedrates, mm / sec
M204 S1250 T1250 ; sets acceleration (S) and retract acceleration (R), mm/sec^2
M205 X8.00 Y8.00 Z0.40 E4.50 ; sets the jerk limits, mm/sec
M205 S0 T0 ; sets the minimum extruding and travel feed rate, mm/sec

; printing object Lizard.stl id:0 copy 0
; stop printing object Lizard.stl id:0 copy 0

;TYPE:Custom
M862.3 P "MK3S" ; printer model check
M862.1 P0.6 ; nozzle diameter check
M115 U3.13.3 ; tell printer latest fw version
G90 ; use absolute coordinates
M83 ; extruder relative mode
M104 S215 ; set extruder temp
M140 S60 ; set bed temp
M190 S60 ; wait for bed temp
M109 S215 ; wait for extruder temp
G28 W ; home all without mesh bed level
G80 X40.3674 Y15.9916 W178.021 H63.3014 ; mesh bed levelling

G1 Z0.2 F720
G1 Y-3 F1000 ; go outside print area
G92 E0
G1 X60 E9 F1000 ; intro line
G1 X100 E12.5 F1000 ; intro line

G92 E0
M221 S95
G21 ; set units to millimeters
G90 ; use absolute coordinates
M83 ; use relative distances for extrusion
M900 K0.04 ; Filament gcode LA 1.5
M900 K18 ; Filament gcode LA 1.0
M107
;LAYER_CHANGE
;Z:0.2
;HEIGHT:0.2
G1 E-.8 F2100
G1 Z.6 F720
G1 X42.452 Y43.067 F10800
G1 Z.2 F720
G1 E.8 F1500
M204 S800
;TYPE:Skirt/Brim
;WIDTH:0.65
G1 F1200
G1 X66.631 Y22.003 E1.61872
G3 X68.994 Y21.038 I2.749 J3.357 E.13078
G1 X131.301 Y16.3 E3.15427
G1 X136.827 Y17.013 E.28126
G1 X137.544 Y17.186 E.03723
G1 X215.239 Y43.386 E4.13895
G3 X215.107 Y51.979 I-1.746 J4.271 E.55801
G1 X137.633 Y78.099 E4.12708
G1 X136.917 Y78.271 E.03717
G1 X131.229 Y78.989 E.2894
G1 X68.959 Y74.23 E3.15249
G3 X66.596 Y73.266 I.389 J-4.329 E.13075
M73 Q0 S49
G1 X43.115 Y52.882 E1.56961
G3 X41.082 Y50.101 I5.009 J-5.796 E.17539
G3 X42.392 Y43.134 I6.41 J-2.401 E.37615
M204 S1000
;WIPE_START
G1 F8640
G1 X42.452 Y43.067 E-.02077
G1 X44.997 Y40.85 E-.77923
;WIPE_END
G1 Z.6 F720
; printing object Lizard.stl id:0 copy 0
G1 X131.089 Y30.169 F10800
G1 Z.2 F720
G1 E.8 F1500
M204 S800
;TYPE:External perimeter
;WIDTH:0.866594
G1 F1200
G1 X131.204 Y29.431 E.05115
;WIDTH:0.84618
G1 X131.225 Y29.351 E.00552
M204 S1000
;WIPE_START
G1 F8640
G1 X131.089 Y30.169 E-.19147
G1 X131.204 Y29.431 E-.17246
G1 X131.225 Y29.351 E-.0191
;WIPE_END
G1 E-.41697 F2100
G1 Z.6 F720
G1 X134.577 Y28.999 F10800
G1 Z.2 F720
G1 E.8 F1500
M204 S800
;WIDTH:0.813734
G1 F1200
G1 X134.07 Y28.521 E.04466
M204 S1000
G1 X134.577 Y28.999 F10800
M204 S800
G1 F1200
G1 X134.715 Y29.076 E.01013
;WIDTH:0.800389
G1 X135.523 Y29.399 E.05481
;WIDTH:0.765828
G1 X136.363 Y29.947 E.06029
;WIDTH:0.762391
G1 X136.571 Y30.243 E.02164
G1 X136.617 Y30.514 E.01644
G3 X136.351 Y30.644 I-.261 J-.197 E.01838
G1 X136.017 Y30.575 E.0204
;WIDTH:0.765828
G3 X135.092 Y29.759 I3.589 J-4.999 E.07427
;WIDTH:0.813734
G1 X134.627 Y29.073 E.05312
M204 S1000
;WIPE_START
G1 F8640
G1 X134.577 Y28.999 E-.02062
G1 X134.715 Y29.076 E-.03649
G1 X135.523 Y29.399 E-.20092
G1 X136.363 Y29.947 E-.23158
G1 X136.571 Y30.243 E-.08353
G1 X136.617 Y30.514 E-.06347
G3 X136.351 Y30.644 I-.261 J-.197 E-.07095
G1 X136.017 Y30.575 E-.07875
G3 X135.969 Y30.54 I3.589 J-4.999 E-.01369
;WIPE_END
G1 Z.6 F720
G1 X131.089 Y30.169 F10800
G1 Z.2 F720
G1 E.8 F1500
M204 S800
;WIDTH:0.866594
G1 F1200
G1 X131.107 Y30.256 E.00608
;WIDTH:0.83539
G1 X131.161 Y30.493 E.01602
;WIDTH:0.792525
G1 X131.215 Y30.73 E.01515
;WIDTH:0.74966
G1 X131.269 Y30.967 E.01428
;WIDTH:0.706795
G1 X131.323 Y31.204 E.01342
;WIDTH:0.663929
G1 X131.31 Y31.716 E.02645
;WIDTH:0.6512
G1 X131.183 Y32.039 E.01755
G3 X130.804 Y31.98 I-.121 J-.469 E.01995
G1 X130.704 Y31.672 E.01638
;WIDTH:0.663929
G1 X130.712 Y31.135 E.02773
;WIDTH:0.704462
G1 X130.788 Y30.942 E.01141
;WIDTH:0.744995
G1 X130.863 Y30.749 E.01209
;WIDTH:0.785528
G1 X130.938 Y30.555 E.01284
;WIDTH:0.826061
G1 X131.014 Y30.362 E.01351
;WIDTH:0.866594
G1 X131.056 Y30.252 E.00806
M204 S1000
;WIPE_START
G1 F8640
G1 X131.089 Y30.169 E-.02062
G1 X131.107 Y30.256 E-.02051
G1 X131.161 Y30.493 E-.05613
G1 X131.215 Y30.73 E-.05613
G1 X131.269 Y30.967 E-.05613
G1 X131.323 Y31.204 E-.05613
G1 X131.31 Y31.716 E-.11826
G1 X131.183 Y32.039 E-.08014
G3 X130.804 Y31.98 I-.121 J-.469 E-.09106
G1 X130.704 Y31.672 E-.07477
G1 X130.712 Y31.135 E-.12401
G1 X130.785 Y30.949 E-.04611
;WIPE_END
G1 Z.6 F720
G1 X134.418 Y22.853 F10800
G1 Z.2 F720
G1 E.8 F1500
M204 S800
;WIDTH:0.617176
G1 F1200
G1 X134.633 Y22.577 E.01671
;WIDTH:0.649999
G1 X134.848 Y22.301 E.01766
G1 X135.229 Y21.381 E.05027
G2 X135.866 Y20.36 I-8.502 J-6.016 E.06078
G1 X136.102 Y20.15 E.01595
G1 X136.362 Y20.102 E.01335
G3 X136.953 Y20.413 I-.167 J1.036 E.03431
M73 Q1 S49
G1 X137.013 Y20.66 E.01283
G1 X136.923 Y20.893 E.01261
G1 X136.591 Y21.228 E.02381
G3 X135.028 Y22.237 I-5.619 J-6.996 E.09408
G2 X134.633 Y22.624 I2.3 J2.738 E.02794
M73 P1 R49
;WIDTH:0.617176
G1 X134.479 Y22.788 E.01074
M204 S1000
;WIPE_START
G1 F8640
G1 X134.418 Y22.853 E-.02058
G1 X134.633 Y22.577 E-.08078
G1 X134.848 Y22.301 E-.08078
G1 X135.229 Y21.381 E-.22993
G2 X135.866 Y20.36 I-8.504 J-6.015 E-.27803
G1 X136.102 Y20.15 E-.07294
G1 X136.259 Y20.121 E-.03696
;WIPE_END
G1 Z.6 F720
G1 X131.58 Y27.93 F10800
G1 Z.2 F720
G1 E.8 F1500
M204 S800
;TYPE:Perimeter
;WIDTH:0.649999
G1 F1200
G2 X131.27 Y27.255 I-2.356 J.672 E.03764
G2 X130.61 Y26.597 I-2.179 J1.525 E.04729
G2 X129.041 Y25.988 I-2.348 J3.728 E.08548
G2 X130.719 Y25.361 I-.978 J-5.172 E.09087
G2 X131.418 Y24.715 I-3.152 J-4.116 E.04811
G2 X131.796 Y23.877 I-2.149 J-1.473 E.04665
G2 X132.879 Y24.193 I1.204 J-2.107 E.05747
G1 X133.28 Y24.139 E.02042
G2 X133.425 Y25.013 I2.195 J.085 E.04503
G2 X133.988 Y25.655 I1.528 J-.771 E.04356
G2 X133.507 Y26.011 I.523 J1.211 E.03047
G1 X133.195 Y26.495 E.02907
G1 X133.073 Y26.898 E.02125
G1 X133.092 Y27.497 E.03025
G2 X132.299 Y27.522 I-.313 J2.61 E.0402
G1 X131.803 Y27.74 E.02735
G1 X131.648 Y27.872 E.01028
M204 S1000
;WIPE_START
G1 F8640
G1 X131.58 Y27.93 E-.02064
G2 X131.27 Y27.255 I-2.356 J.673 E-.17217
G2 X130.61 Y26.597 I-2.179 J1.525 E-.21631
G2 X129.041 Y25.988 I-2.349 J3.728 E-.39088
;WIPE_END
G1 Z.6 F720
G1 X125.887 Y35.713 F10800
G1 Z.2 F720
G1 E.8 F1500
M204 S800
;WIDTH:0.65823
G1 F1200
G1 X125.907 Y35.77 E.00309
;WIDTH:0.698527
G1 X125.986 Y36.003 E.01341
;WIDTH:0.738824
G1 X126.066 Y36.236 E.01426
;WIDTH:0.781735
G1 X126.131 Y36.473 E.0151
;WIDTH:0.824645
G1 X126.197 Y36.71 E.01599
;WIDTH:0.867555
G1 X126.263 Y36.948 E.01694
;WIDTH:0.872068
G3 X126.186 Y37.483 I-1.52 J.057 E.03746
;WIDTH:0.843348
G1 X126.114 Y37.787 E.02079
;WIDTH:0.814628
G1 X126.045 Y38.03 E.01621
;WIDTH:0.778994
G1 X125.977 Y38.274 E.0155
;WIDTH:0.74336
G1 X125.909 Y38.517 E.0147
;WIDTH:0.707725
G1 X125.884 Y38.725 E.01158
;WIDTH:0.667792
G1 X125.859 Y38.932 E.01083
;WIDTH:0.627858
G1 X125.833 Y39.14 E.0102
;WIDTH:0.587924
G1 X125.819 Y39.78 E.02901
;WIDTH:0.617552
G1 X125.9 Y40.52 E.03557
G2 X125.251 Y40.412 I-.712 J2.288 E.03154
G1 X125.283 Y39.608 E.03845
;WIDTH:0.589633
G1 X125.29 Y39.077 E.02414
;WIDTH:0.628997
G1 X125.28 Y38.883 E.00947
;WIDTH:0.668361
G1 X125.27 Y38.689 E.0101
;WIDTH:0.707725
G1 X125.26 Y38.496 E.01068
;WIDTH:0.744205
G1 X125.292 Y38.094 E.02352
;WIDTH:0.779417
G1 X125.332 Y37.847 E.01532
;WIDTH:0.814628
G1 X125.372 Y37.6 E.01606
;WIDTH:0.841092
G1 X125.408 Y37.306 E.01966
;WIDTH:0.867555
G2 X125.428 Y36.823 I-1.411 J-.299 E.0333
;WIDTH:0.829322
G1 X125.411 Y36.633 E.01247
;WIDTH:0.791088
G1 X125.394 Y36.443 E.01187
;WIDTH:0.752855
G1 X125.377 Y36.253 E.01126
;WIDTH:0.714621
G1 X125.333 Y36.018 E.01335
;WIDTH:0.674864
G1 X125.289 Y35.783 E.01256
;WIDTH:0.635107
G1 X125.245 Y35.548 E.01177
;WIDTH:0.595349
G1 X125.17 Y35.291 E.0123
;WIDTH:0.569909
G1 X125.094 Y35.034 E.01174
;WIDTH:0.583749
G1 X125.101 Y34.981 E.0024
;WIDTH:0.623029
G1 X125.107 Y34.928 E.00257
;WIDTH:0.672278
G1 X125.107 Y34.855 E.00382
;WIDTH:0.721527
G1 X125.107 Y34.783 E.00406
;WIDTH:0.770775
G1 X125.107 Y34.711 E.00436
;WIDTH:0.820024
G1 X125.107 Y34.638 E.00472
;WIDTH:0.869273
G1 X125.106 Y34.566 E.00495
;WIDTH:0.918522
G1 X125.106 Y34.493 E.00531
;WIDTH:0.96777
G1 X125.106 Y34.421 E.00554
G1 X125.158 Y34.471 E.00555
;WIDTH:0.91991
G1 X125.209 Y34.521 E.00521
;WIDTH:0.87205
G1 X125.261 Y34.571 E.00497
;WIDTH:0.82419
G1 X125.312 Y34.621 E.00464
;WIDTH:0.77633
G1 X125.364 Y34.671 E.0044
;WIDTH:0.72847
G1 X125.416 Y34.721 E.00411
;WIDTH:0.68061
G1 X125.467 Y34.771 E.00379
;WIDTH:0.632749
G1 X125.519 Y34.821 E.00354
;WIDTH:0.584889
G1 X125.619 Y34.996 E.00908
;WIDTH:0.588642
G1 X125.723 Y35.266 E.01313
;WIDTH:0.617933
G1 X125.827 Y35.536 E.01383
;WIDTH:0.65823
G1 X125.858 Y35.628 E.00497
M204 S1000
;WIPE_START
G1 F8640
G1 X125.887 Y35.713 E-.02074
G1 X125.907 Y35.77 E-.01395
G1 X125.986 Y36.003 E-.05681
G1 X126.066 Y36.236 E-.05688
G1 X126.131 Y36.473 E-.05674
G1 X126.197 Y36.71 E-.05681
G1 X126.263 Y36.948 E-.05703
G3 X126.186 Y37.483 I-1.52 J.054 E-.12547
G1 X126.114 Y37.787 E-.07214
G1 X126.045 Y38.03 E-.05833
G1 X125.977 Y38.274 E-.05849
G1 X125.909 Y38.517 E-.05826
G1 X125.884 Y38.725 E-.04837
G1 X125.859 Y38.932 E-.04814
G1 X125.853 Y38.983 E-.01184
;WIPE_END
G1 Z.6 F720
G1 X122.509 Y26.946 F10800
G1 Z.2 F720
G1 E.8 F1500
M204 S800
;WIDTH:0.897981
G1 F1200
G1 X122.16 Y27.525 E.04807
G2 X122.024 Y28.422 I3.305 J.961 E.06469
;WIDTH:0.933307
G1 X122.083 Y28.806 E.02876
;WIDTH:0.968632
G1 X122.142 Y29.19 E.0299
G1 X121.915 Y28.866 E.03045
;WIDTH:0.933307
G1 X121.687 Y28.542 E.02933
;WIDTH:0.897981
G1 X121.289 Y27.828 E.05812
G1 X121.164 Y27.45 E.02831
G3 X122.421 Y26.965 I2.251 J3.958 E.09615
M204 S1000
;WIPE_START
G1 F8640
G1 X122.509 Y26.946 E-.02079
G1 X122.16 Y27.525 E-.1561
G2 X122.024 Y28.422 I3.305 J.96 E-.2101
G1 X122.083 Y28.806 E-.08971
G1 X122.142 Y29.19 E-.08971
G1 X121.915 Y28.866 E-.09135
G1 X121.687 Y28.542 E-.09148
G1 X121.58 Y28.35 E-.05076
;WIPE_END
G1 Z.6 F720
G1 X125.106 Y34.421 F10800
G1 Z.2 F720
G1 E.8 F1500
M204 S800
;WIDTH:0.96777
G1 F1200
G1 X124.966 Y34.111 E.02616
;WIDTH:0.920211
G1 X124.826 Y33.8 E.02488
;WIDTH:0.872652
G1 X124.639 Y33.433 E.02842
;WIDTH:0.841109
G1 X124.452 Y33.067 E.02728
;WIDTH:0.809566
G1 X124.005 Y32.287 E.05731
;WIDTH:0.761072
G1 X123.985 Y32.254 E.0023
;WIDTH:0.759492
G1 X123.42 Y31.324 E.06484
;WIDTH:0.74657
G1 X123.003 Y30.664 E.04568
;WIDTH:0.786508
G1 X122.672 Y30.136 E.03853
;WIDTH:0.832039
G1 X122.54 Y29.899 E.0178
;WIDTH:0.87757
G1 X122.407 Y29.663 E.0188
;WIDTH:0.923101
G1 X122.274 Y29.426 E.01989
;WIDTH:0.968632
G1 X122.142 Y29.19 E.02081
M204 S1000
G1 X122.142 Y29.19 F10800
G1 X122.834 Y28.832
M204 S800
;TYPE:External perimeter
;WIDTH:0.649999
G1 F1200
G1 X122.841 Y28.876 E.00225
G2 X123.559 Y30.318 I9.191 J-3.678 E.0814
G3 X125.683 Y33.86 I-46.976 J30.567 E.20853
G3 X126.91 Y36.615 I-22.301 J11.582 E.15233
G1 X127.022 Y37.124 E.02631
G3 X126.526 Y38.671 I-15.614 J-4.148 E.08204
G2 X126.388 Y39.704 I3.151 J.949 E.05283
G3 X126.508 Y41.11 I-6.796 J1.288 E.07136
G1 X126.472 Y41.145 E.00253
G3 X125.365 Y41.003 I-.11 J-3.52 E.05658
G1 X124.674 Y41.004 E.03488
G3 X124.671 Y40.255 I2.566 J-.385 E.03794
G2 X124.634 Y38.608 I-5.311 J-.705 E.08349
G3 X124.729 Y36.999 I16.329 J.159 E.08139
G2 X124.387 Y34.686 I-5.047 J-.437 E.1191
G2 X123.416 Y32.592 I-11.613 J4.113 E.11669
G2 X121.26 Y29.253 I-39.682 J23.267 E.20069
G3 X120.54 Y27.943 I8.006 J-5.246 E.07553
G1 X120.422 Y27.465 E.02485
G3 X120.576 Y26.988 I.599 J-.07 E.02609
G3 X121.791 Y26.386 I2.03 J2.571 E.06895
G1 X122.586 Y26.181 E.04144
;WIDTH:0.652668
G1 X123.212 Y26.061 E.03232
;WIDTH:0.700708
G1 X123.419 Y26.055 E.01133
;WIDTH:0.748748
G1 X123.626 Y26.05 E.01215
;WIDTH:0.796787
G2 X124.417 Y25.951 I-.159 J-4.471 E.05004
;WIDTH:0.755531
G1 X125.331 Y25.841 E.05455
;WIDTH:0.732706
G1 X126.545 Y25.738 E.06988
;WIDTH:0.733803
G1 X126.595 Y25.734 E.00288
;WIDTH:0.758256
G1 X127.187 Y25.695 E.03529
;WIDTH:0.794288
G2 X128.078 Y25.576 I-.164 J-4.635 E.05625
;WIDTH:0.746192
G1 X128.363 Y25.512 E.01708
;WIDTH:0.698096
G1 X128.649 Y25.449 E.01595
;WIDTH:0.649999
G2 X129.819 Y25.142 I-1.214 J-7.012 E.06113
G2 X130.6 Y24.681 I-1.301 J-3.1 E.04592
G1 X130.98 Y24.295 E.02734
G1 X131.19 Y23.824 E.02603
;WIDTH:0.653261
G1 X131.244 Y23.314 E.02603
;WIDTH:0.656943
G1 X131.159 Y22.77 E.02811
;WIDTH:0.657401
G1 X131.061 Y21.948 E.0423
;WIDTH:0.704779
G1 X131.031 Y21.286 E.03647
;WIDTH:0.751217
G1 X131.014 Y20.956 E.01946
;WIDTH:0.797655
G1 X130.996 Y20.625 E.0208
;WIDTH:0.844092
G3 X130.997 Y19.784 I5.888 J-.416 E.05607
G1 X131.088 Y19.524 E.01835
G1 X131.327 Y19.562 E.01612
G3 X131.737 Y19.975 I-.468 J.875 E.03935
;WIDTH:0.84434
G3 X131.746 Y20.685 I-2.187 J.384 E.04752
;WIDTH:0.795087
G1 X131.716 Y21.012 E.02054
;WIDTH:0.745833
G1 X131.686 Y21.34 E.01925
;WIDTH:0.696579
G1 X131.677 Y21.996 E.03566
;WIDTH:0.656943
G1 X131.767 Y22.681 E.03527
G1 X131.905 Y23.061 E.02064
;WIDTH:0.654661
G1 X132.11 Y23.319 E.01676
;WIDTH:0.649999
G2 X133.015 Y23.578 I.773 J-.987 E.04871
G2 X133.936 Y23.28 I-.551 J-3.273 E.04904
;WIDTH:0.648929
G1 X134.141 Y23.111 E.01339
;WIDTH:0.618521
G1 X134.345 Y22.942 E.01268
;WIDTH:0.634013
G1 X134.111 Y23.269 E.01976
;WIDTH:0.649999
G2 X133.875 Y24.288 I2.237 J1.054 E.0532
G2 X134.139 Y25.005 I1.343 J-.087 E.03911
G1 X134.576 Y25.315 E.02705
G1 X134.916 Y25.411 E.01783
;WIDTH:0.620407
G1 X135.256 Y25.507 E.01696
;WIDTH:0.590814
G1 X135.61 Y25.531 E.01616
;WIDTH:0.559277
G1 X135.964 Y25.555 E.01523
;WIDTH:0.571463
G1 X136.278 Y25.54 E.01382
;WIDTH:0.608274
G1 X136.467 Y25.531 E.00889
;WIDTH:0.645085
G1 X136.655 Y25.522 E.00942
;WIDTH:0.681896
G1 X136.844 Y25.513 E.01005
;WIDTH:0.723972
G1 X137.164 Y25.492 E.01816
;WIDTH:0.766048
G1 X137.484 Y25.471 E.01928
;WIDTH:0.813761
G1 X137.845 Y25.425 E.02333
;WIDTH:0.861474
G1 X138.207 Y25.38 E.02483
G3 X138.785 Y25.696 I-.257 J1.154 E.04544
G1 X138.844 Y25.821 E.00941
G1 X138.771 Y25.94 E.0095
G1 X138.408 Y26.156 E.02875
G1 X137.94 Y26.199 E.03199
;WIDTH:0.847468
G1 X137.689 Y26.187 E.01681
;WIDTH:0.800016
G1 X137.438 Y26.175 E.01582
;WIDTH:0.752563
G1 X137.114 Y26.157 E.01915
;WIDTH:0.716509
G1 X136.79 Y26.139 E.01817
;WIDTH:0.680455
G1 X136.621 Y26.114 E.00906
;WIDTH:0.644125
G1 X136.452 Y26.089 E.00854
;WIDTH:0.607794
G1 X136.282 Y26.063 E.00808
;WIDTH:0.571463
G1 X135.592 Y25.998 E.03046
;WIDTH:0.56032
G1 X135.423 Y25.992 E.00728
;WIDTH:0.595419
G1 X135.253 Y25.986 E.00781
;WIDTH:0.630518
G1 X135.083 Y25.98 E.00831
;WIDTH:0.649999
G2 X134.103 Y26.276 I.217 J2.488 E.05205
G2 X133.687 Y26.933 I1.07 J1.137 E.03967
G1 X133.69 Y27.415 E.02433
;WIDTH:0.667555
G1 X133.875 Y28.049 E.0343
;WIDTH:0.709032
G1 X133.94 Y28.206 E.00941
;WIDTH:0.750509
G1 X134.005 Y28.364 E.01005
;WIDTH:0.791986
G1 X134.07 Y28.521 E.01058
G1 X133.992 Y28.461 E.00613
;WIDTH:0.768727
G1 X133.848 Y28.4 E.00944
;WIDTH:0.729151
G1 X133.705 Y28.338 E.00889
;WIDTH:0.689575
G1 X133.561 Y28.277 E.00841
;WIDTH:0.649999
G1 X132.98 Y28.089 E.03083
G1 X132.48 Y28.107 E.02526
G2 X131.901 Y28.456 I.335 J1.209 E.03455
;WIDTH:0.655021
G1 X131.535 Y28.934 E.03064
;WIDTH:0.702339
G1 X131.458 Y29.037 E.00705
;WIDTH:0.749657
G1 X131.381 Y29.14 E.00756
;WIDTH:0.796975
G1 X131.303 Y29.243 E.0081
;WIDTH:0.844293
G1 X131.226 Y29.346 E.00857
G1 X131.201 Y29.217 E.00876
;WIDTH:0.796926
G1 X131.175 Y29.087 E.00831
;WIDTH:0.749559
G1 X131.149 Y28.958 E.00773
;WIDTH:0.702192
G1 X131.124 Y28.829 E.0072
;WIDTH:0.654824
G1 X130.994 Y28.066 E.03938
;WIDTH:0.649999
G1 X130.736 Y27.543 E.02944
G2 X129.661 Y26.786 I-1.844 J1.478 E.06726
G2 X128.47 Y26.517 I-2.111 J6.561 E.06172
;WIDTH:0.696233
G1 X128.236 Y26.474 E.01292
;WIDTH:0.742466
G1 X128.003 Y26.431 E.01378
;WIDTH:0.788699
G2 X127.209 Y26.408 I-.471 J2.505 E.04946
;WIDTH:0.757116
G1 X126.603 Y26.425 E.036
;WIDTH:0.732706
G1 X125.393 Y26.523 E.06963
;WIDTH:0.731969
G1 X125.283 Y26.538 E.00636
;WIDTH:0.759849
