; generated by PrusaSlicer 2.9.0 on 2025-01-15 at 03:07:31 UTC


;
;
; 

; external perimeters extrusion width = 0.45mm
; perimeters extrusion width = 0.45mm
; infill extrusion width = 0.45mm
; solid infill extrusion width = 0.45mm
; top infill extrusion width = 0.40mm
; first layer extrusion width = 0.42mm

M73 P0 R10
M73 C2
M73 Q0 S10
M73 D2
M201 X1000 Y1000 Z200 E5000 ; sets maximum accelerations, mm/sec^2
M203 X200 Y200 Z12 E120 ; sets maximum feedrates, mm / sec
M204 S1250 T1250 ; sets acceleration (S) and retract acceleration (R), mm/sec^2
M205 X8.00 Y8.00 Z0.40 E4.50 ; sets the jerk limits, mm/sec
M205 S0 T0 ; sets the minimum extruding and travel feed rate, mm/sec

; printing object flower_1.8.1-med-trumpet-stigma5.stl id:0 copy 0
; stop printing object flower_1.8.1-med-trumpet-stigma5.stl id:0 copy 0

;TYPE:Custom
M862.3 P "MK3S" ; printer model check
M862.1 P0.4 ; nozzle diameter check
M115 U3.13.3 ; tell printer latest fw version
G90 ; use absolute coordinates
M83 ; extruder relative mode
M104 S215 ; set extruder temp
M140 S60 ; set bed temp
M190 S60 ; wait for bed temp
M109 S215 ; wait for extruder temp
G28 W ; home all without mesh bed level
G80 X117.439 Y96.8403 W15.5625 H16.3414 ; mesh bed levelling

G1 Z0.2 F720
G1 Y-3 F1000 ; go outside print area
G92 E0
G1 X60 E9 F1000 ; intro line
G1 X100 E12.5 F1000 ; intro line
M73 C1
M73 D1

G92 E0
M221 S95

; Don't change E values below. Excessive value can damage the printer.
M907 E430 ; set extruder motor current
G21 ; set units to millimeters
G90 ; use absolute coordinates
M83 ; use relative distances for extrusion

M900 K0.05 ; Filament gcode LA 1.5
M900 K30 ; Filament gcode LA 1.0




M107
;LAYER_CHANGE
;Z:0.2
;HEIGHT:0.2
G1 E-.8 F2100
G1 Z.6 F720
M73 P1 R10
M73 Q1 S10
G1 X119.174 Y100.338 F10800
G1 Z.2 F720
G1 E.8 F2100
M204 S800
;TYPE:Skirt/Brim
;WIDTH:0.42
G1 F1200
G1 X119.825 Y99.814 E.0262
G1 X120.393 Y99.583 E.01923
G1 X121.008 Y99.504 E.01944
G1 X121.905 Y99.601 E.02829
G1 X122.742 Y99.807 E.02703
G1 X123.401 Y100.08 E.02237
G1 X123.758 Y99.496 E.02146
G1 X124.328 Y98.816 E.02782
G1 X125.104 Y98.145 E.03217
G1 X125.71 Y97.866 E.02092
G1 X126.206 Y97.768 E.01585
G1 X126.718 Y97.77 E.01605
G1 X127.608 Y98.023 E.02901
G1 X128.056 Y98.263 E.01594
G1 X128.653 Y98.858 E.02643
G1 X128.922 Y99.336 E.0172
G1 X129.173 Y100.357 E.03297
G1 X129.241 Y101.213 E.02692
G1 X129.183 Y101.961 E.02352
G1 X129.917 Y102.138 E.02367
G1 X130.709 Y102.467 E.02689
G1 X131.573 Y102.986 E.0316
G1 X131.989 Y103.432 E.01912
G1 X132.36 Y104.159 E.02559
G1 X132.452 Y104.647 E.01557
G1 X132.452 Y105.366 E.02254
G1 X132.24 Y106.143 E.02525
G1 X131.923 Y106.659 E.01899
G1 X131.501 Y107.069 E.01845
G1 X130.67 Y107.553 E.03015
G1 X129.881 Y107.873 E.0267
G1 X129.183 Y108.04 E.0225
G1 X129.241 Y108.792 E.02365
G1 X129.172 Y109.653 E.02708
G1 X128.94 Y110.648 E.03203
G1 X128.637 Y111.182 E.01925
G1 X128.264 Y111.585 E.01722
G1 X127.828 Y111.89 E.01668
G1 X126.991 Y112.19 E.02788
G1 X126.425 Y112.259 E.01788
G1 X125.725 Y112.148 E.02222
G1 X125.128 Y111.882 E.02049
G1 X124.288 Y111.144 E.03506
G1 X123.736 Y110.473 E.02724
G1 X123.4 Y109.919 E.02032
G1 X122.716 Y110.201 E.0232
G1 X121.913 Y110.398 E.02592
G1 X120.943 Y110.494 E.03056
G1 X120.253 Y110.373 E.02196
G1 X119.667 Y110.091 E.02039
G1 X119.186 Y109.676 E.01992
G1 X118.763 Y109.095 E.02253
G1 X118.551 Y108.646 E.01557
G1 X118.426 Y107.897 E.02381
G1 X118.465 Y107.366 E.01669
G1 X118.904 Y106.283 E.03664
G1 X119.356 Y105.554 E.02689
G1 X119.827 Y105.002 E.02275
G1 X119.404 Y104.511 E.02032
G1 X118.942 Y103.788 E.0269
G1 X118.552 Y102.941 E.02924
G1 X118.423 Y102.147 E.02522
G1 X118.501 Y101.537 E.01928
G1 X118.691 Y101.033 E.01689
G1 X119.14 Y100.387 E.02467
M204 S1000
G1 X119.14 Y100.387 F10800
G1 X119.45 Y100.602
M204 S800
G1 F1200
G1 X119.469 Y100.575 E.00104
G1 X119.993 Y100.153 E.0211
G1 X120.512 Y99.942 E.01757
G1 X120.99 Y99.881 E.01511
G1 X121.827 Y99.97 E.02639
G1 X122.637 Y100.17 E.02616
G1 X123.555 Y100.555 E.03121
G1 X124.056 Y99.727 E.03034
G1 X124.607 Y99.07 E.02689
G1 X125.33 Y98.449 E.02988
G1 X125.804 Y98.232 E.01635
G1 X126.259 Y98.142 E.01454
G1 X126.686 Y98.147 E.01339
G1 X127.481 Y98.379 E.02597
G1 X127.851 Y98.581 E.01322
G1 X128.34 Y99.07 E.02168
G1 X128.563 Y99.453 E.0139
G1 X128.803 Y100.432 E.0316
G1 X128.864 Y101.226 E.02497
G1 X128.78 Y102.254 E.03234
G1 X129.787 Y102.493 E.03245
G1 X130.527 Y102.797 E.02508
G1 X131.354 Y103.295 E.03027
G1 X131.693 Y103.667 E.01578
G1 X131.996 Y104.258 E.02082
G1 X132.075 Y104.666 E.01303
G1 X132.075 Y105.341 E.02116
G1 X131.903 Y105.972 E.02051
G1 X131.642 Y106.406 E.01588
G1 X131.255 Y106.782 E.01692
G1 X130.516 Y107.208 E.02674
G1 X129.753 Y107.518 E.02582
G1 X128.78 Y107.747 E.03134
G1 X128.864 Y108.778 E.03243
G1 X128.802 Y109.581 E.02525
G1 X128.579 Y110.535 E.03072
G1 X128.345 Y110.943 E.01475
G1 X127.675 Y111.544 E.02822
G1 X126.882 Y111.828 E.02641
G1 X126.457 Y111.882 E.01343
G1 X125.808 Y111.779 E.0206
G1 X125.354 Y111.579 E.01555
G1 X124.57 Y110.892 E.03268
G1 X124.036 Y110.244 E.02633
G1 X123.555 Y109.445 E.02924
G1 X122.612 Y109.839 E.03204
G1 X121.835 Y110.029 E.02508
G1 X120.978 Y110.118 E.02702
G1 X120.389 Y110.021 E.01872
G1 X119.891 Y109.786 E.01727
G1 X119.477 Y109.436 E.017
G1 X119.08 Y108.888 E.02122
G1 X118.905 Y108.512 E.013
G1 X118.802 Y107.862 E.02063
G1 X118.838 Y107.428 E.01365
G1 X119.233 Y106.469 E.03252
G1 X119.668 Y105.765 E.02595
G1 X120.326 Y105.001 E.03161
G1 X119.714 Y104.296 E.02927
G1 X119.279 Y103.618 E.02526
G1 X118.905 Y102.806 E.02803
G1 X118.8 Y102.165 E.02037
G1 X118.863 Y101.644 E.01645
G1 X119.015 Y101.227 E.01392
G1 X119.416 Y100.651 E.02201
M204 S1000
G1 X119.416 Y100.651 F10800
G1 X119.725 Y100.867
M204 S800
G1 F1200
M73 Q2 S10
G1 X119.763 Y100.812 E.0021
G1 X120.16 Y100.492 E.01599
G1 X120.631 Y100.301 E.01594
G1 X120.971 Y100.258 E.01075
G1 X121.774 Y100.343 E.02532
G1 X122.531 Y100.532 E.02446
G1 X123.71 Y101.03 E.04013
G1 X124.355 Y99.958 E.03923
G1 X124.886 Y99.324 E.02593
G1 X125.554 Y98.753 E.02755
G1 X126.282 Y98.518 E.02399
M73 P2 R10
G1 X126.608 Y98.517 E.01022
G1 X127.354 Y98.735 E.02437
G1 X127.644 Y98.896 E.0104
G1 X128.204 Y99.573 E.02755
G1 X128.429 Y100.478 E.02924
G1 X128.487 Y101.211 E.02305
G1 X128.378 Y102.546 E.042
G1 X129.685 Y102.856 E.04212
G1 X130.37 Y103.14 E.02325
G1 X131.098 Y103.573 E.02656
G1 X131.372 Y103.866 E.01258
G1 X131.632 Y104.361 E.01753
G1 X131.698 Y105.316 E.03001
G1 X131.566 Y105.8 E.01573
G1 X131.332 Y106.189 E.01423
G1 X131.014 Y106.491 E.01375
G1 X130.342 Y106.874 E.02425
G1 X129.626 Y107.163 E.02421
G1 X128.378 Y107.454 E.04018
G1 X128.487 Y108.793 E.04212
G1 X128.427 Y109.537 E.0234
G1 X128.219 Y110.42 E.02844
G1 X128.051 Y110.706 E.0104
G1 X127.52 Y111.199 E.02272
G1 X126.776 Y111.466 E.02478
G1 X126.442 Y111.505 E.01054
G1 X125.893 Y111.411 E.01746
G1 X125.579 Y111.275 E.01073
G1 X124.851 Y110.64 E.03029
G1 X124.336 Y110.015 E.02539
G1 X123.711 Y108.97 E.03818
G1 X122.507 Y109.476 E.04095
G1 X121.78 Y109.656 E.02348
G1 X121.009 Y109.742 E.02432
G1 X120.52 Y109.666 E.01552
G1 X120.111 Y109.479 E.0141
G1 X119.768 Y109.194 E.01398
G1 X119.259 Y108.382 E.03005
G1 X119.178 Y107.832 E.01743
G1 X119.21 Y107.493 E.01068
G1 X119.561 Y106.654 E.02852
G1 X119.964 Y106 E.02409
G1 X120.826 Y104.999 E.04142
G1 X120.023 Y104.079 E.03829
G1 X119.616 Y103.448 E.02354
G1 X119.258 Y102.671 E.02682
G1 X119.177 Y102.181 E.01557
G1 X119.34 Y101.42 E.0244
G1 X119.691 Y100.916 E.01926
M204 S1000
G1 X119.691 Y100.916 F10800
G1 X120 Y101.131
M204 S800
G1 F1200
G1 X120.057 Y101.05 E.00311
G1 X120.328 Y100.831 E.01092
G1 X120.988 Y100.635 E.02159
G1 X122.394 Y100.884 E.04477
G1 X123.73 Y101.41 E.04502
G1 X123.917 Y101.349 E.00617
G1 X124.656 Y100.186 E.0432
G1 X125.143 Y99.6 E.02389
G1 X125.777 Y99.058 E.02615
G1 X126.338 Y98.892 E.01834
G1 X126.577 Y98.893 E.00749
G1 X127.223 Y99.088 E.02116
G1 X127.431 Y99.208 E.00753
G1 X127.864 Y99.738 E.02146
G1 X128.058 Y100.55 E.02618
G1 X128.11 Y101.222 E.02113
G1 X128.022 Y102.683 E.04589
G1 X128.138 Y102.842 E.00617
G1 X129.557 Y103.211 E.04597
G1 X130.847 Y103.855 E.04521
G1 X131.054 Y104.07 E.00936
G1 X131.321 Y104.707 E.02166
G1 X131.321 Y105.291 E.01831
G1 X131.23 Y105.628 E.01094
G1 X130.808 Y106.175 E.02166
G1 X129.501 Y106.806 E.04551
G1 X128.138 Y107.158 E.04414
G1 X128.022 Y107.317 E.00617
G1 X128.11 Y108.782 E.04602
G1 X128.056 Y109.467 E.02154
G1 X127.877 Y110.259 E.02546
G1 X127.519 Y110.734 E.01865
G1 X127.323 Y110.876 E.00759
G1 X126.433 Y111.127 E.02899
G1 X125.762 Y110.944 E.02181
G1 X125.112 Y110.368 E.02723
G1 X124.655 Y109.813 E.02254
G1 X123.917 Y108.651 E.04316
G1 X123.73 Y108.59 E.00617
G1 X122.399 Y109.115 E.04486
G1 X121.725 Y109.282 E.02177
G1 X120.992 Y109.364 E.02313
G1 X120.649 Y109.311 E.01088
G1 X120.058 Y108.951 E.0217
G1 X119.714 Y108.478 E.01834
G1 X119.555 Y107.806 E.02165
G1 X119.582 Y107.564 E.00763
G1 X119.902 Y106.817 E.02548
G1 X120.276 Y106.213 E.02227
G1 X121.193 Y105.098 E.04526
G1 X121.193 Y104.902 E.00615
G1 X120.314 Y103.839 E.04325
G1 X119.941 Y103.256 E.0217
G1 X119.611 Y102.537 E.0248
G1 X119.591 Y101.842 E.0218
G1 X119.667 Y101.611 E.00762
G1 X119.966 Y101.181 E.01642
M204 S1000
G1 X119.966 Y101.181 F10800
G1 X120.272 Y101.398
M204 S800
G1 F1200
G1 X120.349 Y101.29 E.00416
G1 X120.821 Y101.031 E.01688
G1 X121.643 Y101.086 E.02583
G1 X122.259 Y101.236 E.01988
G1 X123.737 Y101.804 E.04965
G1 X124.143 Y101.672 E.01339
G1 X124.973 Y100.389 E.04791
G1 X125.403 Y99.874 E.02104
G1 X125.96 Y99.388 E.02318
G1 X126.539 Y99.269 E.01853
G1 X127.212 Y99.516 E.02248
G1 X127.521 Y99.896 E.01536
G1 X127.688 Y100.619 E.02327
G1 X127.733 Y101.234 E.01933
G1 X127.649 Y102.811 E.04952
G1 X127.901 Y103.157 E.01342
G1 X129.43 Y103.566 E.04963
G1 X130.601 Y104.141 E.0409
G1 X130.91 Y104.584 E.01694
G1 X130.944 Y105.267 E.02144
G1 X130.713 Y105.755 E.01693
G1 X129.992 Y106.205 E.02665
G1 X129.377 Y106.45 E.02076
G1 X127.901 Y106.843 E.04789
G1 X127.649 Y107.189 E.01342
G1 X127.733 Y108.77 E.04964
G1 X127.532 Y110.104 E.0423
G1 X127.132 Y110.551 E.01881
G1 X126.43 Y110.749 E.02287
G1 X125.951 Y110.617 E.01558
G1 X125.376 Y110.098 E.02429
G1 X124.973 Y109.61 E.01984
G1 X124.143 Y108.328 E.04789
G1 X123.737 Y108.196 E.01339
G1 X122.291 Y108.753 E.04859
G1 X120.975 Y108.987 E.04191
G1 X120.779 Y108.957 E.00622
G1 X120.348 Y108.71 E.01558
G1 X119.974 Y108.137 E.02145
G1 X119.951 Y107.641 E.01557
G1 X120.587 Y106.426 E.043
G1 X121.57 Y105.214 E.04893
M73 Q3 S10
G1 X121.57 Y104.786 E.01342
G1 X120.606 Y103.6 E.04792
G1 X120.266 Y103.065 E.01988
G1 X119.933 Y102.208 E.02883
G1 X120.013 Y101.762 E.01421
G1 X120.237 Y101.447 E.01212
M204 S1000
G1 X120.237 Y101.447 F10800
G1 X120.54 Y101.667
M204 S800
G1 F1200
G1 X120.639 Y101.532 E.00525
G1 X120.958 Y101.391 E.01094
G1 X122.153 Y101.598 E.03803
M73 P3 R10
G1 X123.097 Y102.012 E.03232
G1 X123.771 Y102.206 E.02199
G1 X124.353 Y102.016 E.0192
G1 X125.664 Y100.146 E.07161
G1 X126.154 Y99.713 E.0205
G1 X126.441 Y99.641 E.00928
G1 X126.943 Y99.79 E.01642
G1 X127.174 Y100.045 E.01079
G1 X127.355 Y101.244 E.03802
G1 X127.254 Y102.268 E.03226
G1 X127.277 Y102.966 E.0219
G1 X127.637 Y103.462 E.01922
G1 X128.296 Y103.701 E.02198
G1 X129.303 Y103.922 E.03233
G1 X130.392 Y104.456 E.03803
G1 X130.567 Y104.758 E.01094
G1 X130.567 Y105.242 E.01518
G1 X130.392 Y105.544 E.01094
G1 X129.817 Y105.871 E.02074
G1 X127.637 Y106.538 E.07148
G1 X127.277 Y107.034 E.01922
G1 X127.254 Y107.733 E.02193
G1 X127.355 Y108.759 E.03233
G1 X127.183 Y109.96 E.03804
G1 X126.95 Y110.22 E.01095
G1 X126.44 Y110.372 E.01669
G1 X126.149 Y110.296 E.00943
G1 X125.641 Y109.83 E.02161
G1 X124.352 Y107.983 E.07062
G1 X123.769 Y107.794 E.01922
G1 X121.616 Y108.536 E.0714
G1 X120.958 Y108.609 E.02076
G1 X120.639 Y108.468 E.01094
G1 X120.354 Y108.076 E.0152
G1 X120.318 Y107.729 E.01094
G1 X120.898 Y106.64 E.03869
G1 X121.57 Y105.886 E.03167
G1 X121.963 Y105.306 E.02197
G1 X121.962 Y104.693 E.01922
G1 X121.57 Y104.114 E.02192
G1 X120.898 Y103.361 E.03164
G1 X120.31 Y102.222 E.04019
G1 X120.354 Y101.924 E.00944
G1 X120.505 Y101.716 E.00806
M204 S1000
G1 X120.505 Y101.716 F10800
G1 X120.848 Y101.907
M204 S800
G1 F1200
G1 X120.899 Y101.815 E.0033
G1 X121.536 Y101.833 E.01998
G1 X122.045 Y101.96 E.01645
G1 X122.968 Y102.367 E.03163
G1 X123.796 Y102.606 E.02702
G1 X124.566 Y102.356 E.02538
G1 X125.096 Y101.675 E.02706
G1 X125.592 Y100.821 E.03097
G1 X126.347 Y100.045 E.03395
G1 X126.755 Y100.126 E.01304
G1 X126.945 Y100.754 E.02057
G1 X126.978 Y101.252 E.01565
G1 X126.876 Y102.254 E.03158
G1 X126.905 Y103.116 E.02704
G1 X127.381 Y103.771 E.02539
G1 X128.192 Y104.064 E.02704
G1 X129.177 Y104.277 E.0316
G1 X129.664 Y104.474 E.01647
G1 X130.19 Y104.834 E.01999
G1 X130.139 Y105.254 E.01327
G1 X129.158 Y105.728 E.03416
G1 X128.192 Y105.936 E.03098
G1 X127.381 Y106.229 E.02704
G1 X126.905 Y106.884 E.02539
G1 X126.876 Y107.747 E.02707
G1 X126.978 Y108.749 E.03158
G1 X126.83 Y109.809 E.03356
G1 X126.762 Y109.884 E.00317
G1 X126.347 Y109.966 E.01326
G1 X125.592 Y109.18 E.03417
G1 X125.096 Y108.325 E.03099
G1 X124.567 Y107.645 E.02701
G1 X123.797 Y107.394 E.02539
G1 X122.968 Y107.633 E.02705
G1 X122.045 Y108.04 E.03163
G1 X121.561 Y108.162 E.01565
G1 X120.899 Y108.185 E.02077
G1 X120.693 Y107.815 E.01328
G1 X121.208 Y106.855 E.03416
G1 X121.868 Y106.119 E.031
G1 X122.351 Y105.405 E.02703
G1 X122.352 Y104.596 E.02537
G1 X120.93 Y102.707 E.07413
G1 X120.693 Y102.185 E.01797
G1 X120.819 Y101.959 E.00811
M204 S1000
G1 X120.819 Y101.959 F10800
; printing object flower_1.8.1-med-trumpet-stigma5.stl id:0 copy 0
G1 X121.463 Y102.43
M204 S800
;TYPE:External perimeter
;WIDTH:0.419999
G1 F1200
G1 X121.884 Y102.539 E.01364
G1 X122.774 Y102.934 E.03053
G1 X123.876 Y103.228 E.03576
G1 X124.355 Y103.014 E.01645
G1 X124.826 Y102.919 E.01507
G1 X124.948 Y102.837 E.00461
G1 X125.301 Y102.406 E.01747
G1 X125.601 Y101.998 E.01588
G1 X126.074 Y101.179 E.02965
G1 X126.351 Y100.842 E.01368
G1 X126.378 Y101.278 E.0137
G1 X126.278 Y102.246 E.03051
G1 X126.338 Y103.384 E.03573
G1 X126.689 Y103.773 E.01643
G1 X126.925 Y104.191 E.01505
G1 X127.041 Y104.282 E.00462
G1 X127.56 Y104.485 E.01747
G1 X128.041 Y104.644 E.01588
G1 X128.967 Y104.841 E.02968
G1 X129.372 Y105 E.01364
G1 X128.967 Y105.159 E.01364
G1 X128.015 Y105.364 E.03053
G1 X126.951 Y105.773 E.03574
G1 X126.689 Y106.227 E.01644
G1 X126.364 Y106.581 E.01507
G1 X126.313 Y106.719 E.00461
G1 X126.281 Y107.276 E.01749
G1 X126.278 Y107.782 E.01587
G1 X126.377 Y108.724 E.0297
G1 X126.351 Y109.158 E.01363
G1 X126.074 Y108.822 E.01365
G1 X125.586 Y107.98 E.03051
G1 X124.867 Y107.094 E.03578
G1 X124.355 Y106.986 E.01641
G1 X123.918 Y106.786 E.01507
G1 X123.771 Y106.78 E.00461
G1 X123.232 Y106.922 E.01748
G1 X122.75 Y107.075 E.01586
G1 X121.884 Y107.461 E.02973
G1 X121.463 Y107.57 E.01364
G1 X121.697 Y107.203 E.01365
G1 X122.347 Y106.478 E.03053
G1 X122.967 Y105.521 E.03575
G1 X122.912 Y105 E.01643
G1 X122.967 Y104.523 E.01506
G1 X122.927 Y104.381 E.00463
G1 X122.626 Y103.912 E.01747
G1 X122.331 Y103.501 E.01586
G1 X121.697 Y102.797 E.02971
G1 X121.495 Y102.481 E.01176
M204 S1000
;WIPE_START
G1 F8640
G1 X121.463 Y102.43 E-.0139
G1 X121.884 Y102.539 E-.10042
G1 X122.774 Y102.934 E-.22483
G1 X123.876 Y103.228 E-.26335
G1 X124.355 Y103.014 E-.12114
G1 X124.679 Y102.949 E-.07636
;WIPE_END
G1 Z.6 F720
G1 X126.121 Y102.544 F10800
G1 Z.2 F720
G1 E.8 F2100
M204 S800
;TYPE:Solid infill
;WIDTH:0.425274
G1 F1200
G1 X125.833 Y102.256 E.01295
G1 X125.603 Y102.567 E.0123
G1 X126.138 Y103.102 E.02405
M204 S1000
;WIPE_START
G1 F8640
M73 Q4 S10
G1 X125.603 Y102.567 E-.1747
G1 X125.833 Y102.256 E-.08932
G1 X126.121 Y102.544 E-.09405
;WIPE_END
G1 E-.44193 F2100
G1 Z.6 F720
G1 X127.769 Y104.733 F10800
G1 Z.2 F720
G1 E.8 F2100
M73 P4 R10
M204 S800
G1 F1200
G1 X128.047 Y105.011 E.0125
G1 X127.909 Y105.041 E.00449
G1 X127.636 Y105.14 E.00923
G1 X127.207 Y104.711 E.01929
G1 X126.882 Y104.585 E.01108
G1 X126.699 Y104.46 E.00705
G1 X126.413 Y103.973 E.01796
G1 X126.035 Y103.54 E.01827
G1 X125.362 Y102.867 E.03026
