; generated by PrusaSlicer 2.9.0 on 2025-01-15 at 03:07:07 UTC


;
;
; 

; external perimeters extrusion width = 0.45mm
; perimeters extrusion width = 0.45mm
; infill extrusion width = 0.45mm
; solid infill extrusion width = 0.45mm
; top infill extrusion width = 0.40mm
; first layer extrusion width = 0.42mm

M73 P0 R15
M73 C1
M73 Q0 S15
M73 D1
M201 X1000 Y1000 Z200 E5000 ; sets maximum accelerations, mm/sec^2
M203 X200 Y200 Z12 E120 ; sets maximum feedrates, mm / sec
M204 S1250 T1250 ; sets acceleration (S) and retract acceleration (R), mm/sec^2
M205 X8.00 Y8.00 Z0.40 E4.50 ; sets the jerk limits, mm/sec
M205 S0 T0 ; sets the minimum extruding and travel feed rate, mm/sec

; printing object 1.8.11-Big_Trumpet_Stigma3.stl id:0 copy 0
; stop printing object 1.8.11-Big_Trumpet_Stigma3.stl id:0 copy 0

;TYPE:Custom
M862.3 P "MK3S" ; printer model check
M862.1 P0.4 ; nozzle diameter check
M115 U3.13.3 ; tell printer latest fw version
G90 ; use absolute coordinates
M83 ; extruder relative mode
M104 S215 ; set extruder temp
M140 S60 ; set bed temp
M190 S60 ; wait for bed temp
M109 S215 ; wait for extruder temp
G28 W ; home all without mesh bed level
G80 X118.518 Y96.11 W16.7558 H19.2654 ; mesh bed levelling

G1 Z0.2 F720
G1 Y-3 F1000 ; go outside print area
G92 E0
G1 X60 E9 F1000 ; intro line
G1 X100 E12.5 F1000 ; intro line

G92 E0
M221 S95

; Don't change E values below. Excessive value can damage the printer.
M907 E430 ; set extruder motor current
G21 ; set units to millimeters
G90 ; use absolute coordinates
M83 ; use relative distances for extrusion

M900 K0.05 ; Filament gcode LA 1.5
M900 K30 ; Filament gcode LA 1.0




M107
;LAYER_CHANGE
;Z:0.2
;HEIGHT:0.2
G1 E-.8 F2100
G1 Z.6 F720
G1 X119.874 Y98.683 F10800
G1 Z.2 F720
G1 E.8 F2100
M204 S800
;TYPE:Skirt/Brim
;WIDTH:0.42
G1 F1200
G1 X120.529 Y97.962 E.03054
G1 X121.624 Y97.405 E.03852
G1 X122.217 Y97.333 E.01873
G1 X122.804 Y97.394 E.0185
G1 X123.63 Y97.756 E.02828
G1 X124.379 Y98.437 E.03174
G1 X126.191 Y100.811 E.09364
G1 X127.045 Y101 E.02742
G1 X128.056 Y101.465 E.03489
G1 X128.638 Y101.878 E.02238
G1 X129.368 Y102.642 E.03313
G1 X132.291 Y103.02 E.09241
G1 X133.579 Y103.446 E.04254
G1 X134.079 Y103.872 E.0206
G1 X134.585 Y104.662 E.02942
G1 X134.724 Y105.257 E.01916
G1 X134.724 Y106.162 E.02838
G1 X134.415 Y107.084 E.03049
G1 X133.999 Y107.619 E.02125
G1 X133.409 Y108.046 E.02284
G1 X132.311 Y108.379 E.03598
G1 X129.381 Y108.76 E.09264
G1 X128.638 Y109.525 E.03344
G1 X128.057 Y109.937 E.02233
G1 X127.046 Y110.403 E.0349
G1 X126.204 Y110.59 E.02704
G1 X124.363 Y112.99 E.09484
G1 X123.526 Y113.757 E.0356
M73 Q1 S15
G1 X122.876 Y114.032 E.02213
G1 X122.169 Y114.116 E.02232
G1 X121.267 Y113.92 E.02894
G1 X120.413 Y113.413 E.03114
G1 X119.847 Y112.746 E.02743
G1 X119.538 Y111.921 E.02762
G1 X119.528 Y111.17 E.02355
G1 X119.762 Y110.284 E.02873
M73 P1 R15
G1 X120.906 Y107.531 E.09347
G1 X120.697 Y106.923 E.02016
G1 X120.544 Y105.721 E.03799
G1 X120.693 Y104.495 E.03872
G1 X120.897 Y103.856 E.02103
G1 X119.768 Y101.143 E.09214
G1 X119.523 Y99.82 E.04219
G1 X119.636 Y99.224 E.01902
G1 X119.85 Y98.738 E.01665
M204 S1000
G1 X119.85 Y98.738 F10800
G1 X120.195 Y98.89
M204 S800
G1 F1200
G1 X120.207 Y98.863 E.00093
G1 X120.734 Y98.281 E.02462
G1 X121.706 Y97.774 E.03437
G1 X122.201 Y97.711 E.01565
G1 X122.734 Y97.766 E.0168
G1 X123.445 Y98.086 E.02445
G1 X124.111 Y98.703 E.02847
G1 X125.978 Y101.167 E.09693
G1 X126.918 Y101.355 E.03006
G1 X127.868 Y101.792 E.03279
G1 X128.806 Y102.548 E.03777
G1 X129.188 Y103.02 E.01904
G1 X132.223 Y103.391 E.09587
G1 X133.323 Y103.732 E.03611
G1 X133.781 Y104.104 E.0185
G1 X134.227 Y104.784 E.0255
G1 X134.347 Y105.28 E.016
G1 X134.347 Y106.131 E.02668
G1 X134.097 Y106.878 E.0247
G1 X133.719 Y107.365 E.01933
G1 X133.218 Y107.719 E.01923
G1 X132.244 Y108.008 E.03186
G1 X129.206 Y108.383 E.09598
G1 X128.391 Y109.24 E.03708
G1 X127.87 Y109.61 E.02004
G1 X126.919 Y110.047 E.03282
G1 X125.973 Y110.237 E.03025
G1 X124.077 Y112.744 E.09855
G1 X123.297 Y113.456 E.03311
G1 X122.801 Y113.662 E.01684
G1 X122.212 Y113.74 E.01863
G1 X121.432 Y113.579 E.02497
G1 X120.635 Y113.106 E.02906
G1 X120.16 Y112.532 E.02336
G1 X119.903 Y111.824 E.02362
G1 X119.899 Y111.243 E.01822
G1 X120.123 Y110.391 E.02762
G1 X121.319 Y107.57 E.09607
G1 X121.065 Y106.838 E.02429
G1 X120.921 Y105.709 E.03569
G1 X121.062 Y104.576 E.0358
G1 X121.325 Y103.844 E.02439
G1 X120.124 Y101.018 E.09628
G1 X119.9 Y99.852 E.03723
G1 X119.991 Y99.355 E.01584
G1 X120.171 Y98.945 E.01404
M204 S1000
G1 X120.516 Y99.097 F10800
M204 S800
G1 F1200
G1 X120.54 Y99.042 E.00188
G1 X120.941 Y98.597 E.01878
G1 X121.793 Y98.143 E.03027
G1 X122.185 Y98.088 E.01241
G1 X122.665 Y98.138 E.01513
G1 X123.211 Y98.384 E.01878
G1 X123.844 Y98.97 E.02705
G1 X125.149 Y100.627 E.06613
G1 X125.748 Y101.522 E.03377
G1 X126.791 Y101.711 E.03324
G1 X127.68 Y102.119 E.03067
G1 X128.539 Y102.814 E.03464
G1 X129.002 Y103.392 E.02322
G1 X130.098 Y103.469 E.03445
G1 X132.154 Y103.762 E.06512
G1 X133.159 Y104.076 E.03301
G1 X133.486 Y104.34 E.01318
G1 X133.87 Y104.91 E.02155
G1 X133.97 Y105.305 E.01278
G1 X133.97 Y106.101 E.02496
G1 X133.777 Y106.676 E.01902
G1 X133.476 Y107.075 E.01567
G1 X133.027 Y107.392 E.01723
G1 X132.179 Y107.636 E.02767
G1 X130.109 Y107.933 E.06557
G1 X128.991 Y108.011 E.03514
G1 X128.532 Y108.596 E.02331
G1 X127.682 Y109.283 E.03427
G1 X126.792 Y109.692 E.03071
G1 X125.748 Y109.881 E.03327
G1 X125.126 Y110.805 E.03492
G1 X123.79 Y112.498 E.06762
G1 X123.071 Y113.152 E.03047
G1 X122.689 Y113.301 E.01286
G1 X122.197 Y113.362 E.01554
G1 X121.597 Y113.239 E.0192
G1 X120.855 Y112.798 E.02706
G1 X120.503 Y112.373 E.0173
G1 X120.269 Y111.727 E.02154
G1 X120.27 Y111.316 E.01289
G1 X120.485 Y110.499 E.02649
G1 X121.26 Y108.569 E.06521
G1 X121.75 Y107.566 E.035
G1 X121.433 Y106.756 E.02727
G1 X121.298 Y105.697 E.03347
G1 X121.43 Y104.659 E.03281
G1 X121.75 Y103.837 E.02766
G1 X121.259 Y102.832 E.03507
G1 X120.48 Y100.893 E.06552
G1 X120.278 Y99.88 E.03239
G1 X120.346 Y99.484 E.0126
G1 X120.492 Y99.152 E.01137
M204 S1000
G1 X120.492 Y99.152 F10800
G1 X120.858 Y99.269
M204 S800
G1 F1200
G1 X120.873 Y99.221 E.00158
G1 X121.151 Y98.912 E.01303
G1 X121.885 Y98.51 E.02624
G1 X122.172 Y98.466 E.0091
G1 X122.596 Y98.51 E.01337
G1 X122.978 Y98.681 E.01312
G1 X123.577 Y99.236 E.0256
G1 X124.85 Y100.856 E.0646
G1 X125.524 Y101.878 E.03839
G1 X126.686 Y102.073 E.03694
G1 X127.491 Y102.446 E.02782
G1 X128.274 Y103.083 E.03165
G1 X128.782 Y103.763 E.02661
G1 X130.055 Y103.843 E.03999
G1 X132.088 Y104.133 E.06439
G1 X132.957 Y104.395 E.02846
G1 X133.194 Y104.581 E.00945
G1 X133.516 Y105.042 E.01763
G1 X133.593 Y105.331 E.00938
G1 X133.593 Y106.07 E.02317
G1 X133.458 Y106.473 E.01333
G1 X133.195 Y106.822 E.0137
G1 X132.842 Y107.063 E.0134
G1 X132.114 Y107.264 E.02368
G1 X130.065 Y107.559 E.06491
G1 X128.781 Y107.639 E.04034
G1 X128.267 Y108.328 E.02695
G1 X127.492 Y108.957 E.0313
G1 X126.686 Y109.33 E.02785
G1 X125.524 Y109.525 E.03694
G1 X124.823 Y110.581 E.03974
G1 X123.522 Y112.233 E.06593
G1 X122.895 Y112.817 E.02687
G1 X122.181 Y112.984 E.02299
G1 X121.763 Y112.898 E.01338
G1 X121.076 Y112.491 E.02504
G1 X120.844 Y112.21 E.01143
G1 X120.645 Y111.687 E.01755
G1 X120.642 Y111.385 E.00947
G1 X120.839 Y110.628 E.02453
G1 X121.606 Y108.719 E.06451
G1 X122.175 Y107.573 E.04012
G1 X121.801 Y106.672 E.03059
G1 X121.675 Y105.709 E.03045
G1 X121.798 Y104.743 E.03053
G1 X122.175 Y103.83 E.03097
G1 X121.605 Y102.682 E.04019
G1 X120.836 Y100.767 E.0647
G1 X120.655 Y99.903 E.02768
G1 X120.84 Y99.326 E.019
M204 S1000
G1 X120.84 Y99.326 F10800
G1 X121.192 Y99.444
M204 S800
G1 F1200
G1 X121.207 Y99.4 E.00146
G1 X121.364 Y99.224 E.00739
G1 X121.984 Y98.874 E.02232
G1 X122.527 Y98.882 E.01703
G1 X122.745 Y98.98 E.00749
G1 X123.29 Y99.481 E.02321
G1 X124.545 Y101.079 E.06371
G1 X125.321 Y102.269 E.04454
G1 X126.146 Y102.322 E.02592
G1 X126.579 Y102.435 E.01403
G1 X127.302 Y102.772 E.02501
G1 X128.007 Y103.349 E.02856
G1 X128.571 Y104.135 E.03033
G1 X130.012 Y104.218 E.04526
G1 X132.022 Y104.505 E.06366
G1 X132.762 Y104.719 E.02415
G1 X133.164 Y105.182 E.01923
M73 Q2 S15
G1 X133.216 Y106.04 E.02695
G1 X132.912 Y106.57 E.01916
G1 X132.711 Y106.708 E.00764
G1 X132.048 Y106.893 E.02158
G1 X130.022 Y107.184 E.06418
G1 X128.571 Y107.268 E.04557
G1 X128 Y108.061 E.03064
G1 X127.302 Y108.631 E.02826
M73 P2 R15
G1 X126.579 Y108.968 E.02501
G1 X126.146 Y109.081 E.01403
G1 X125.322 Y109.134 E.02589
G1 X124.52 Y110.356 E.04583
G1 X123.251 Y111.971 E.0644
G1 X122.712 Y112.486 E.02337
G1 X122.165 Y112.606 E.01756
G1 X121.928 Y112.558 E.00758
G1 X121.298 Y112.184 E.02297
G1 X121.02 Y111.637 E.01924
G1 X121.014 Y111.451 E.00583
G1 X121.194 Y110.757 E.02248
G1 X121.952 Y108.87 E.06376
G1 X122.602 Y107.579 E.04532
G1 X122.168 Y106.587 E.03395
G1 X122.052 Y105.697 E.02814
M73 P2 R14
M73 Q2 S14
G1 X122.165 Y104.828 E.02748
G1 X122.602 Y103.825 E.0343
G1 X121.951 Y102.531 E.04542
G1 X121.192 Y100.641 E.06386
G1 X121.033 Y99.918 E.02321
G1 X121.173 Y99.501 E.01379
M204 S1000
G1 X121.173 Y99.501 F10800
G1 X121.526 Y99.656
M204 S800
G1 F1200
G1 X121.58 Y99.534 E.00418
G1 X122.155 Y99.222 E.02051
G1 X122.513 Y99.278 E.01136
G1 X123.003 Y99.727 E.02084
G1 X124.241 Y101.302 E.06281
G1 X125.113 Y102.651 E.05036
G1 X126.086 Y102.694 E.03054
G1 X127.111 Y103.097 E.03453
G1 X127.739 Y103.615 E.02552
G1 X128.315 Y104.506 E.03327
G1 X129.969 Y104.592 E.05193
G1 X131.958 Y104.877 E.063
G1 X132.579 Y105.05 E.02021
G1 X132.839 Y105.394 E.01352
G1 X132.839 Y106.009 E.01928
G1 X132.579 Y106.353 E.01352
G1 X131.982 Y106.521 E.01945
G1 X129.437 Y106.868 E.08053
G1 X128.315 Y106.897 E.03519
G1 X127.733 Y107.795 E.03355
G1 X127.111 Y108.306 E.02524
G1 X126.086 Y108.709 E.03453
G1 X125.113 Y108.752 E.03054
G1 X124.535 Y109.697 E.03473
G1 X122.978 Y111.711 E.07982
G1 X122.517 Y112.163 E.02024
G1 X122.149 Y112.228 E.01172
G1 X121.556 Y111.908 E.02113
G1 X121.388 Y111.511 E.01352
G1 X121.548 Y110.886 E.02023
G1 X122.298 Y109.02 E.06306
G1 X123.043 Y107.557 E.05148
G1 X122.647 Y106.835 E.02582
G1 X122.43 Y105.708 E.03599
G1 X122.647 Y104.567 E.03642
G1 X123.043 Y103.846 E.02579
G1 X122.297 Y102.381 E.05155
G1 X121.547 Y100.513 E.06311
G1 X121.411 Y99.919 E.01911
G1 X121.502 Y99.711 E.00712
M204 S1000
G1 X121.502 Y99.711 F10800
G1 X121.83 Y99.855
M204 S800
G1 F1200
G1 X121.848 Y99.814 E.0014
G1 X122.206 Y99.607 E.01297
G1 X122.328 Y99.619 E.00384
G1 X122.716 Y99.972 E.01645
G1 X123.937 Y101.525 E.06194
G1 X124.92 Y103.059 E.05713
G1 X126.003 Y103.062 E.03396
G1 X126.919 Y103.422 E.03086
G1 X127.658 Y104.107 E.03159
G1 X128.07 Y104.877 E.02738
G1 X129.398 Y104.911 E.04165
G1 X131.892 Y105.248 E.07891
G1 X132.386 Y105.387 E.01609
G1 X132.462 Y105.488 E.00396
G1 X132.462 Y105.915 E.01339
G1 X132.386 Y106.016 E.00396
G1 X131.892 Y106.155 E.01609
G1 X129.922 Y106.437 E.0624
G1 X128.07 Y106.526 E.05814
G1 X127.659 Y107.296 E.02737
G1 X126.92 Y107.98 E.03157
G1 X126.003 Y108.341 E.0309
G1 X124.921 Y108.344 E.03393
G1 X123.919 Y109.901 E.05805
G1 X122.689 Y111.468 E.06246
G1 X122.321 Y111.827 E.01612
G1 X122.196 Y111.842 E.00395
G1 X121.826 Y111.629 E.01339
G1 X121.776 Y111.512 E.00399
G1 X121.903 Y111.015 E.01608
G1 X122.859 Y108.684 E.07899
G1 X123.499 Y107.506 E.04203
G1 X122.993 Y106.686 E.03021
G1 X122.807 Y105.696 E.03158
G1 X122.994 Y104.717 E.03125
G1 X123.499 Y103.897 E.0302
G1 X122.645 Y102.237 E.05853
G1 X121.902 Y100.387 E.06251
G1 X121.799 Y99.927 E.01478
G1 X121.806 Y99.91 E.00058
M204 S1000
;WIPE_START
G1 F8640
G1 X121.83 Y99.855 E-.01386
G1 X121.848 Y99.814 E-.01034
G1 X122.206 Y99.607 E-.09549
G1 X122.328 Y99.619 E-.02831
G1 X122.716 Y99.972 E-.12112
G1 X123.937 Y101.525 E-.45615
G1 X124.112 Y101.797 E-.07473
;WIPE_END
G1 Z.6 F720
; printing object 1.8.11-Big_Trumpet_Stigma3.stl id:0 copy 0
G1 X122.831 Y101.088 F10800
G1 Z.2 F720
G1 E.8 F2100
M204 S800
;TYPE:External perimeter
;WIDTH:0.42353
G1 F1200
G1 X123.44 Y101.864 E.03122
;WIDTH:0.424873
G1 X123.741 Y102.283 E.01639
;WIDTH:0.439518
G1 X124.236 Y103.127 E.03227
;WIDTH:0.489285
G1 X124.569 Y103.654 E.02314
G1 X124.677 Y103.684 E.00416
;WIDTH:0.454642
G1 X124.784 Y103.713 E.0038
;WIDTH:0.419999
G1 X125.358 Y103.616 E.01825
G1 X125.885 Y103.65 E.01656
G1 X126.384 Y103.812 E.01645
G1 X126.825 Y104.093 E.0164
G1 X127.185 Y104.475 E.01646
G1 X127.373 Y104.812 E.0121
G1 X127.581 Y105.321 E.01724
;WIDTH:0.454003
G1 X127.661 Y105.4 E.00384
;WIDTH:0.488006
G1 X127.741 Y105.48 E.00419
G1 X128.06 Y105.492 E.01181
;WIDTH:0.462898
G1 X128.379 Y105.504 E.01115
;WIDTH:0.43779
G1 X129.358 Y105.511 E.03214
;WIDTH:0.424677
G1 X130.818 Y105.702 E.04674
G1 X129.358 Y105.892 E.04674
;WIDTH:0.43897
G1 X128.366 Y105.899 E.03267
;WIDTH:0.488006
G1 X127.741 Y105.923 E.02315
G1 X127.663 Y105.999 E.00403
;WIDTH:0.454003
G1 X127.584 Y106.074 E.00372
;WIDTH:0.419999
G1 X127.327 Y106.706 E.02139
G1 X127.017 Y107.131 E.01649
G1 X126.613 Y107.465 E.01644
G1 X126.14 Y107.687 E.01638
G1 X125.624 Y107.786 E.01647
G1 X125.335 Y107.772 E.00907
G1 X124.795 Y107.692 E.01712
;WIDTH:0.454711
G1 X124.682 Y107.721 E.00399
;WIDTH:0.489423
G1 X124.569 Y107.749 E.00432
G1 X124.397 Y108.022 E.01198
;WIDTH:0.463694
G1 X124.225 Y108.295 E.01129
;WIDTH:0.437964
G1 X123.729 Y109.14 E.03219
;WIDTH:0.424688
G1 X122.833 Y110.312 E.04683
G1 X123.399 Y108.949 E.04685
;WIDTH:0.43916
G1 X123.89 Y108.086 E.03271
;WIDTH:0.464292
G1 X124.037 Y107.807 E.01105
;WIDTH:0.489423
G1 X124.184 Y107.527 E.01174
G1 X124.168 Y107.434 E.0035
;WIDTH:0.454711
G1 X124.153 Y107.341 E.00323
;WIDTH:0.419999
G1 X123.807 Y106.937 E.01668
G1 X123.553 Y106.471 E.01664
G1 X123.423 Y105.963 E.01644
G1 X123.423 Y105.44 E.0164
G1 X123.553 Y104.932 E.01644
G1 X123.807 Y104.466 E.01664
G1 X124.126 Y104.102 E.01518
;WIDTH:0.454642
G1 X124.155 Y103.989 E.00399
;WIDTH:0.489285
G1 X124.184 Y103.877 E.00429
G1 X124.037 Y103.597 E.01174
;WIDTH:0.464071
G1 X123.889 Y103.317 E.01109
;WIDTH:0.438857
G1 X123.41 Y102.474 E.03192
;WIDTH:0.424873
G1 X123.199 Y102.005 E.01633
;WIDTH:0.42353
G1 X122.853 Y101.143 E.0294
M204 S1000
;WIPE_START
G1 F8640
G1 X122.831 Y101.088 E-.01368
G1 X123.44 Y101.864 E-.22777
G1 X123.741 Y102.283 E-.11912
G1 X124.236 Y103.127 E-.22593
G1 X124.569 Y103.654 E-.14394
G1 X124.677 Y103.684 E-.02588
G1 X124.784 Y103.713 E-.0256
G1 X124.861 Y103.7 E-.01808
;WIPE_END
G1 Z.6 F720
G1 X127.32 Y105.093 F10800
G1 Z.2 F720
G1 E.8 F2100
M204 S800
;TYPE:Solid infill
;WIDTH:0.454943
G1 F1200
G1 X126.542 Y104.315 E.03769
G1 X126.238 Y104.122 E.01234
G1 X125.821 Y103.986 E.01503
G1 X125.618 Y103.973 E.00697
G1 X127.407 Y105.762 E.08668
G1 X127.346 Y105.812 E.0027
G1 X127.274 Y105.936 E.00491
G1 X127.194 Y106.132 E.00725
G1 X125.065 Y104.003 E.10315
G1 X124.699 Y104.057 E.01267
G1 X124.507 Y103.989 E.00698
G1 X124.501 Y104.022 E.00115
G1 X127.024 Y106.545 E.12224
G1 X126.778 Y106.882 E.01429
G1 X124.307 Y104.41 E.11975
G1 X124.087 Y104.662 E.01146
G1 X124.048 Y104.734 E.00281
G1 X126.463 Y107.149 E.11701
G1 X126.074 Y107.343 E.01489
M73 Q3 S14
G1 X123.854 Y105.123 E.10756
G1 X123.762 Y105.483 E.01273
G1 X123.762 Y105.614 E.00449
G1 X125.593 Y107.445 E.08871
G1 X125.131 Y107.421 E.01585
M73 P3 R14
G1 X124.953 Y107.387 E.00621
G1 X123.622 Y106.056 E.06449
M204 S1000
M106 S84.15
;LAYER_CHANGE
;Z:0.4
;HEIGHT:0.2
;BEFORE_LAYER_CHANGE
G92 E0.0
;0.4


G1 Z.4 F720
;AFTER_LAYER_CHANGE
;0.4
M104 S210 ; set temperature
G1 X123.622 Y106.056 F10800
G1 X123.28 Y106.144
M204 S800
;TYPE:External perimeter
;WIDTH:0.449999
G1 F900
G1 X123.239 Y105.986 E.00553
G1 X123.239 Y105.417 E.01926
G1 X123.382 Y104.862 E.0194
G1 X123.656 Y104.364 E.01924
G1 X123.957 Y104.031 E.01519
G1 X123.994 Y103.818 E.00732
G1 X123.052 Y101.472 E.08557
G1 X124.612 Y103.459 E.08551
G1 X124.809 Y103.533 E.00712
G1 X125.351 Y103.433 E.01866
G1 X125.917 Y103.468 E.01919
G1 X126.462 Y103.645 E.0194
G1 X126.946 Y103.952 E.0194
G1 X127.334 Y104.365 E.01918
G1 X127.609 Y104.866 E.01934
G1 X127.718 Y105.215 E.01238
G1 X127.879 Y105.344 E.00698
G1 X130.378 Y105.702 E.08545
G1 X127.879 Y106.059 E.08545
G1 X127.718 Y106.188 E.00698
