; generated by PrusaSlicer 2.9.0 on 2025-01-15 at 03:07:44 UTC


;
;
; 

; external perimeters extrusion width = 0.45mm
; perimeters extrusion width = 0.45mm
; infill extrusion width = 0.45mm
; solid infill extrusion width = 0.45mm
; top infill extrusion width = 0.40mm
; first layer extrusion width = 0.42mm

M73 P0 R5
M73 C1
M73 Q0 S5
M73 D1
M201 X1000 Y1000 Z200 E5000 ; sets maximum accelerations, mm/sec^2
M203 X200 Y200 Z12 E120 ; sets maximum feedrates, mm / sec
M204 S1250 T1250 ; sets acceleration (S) and retract acceleration (R), mm/sec^2
M205 X8.00 Y8.00 Z0.40 E4.50 ; sets the jerk limits, mm/sec
M205 S0 T0 ; sets the minimum extruding and travel feed rate, mm/sec

; printing object Loop Flower Small.stl id:0 copy 0
; stop printing object Loop Flower Small.stl id:0 copy 0

;TYPE:Custom
M862.3 P "MK3S" ; printer model check
M862.1 P0.4 ; nozzle diameter check
M115 U3.13.3 ; tell printer latest fw version
G90 ; use absolute coordinates
M83 ; extruder relative mode
M104 S215 ; set extruder temp
M140 S60 ; set bed temp
M190 S60 ; wait for bed temp
M109 S215 ; wait for extruder temp
G28 W ; home all without mesh bed level
G80 X118.186 Y97.8482 W13.6034 H14.3035 ; mesh bed levelling

G1 Z0.2 F720
G1 Y-3 F1000 ; go outside print area
G92 E0
G1 X60 E9 F1000 ; intro line
G1 X100 E12.5 F1000 ; intro line
M73 P1 R5
M73 Q1 S5

G92 E0
M221 S95

; Don't change E values below. Excessive value can damage the printer.
M907 E430 ; set extruder motor current
G21 ; set units to millimeters
G90 ; use absolute coordinates
M83 ; use relative distances for extrusion

M900 K0.05 ; Filament gcode LA 1.5
M900 K30 ; Filament gcode LA 1.0




M107
;LAYER_CHANGE
;Z:0.2
;HEIGHT:0.2
G1 E-.8 F2100
G1 Z.6 F720
G1 X120.188 Y100.814 F10800
G1 Z.2 F720
M73 P2 R5
M73 Q2 S5
G1 E.8 F2100
M204 S800
;TYPE:Skirt/Brim
;WIDTH:0.42
G1 F1200
G1 X120.902 Y100.227 E.02898
G1 X121.584 Y99.895 E.02378
G1 X122.265 Y99.719 E.02205
G1 X123.29 Y99.72 E.03214
G1 X124.056 Y99.148 E.02997
G1 X124.792 Y98.855 E.02484
G1 X125.465 Y98.734 E.02144
G1 X126.173 Y98.74 E.0222
G1 X127.799 Y99.283 E.05375
G1 X128.332 Y99.679 E.02082
G1 X128.811 Y100.185 E.02185
G1 X129.283 Y101.008 E.02975
G1 X129.504 Y101.742 E.02403
G1 X130.298 Y102.317 E.03074
G1 X130.747 Y102.851 E.02188
G1 X131.074 Y103.437 E.02104
G1 X131.344 Y104.367 E.03036
G1 X131.373 Y105.383 E.03187
G1 X131.182 Y106.29 E.02906
G1 X130.778 Y107.099 E.02835
G1 X130.213 Y107.761 E.02729
G1 X129.506 Y108.255 E.02704
G1 X129.269 Y109.025 E.02526
G1 X128.731 Y109.913 E.03255
G1 X128.109 Y110.503 E.02688
G1 X127.417 Y110.907 E.02512
G1 X126.491 Y111.202 E.03047
G1 X125.594 Y111.277 E.02822
G1 X124.82 Y111.153 E.02458
G1 X124.124 Y110.888 E.02335
G1 X123.287 Y110.282 E.0324
G1 X122.4 Y110.297 E.02782
G1 X121.473 Y110.062 E.02998
G1 X120.752 Y109.673 E.02569
G1 X120.054 Y109.037 E.02961
G1 X119.497 Y108.224 E.0309
G1 X119.167 Y107.302 E.0307
G1 X119.088 Y106.556 E.02352
G1 X119.16 Y105.834 E.02275
G1 X119.438 Y105.004 E.02745
G1 X119.183 Y104.264 E.02454
G1 X119.094 Y103.221 E.03282
G1 X119.26 Y102.347 E.02789
G1 X119.614 Y101.573 E.02669
G1 X120.152 Y100.862 E.02796
M204 S1000
G1 X120.152 Y100.862 F10800
G1 X120.445 Y101.091
M204 S800
G1 F1200
G1 X121.124 Y100.533 E.02756
G1 X121.728 Y100.244 E.02099
G1 X122.333 Y100.09 E.01957
G1 X123.414 Y100.099 E.0339
G1 X124.262 Y99.465 E.0332
G1 X124.877 Y99.223 E.02072
G1 X125.514 Y99.108 E.0203
G1 X126.138 Y99.116 E.01957
G1 X127.598 Y99.603 E.04826
G1 X128.093 Y99.971 E.01934
G1 X128.521 Y100.427 E.01961
G1 X128.944 Y101.174 E.02692
G1 X129.179 Y101.973 E.02611
G1 X130.027 Y102.579 E.03268
G1 X130.427 Y103.052 E.01942
G1 X130.734 Y103.601 E.01972
G1 X130.974 Y104.446 E.02754
G1 X130.996 Y105.368 E.02892
G1 X130.818 Y106.185 E.02622
G1 X130.453 Y106.907 E.02537
G1 X129.944 Y107.495 E.02438
G1 X129.183 Y108.02 E.02899
G1 X128.933 Y108.852 E.02724
G1 X128.451 Y109.659 E.02947
G1 X127.897 Y110.19 E.02406
G1 X127.28 Y110.555 E.02248
M73 Q3 S5
G1 X126.435 Y110.829 E.02785
G1 X125.628 Y110.901 E.0254
G1 X124.936 Y110.794 E.02196
G1 X124.283 Y110.545 E.02191
G1 X123.407 Y109.901 E.03409
G1 X122.465 Y109.925 E.02955
G1 X121.629 Y109.718 E.027
G1 X120.986 Y109.376 E.02284
G1 X120.352 Y108.805 E.02675
M73 P3 R5
G1 X119.822 Y108.031 E.02941
G1 X119.539 Y107.238 E.0264
G1 X119.465 Y106.573 E.02098
G1 X119.533 Y105.894 E.0214
G1 X119.838 Y105.002 E.02956
G1 X119.556 Y104.205 E.02651
G1 X119.469 Y103.262 E.02969
G1 X119.613 Y102.48 E.02493
G1 X119.928 Y101.781 E.02404
G1 X120.409 Y101.139 E.02515
M204 S1000
G1 X120.409 Y101.139 F10800
G1 X120.711 Y101.365
M204 S800
G1 F1200
G1 X120.733 Y101.336 E.00114
G1 X121.342 Y100.841 E.02461
G1 X121.87 Y100.594 E.01828
G1 X122.399 Y100.462 E.01709
G1 X123.536 Y100.478 E.03565
G1 X124.466 Y99.783 E.0364
G1 X124.963 Y99.59 E.01672
G1 X125.528 Y99.485 E.01802
G1 X126.104 Y99.493 E.01806
G1 X127.397 Y99.923 E.04272
G1 X127.853 Y100.263 E.01783
G1 X128.229 Y100.666 E.01728
G1 X128.604 Y101.338 E.02413
G1 X128.852 Y102.205 E.02827
G1 X129.755 Y102.842 E.03465
G1 X130.127 Y103.281 E.01804
G1 X130.393 Y103.763 E.01726
G1 X130.604 Y104.523 E.02473
G1 X130.618 Y105.351 E.02597
G1 X130.456 Y106.079 E.02338
G1 X130.129 Y106.714 E.02239
G1 X129.711 Y107.199 E.02008
G1 X128.858 Y107.786 E.03247
G1 X128.596 Y108.683 E.0293
G1 X128.169 Y109.407 E.02635
G1 X127.684 Y109.878 E.0212
G1 X127.141 Y110.204 E.01986
G1 X126.377 Y110.456 E.02522
G1 X125.66 Y110.525 E.02258
G1 X125.05 Y110.434 E.01934
G1 X124.442 Y110.202 E.0204
G1 X123.528 Y109.521 E.03574
G1 X122.481 Y109.548 E.03284
G1 X121.783 Y109.373 E.02256
G1 X121.218 Y109.078 E.01998
G1 X120.65 Y108.573 E.02383
G1 X120.147 Y107.838 E.02793
G1 X119.912 Y107.174 E.02208
G1 X119.842 Y106.552 E.01963
G1 X119.905 Y105.957 E.01876
G1 X120.239 Y104.999 E.03181
G1 X119.929 Y104.143 E.02855
G1 X119.845 Y103.301 E.02653
G1 X119.967 Y102.611 E.02197
G1 X120.243 Y101.99 E.02131
G1 X120.675 Y101.413 E.0226
M204 S1000
G1 X120.675 Y101.413 F10800
G1 X120.975 Y101.634
M204 S800
G1 F1200
G1 X120.991 Y101.611 E.00088
G1 X121.526 Y101.171 E.02172
G1 X121.98 Y100.955 E.01576
G1 X122.466 Y100.834 E.0157
G1 X123.657 Y100.858 E.03735
G1 X124.669 Y100.102 E.03961
G1 X125.547 Y99.862 E.02854
G1 X126.018 Y99.861 E.01477
G1 X127.199 Y100.245 E.03894
G1 X127.936 Y100.906 E.03104
G1 X128.262 Y101.499 E.02122
G1 X128.526 Y102.437 E.03055
G1 X129.485 Y103.106 E.03666
G1 X129.806 Y103.481 E.01548
G1 X130.052 Y103.925 E.01592
G1 X130.234 Y104.597 E.02183
G1 X130.241 Y105.331 E.02302
G1 X130.095 Y105.969 E.02052
G1 X129.805 Y106.519 E.0195
G1 X129.477 Y106.902 E.01581
G1 X128.532 Y107.552 E.03596
G1 X128.257 Y108.515 E.0314
G1 X127.886 Y109.157 E.02325
G1 X127.468 Y109.568 E.01838
M73 Q4 S5
G1 X127 Y109.854 E.0172
G1 X126.316 Y110.083 E.02262
G1 X125.691 Y110.148 E.0197
G1 X125.127 Y110.064 E.01788
G1 X124.604 Y109.861 E.01759
G1 X123.651 Y109.14 E.03747
G1 X122.497 Y109.17 E.0362
G1 X121.935 Y109.027 E.01818
G1 X121.448 Y108.779 E.01714
G1 X120.947 Y108.34 E.02089
M73 P4 R5
G1 X120.473 Y107.646 E.02635
G1 X120.283 Y107.108 E.01789
G1 X120.219 Y106.57 E.01699
G1 X120.278 Y106.019 E.01737
G1 X120.64 Y104.996 E.03402
G1 X120.301 Y104.079 E.03065
G1 X120.221 Y103.337 E.0234
G1 X120.323 Y102.74 E.01899
G1 X120.56 Y102.196 E.01861
G1 X120.939 Y101.682 E.02002
M204 S1000
G1 X121.24 Y101.901 F10800
M204 S800
G1 F1200
G1 X121.252 Y101.884 E.00065
G1 X121.713 Y101.499 E.01883
G1 X122.531 Y101.206 E.02724
G1 X123.78 Y101.238 E.03917
G1 X124.828 Y100.445 E.04121
G1 X125.596 Y100.237 E.02495
G1 X125.987 Y100.238 E.01226
G1 X127.002 Y100.568 E.03346
G1 X127.644 Y101.145 E.02706
G1 X127.905 Y101.622 E.01705
G1 X128.2 Y102.671 E.03417
G1 X129.217 Y103.372 E.03873
G1 X129.711 Y104.088 E.02727
G1 X129.857 Y104.625 E.01745
G1 X129.864 Y105.311 E.02151
G1 X129.734 Y105.858 E.01763
G1 X129.503 Y106.293 E.01544
G1 X129.241 Y106.606 E.0128
G1 X128.206 Y107.318 E.03939
G1 X127.901 Y108.39 E.03495
G1 X127.602 Y108.909 E.01878
G1 X127.25 Y109.26 E.01559
G1 X126.859 Y109.503 E.01443
G1 X126.215 Y109.719 E.0213
G1 X125.723 Y109.772 E.01552
G1 X125.205 Y109.694 E.01642
G1 X124.769 Y109.521 E.01471
G1 X123.775 Y108.76 E.03925
G1 X122.514 Y108.792 E.03955
G1 X121.675 Y108.476 E.02811
G1 X121.244 Y108.106 E.01781
G1 X120.798 Y107.454 E.02477
G1 X120.655 Y107.041 E.0137
G1 X120.596 Y106.587 E.01435
G1 X120.65 Y106.082 E.01592
G1 X121.042 Y104.995 E.03623
G1 X120.662 Y103.969 E.03431
G1 X120.598 Y103.371 E.01886
G1 X120.679 Y102.865 E.01607
G1 X120.878 Y102.399 E.01589
G1 X121.205 Y101.949 E.01744
M204 S1000
G1 X121.205 Y101.949 F10800
G1 X121.51 Y102.171
M204 S800
G1 F1200
G1 X121.544 Y102.125 E.00179
G1 X121.898 Y101.828 E.01449
G1 X122.593 Y101.579 E.02315
G1 X123.903 Y101.62 E.04109
G1 X124.989 Y100.787 E.04291
G1 X125.644 Y100.611 E.02127
G1 X125.953 Y100.615 E.00969
G1 X126.807 Y100.892 E.02815
G1 X127.064 Y101.076 E.00991
G1 X127.352 Y101.385 E.01324
G1 X127.548 Y101.744 E.01282
G1 X127.874 Y102.905 E.03781
G1 X128.952 Y103.641 E.04093
G1 X129.37 Y104.251 E.02319
G1 X129.48 Y104.653 E.01307
G1 X129.487 Y105.29 E.01997
G1 X129.374 Y105.743 E.01464
G1 X129.198 Y106.071 E.01167
G1 X129.003 Y106.312 E.00972
G1 X127.881 Y107.085 E.04272
G1 X127.545 Y108.264 E.03844
G1 X127.315 Y108.662 E.01441
G1 X126.716 Y109.153 E.02428
G1 X125.754 Y109.395 E.0311
G1 X125.285 Y109.325 E.01487
G1 X124.936 Y109.182 E.01183
G1 X123.901 Y108.379 E.04107
G1 X122.533 Y108.415 E.04291
G1 X121.898 Y108.172 E.02132
G1 X121.54 Y107.871 E.01467
G1 X121.124 Y107.263 E.0231
G1 X120.974 Y106.603 E.02122
G1 X121.023 Y106.145 E.01444
G1 X121.444 Y104.994 E.03843
M73 Q5 S5
G1 X121.024 Y103.86 E.03792
G1 X120.974 Y103.402 E.01445
G1 X121.036 Y102.987 E.01316
G1 X121.197 Y102.602 E.01308
G1 X121.475 Y102.22 E.01481
M204 S1000
G1 X121.475 Y102.22 F10800
G1 X121.788 Y102.494
M204 S800
G1 F1200
G1 X122.083 Y102.158 E.01402
G1 X122.651 Y101.952 E.01894
G1 X124.026 Y102.002 E.04314
G1 X125.154 Y101.127 E.04476
M73 P5 R5
G1 X125.916 Y100.991 E.02427
G1 X126.615 Y101.218 E.02304
G1 X127.06 Y101.624 E.01889
G1 X127.19 Y101.866 E.00861
G1 X127.548 Y103.14 E.04149
G1 X128.848 Y104.086 E.05041
G1 X129.104 Y104.681 E.02031
G1 X129.109 Y105.27 E.01847
G1 X129.03 Y105.585 E.01018
G1 X128.731 Y106.05 E.01733
G1 X127.556 Y106.849 E.04455
G1 X127.188 Y108.139 E.04206
G1 X127.027 Y108.418 E.0101
G1 X126.571 Y108.804 E.01873
G1 X125.785 Y109.018 E.02554
G1 X125.109 Y108.846 E.02187
G1 X124.026 Y107.998 E.04313
G1 X122.599 Y108.043 E.04476
G1 X122.083 Y107.842 E.01736
G1 X121.835 Y107.634 E.01015
G1 X121.471 Y107.112 E.01995
G1 X121.351 Y106.574 E.01728
G1 X121.385 Y106.253 E.01012
G1 X121.846 Y104.994 E.04204
G1 X121.386 Y103.751 E.04156
G1 X121.351 Y103.43 E.01012
G1 X121.516 Y102.804 E.0203
G1 X121.748 Y102.539 E.01104
M204 S1000
G1 X121.748 Y102.539 F10800
G1 X122.027 Y102.742
M204 S800
G1 F1200
G1 X122.126 Y102.606 E.00527
G1 X122.703 Y102.326 E.02011
G1 X124.15 Y102.385 E.04541
G1 X125.324 Y101.465 E.04677
G1 X125.736 Y101.361 E.01332
G1 X126.428 Y101.546 E.02246
G1 X126.766 Y101.863 E.01453
G1 X127.223 Y103.376 E.04956
G1 X128.531 Y104.292 E.05007
G1 X128.727 Y104.71 E.01448
G1 X128.732 Y105.249 E.0169
G1 X128.462 Y105.785 E.01882
G1 X127.231 Y106.613 E.04652
G1 X126.74 Y108.173 E.05128
G1 X126.427 Y108.455 E.01321
G1 X125.775 Y108.641 E.02126
G1 X125.286 Y108.513 E.01585
G1 X124.151 Y107.616 E.04536
G1 X122.66 Y107.67 E.04678
G1 X122.268 Y107.513 E.01324
G1 X121.815 Y106.956 E.02251
G1 X121.727 Y106.544 E.01321
G1 X122.247 Y104.993 E.05129
G1 X121.727 Y103.458 E.05082
G1 X121.835 Y103.007 E.01454
G1 X121.992 Y102.791 E.00837
M204 S1000
G1 X121.992 Y102.791 F10800
G1 X122.297 Y103.012
M204 S800
G1 F1200
G1 X122.418 Y102.846 E.00644
G1 X122.666 Y102.713 E.00882
G1 X124.274 Y102.767 E.05045
G1 X125.502 Y101.797 E.04907
G1 X125.823 Y101.74 E.01022
G1 X126.251 Y101.879 E.01411
G1 X126.453 Y102.073 E.00878
G1 X126.897 Y103.612 E.05022
G1 X128.233 Y104.523 E.0507
G1 X128.355 Y104.776 E.00881
G1 X128.355 Y105.225 E.01408
G1 X128.201 Y105.512 E.01021
G1 X126.906 Y106.376 E.04881
G1 X126.452 Y107.928 E.0507
G1 X126.25 Y108.122 E.00878
G1 X125.776 Y108.264 E.01551
G1 X125.502 Y108.203 E.0088
G1 X124.274 Y107.233 E.04907
G1 X122.711 Y107.296 E.04905
G1 X122.418 Y107.154 E.01021
M73 Q6 S5
G1 X122.154 Y106.791 E.01407
G1 X122.109 Y106.469 E.01019
G1 X122.649 Y104.992 E.04931
G1 X122.104 Y103.487 E.05019
G1 X122.154 Y103.21 E.00883
G1 X122.262 Y103.061 E.00577
M204 S1000
G1 X122.262 Y103.061 F10800
G1 X122.607 Y103.256
M204 S800
G1 F1200
G1 X122.681 Y103.125 E.00472
G1 X124.399 Y103.149 E.05387
G1 X125.773 Y102.12 E.05382
M73 P6 R5
G1 X126.133 Y102.284 E.0124
G1 X126.572 Y103.847 E.0509
G1 X127.934 Y104.763 E.05146
G1 X127.978 Y105.154 E.01234
G1 X126.582 Y106.139 E.05357
G1 X126.132 Y107.717 E.05145
G1 X125.773 Y107.88 E.01236
G1 X124.399 Y106.851 E.05382
G1 X122.767 Y106.916 E.05121
G1 X122.487 Y106.532 E.0149
G1 X123.051 Y104.991 E.05145
G1 X122.487 Y103.468 E.05092
G1 X122.578 Y103.308 E.00577
M204 S1000
G1 X122.578 Y103.308 F10800
; printing object Loop Flower Small.stl id:0 copy 0
G1 X123.211 Y103.7
M204 S800
;TYPE:External perimeter
;WIDTH:0.419999
G1 F1200
G1 X124.474 Y103.751 E.03963
G1 X124.65 Y103.713 E.00565
G1 X125.683 Y102.897 E.04128
G1 X126.025 Y104.114 E.03964
G1 X126.159 Y104.299 E.00716
G1 X127.211 Y105 E.03964
G1 X126.159 Y105.701 E.03964
G1 X126.025 Y105.886 E.00716
G1 X125.683 Y107.103 E.03964
G1 X124.692 Y106.319 E.03962
G1 X124.526 Y106.246 E.00569
G1 X123.211 Y106.3 E.04127
G1 X123.65 Y105.114 E.03965
G1 X123.65 Y104.886 E.00715
G1 X123.232 Y103.757 E.03775
M204 S1000
;WIPE_START
G1 F8640
G1 X123.211 Y103.7 E-.01403
G1 X124.474 Y103.751 E-.29187
G1 X124.65 Y103.713 E-.04158
G1 X125.683 Y102.897 E-.30396
G1 X125.857 Y103.517 E-.14856
;WIPE_END
G1 Z.6 F720
G1 X126.713 Y105.128 F10800
G1 Z.2 F720
G1 E.8 F2100
M204 S800
;TYPE:Solid infill
;WIDTH:0.447666
G1 F1200
G1 X125.254 Y103.669 E.06944
G1 X124.934 Y103.922 E.01373
G1 X126.247 Y105.235 E.06249
G1 X125.912 Y105.472 E.01381
G1 X124.532 Y104.092 E.06568
G1 X123.937 Y104.069 E.02004
G1 X125.691 Y105.823 E.08348
G1 X125.565 Y106.27 E.01563
G1 X123.912 Y104.617 E.07867
G1 X123.982 Y104.805 E.00675
G1 X124.002 Y105.056 E.00847
G1 X123.965 Y105.242 E.00638
G1 X124.647 Y105.924 E.03246
G1 X124.526 Y105.907 E.00411
G1 X124.075 Y105.925 E.01519
G1 X123.678 Y105.528 E.0189
M204 S1000
M106 S84.15
;LAYER_CHANGE
;Z:0.4
;HEIGHT:0.2
;BEFORE_LAYER_CHANGE
G92 E0.0
;0.4


G1 Z.4 F720
;AFTER_LAYER_CHANGE
;0.4
M104 S210 ; set temperature
G1 X123.678 Y105.528 F10800
G1 X123.397 Y105.424
M204 S800
;TYPE:External perimeter
;WIDTH:0.449999
G1 F900
G1 X123.528 Y105.071 E.01274
G1 X123.528 Y104.929 E.00481
G1 X123.022 Y103.563 E.04931
G1 X124.478 Y103.622 E.04932
M73 Q7 S5
G1 X124.612 Y103.579 E.00476
G1 X125.756 Y102.679 E.04927
G1 X126.149 Y104.078 E.04919
G1 X126.232 Y104.192 E.00477
G1 X127.444 Y105 E.04931
G1 X126.232 Y105.808 E.04931
M73 P7 R5
G1 X126.149 Y105.922 E.00477
G1 X125.755 Y107.325 E.04933
G1 X124.612 Y106.422 E.04931
G1 X124.478 Y106.378 E.00477
G1 X123.022 Y106.437 E.04932
G1 X123.377 Y105.48 E.03455
M204 S1000
;WIPE_START
G1 F8640
G1 X123.397 Y105.424 E-.01373
G1 X123.528 Y105.071 E-.08694
G1 X123.528 Y104.929 E-.03279
G1 X123.022 Y103.563 E-.33636
G1 X124.451 Y103.621 E-.33018
;WIPE_END
G1 Z.8 F720
G1 X125.552 Y103.306 F10800
G1 Z.4 F720
G1 E.8 F2100
;TYPE:Solid infill
G1 F900
G1 X125.796 Y104.173 E.03049
G1 X126.032 Y104.499 E.01362
G1 X126.784 Y105 E.03059
G1 X126.032 Y105.501 E.03059
G1 X125.796 Y105.827 E.01362
G1 X125.551 Y106.697 E.03059
G1 X124.842 Y106.136 E.0306
G1 X124.46 Y106.012 E.01359
G1 X123.557 Y106.049 E.03059
G1 X123.87 Y105.201 E.0306
G1 X123.87 Y104.799 E.01361
G1 X123.557 Y103.951 E.0306
G1 X124.46 Y103.988 E.03059
G1 X124.841 Y103.864 E.01356
G1 X125.392 Y103.432 E.0237
G1 X125.325 Y104.002 E.01943
G1 X125.451 Y104.402 E.0142
G1 X125.709 Y104.757 E.01485
G1 X126.05 Y105 E.01417
G1 X125.709 Y105.243 E.01417
G1 X125.45 Y105.599 E.0149
G1 X125.324 Y105.999 E.0142
G1 X124.988 Y105.749 E.01418
G1 X124.57 Y105.613 E.01488
