; generated by PrusaSlicer 2.9.0 on 2025-01-15 at 02:54:50 UTC


;
;
; 

; external perimeters extrusion width = 0.45mm
; perimeters extrusion width = 1.00mm
; infill extrusion width = 1.00mm
; solid infill extrusion width = 0.45mm
; top infill extrusion width = 0.40mm
; first layer extrusion width = 0.42mm

M73 P0 R9
M73 Q0 S9
M201 X1000 Y1000 Z200 E5000 ; sets maximum accelerations, mm/sec^2
M203 X200 Y200 Z12 E120 ; sets maximum feedrates, mm / sec
M204 S1250 T1250 ; sets acceleration (S) and retract acceleration (R), mm/sec^2
M205 X8.00 Y8.00 Z0.40 E4.50 ; sets the jerk limits, mm/sec
M205 S0 T0 ; sets the minimum extruding and travel feed rate, mm/sec

; printing object Articulated_Slug-round_tail.stl id:0 copy 0
; stop printing object Articulated_Slug-round_tail.stl id:0 copy 0

;TYPE:Custom
M862.3 P "MK3S" ; printer model check
M862.1 P0.4 ; nozzle diameter check
M115 U3.13.1 ; tell printer latest fw version
G90 ; use absolute coordinates
M83 ; extruder relative mode
M104 S215 ; set extruder temp
M140 S60 ; set bed temp
M190 S60 ; wait for bed temp
M109 S215 ; wait for extruder temp
G28 W ; home all without mesh bed level
G80 ; mesh bed leveling

G1 Z0.2 F720
G1 Y-3 F1000 ; go outside print area
G92 E0
G1 X60 E9 F1000 ; intro line
G1 X100 E12.5 F1000 ; intro line
M73 P0 R8

G92 E0
M221 S95

; Don't change E values below. Excessive value can damage the printer.
M907 E430 ; set extruder motor current
G21 ; set units to millimeters
G90 ; use absolute coordinates
M83 ; use relative distances for extrusion
M900 K0.05 ; Filament gcode LA 1.5
M900 K30 ; Filament gcode LA 1.0

M107
;LAYER_CHANGE
;Z:0.2
;HEIGHT:0.2
G1 E-.8 F2100
M73 P1 R8
M73 Q1 S8
G1 Z.6 F720
G1 X115.308 Y76.937 F10800
G1 Z.2 F720
G1 E.8 F2100
M204 S800
;TYPE:Skirt/Brim
;WIDTH:0.42
G1 F1200
G1 X115.963 Y76.056 E.03442
G1 X116.864 Y75.457 E.03392
G1 X117.787 Y75.206 E.02999
G1 X131.858 Y75.233 E.44119
G1 X132.591 Y75.323 E.02316
G1 X133.112 Y75.497 E.01722
G1 X133.726 Y75.847 E.02216
G1 X134.165 Y76.235 E.01837
G1 X134.771 Y77.158 E.03462
G1 X135.01 Y78.054 E.02908
G1 X135.025 Y78.606 E.01731
G1 X131.176 Y120.923 E1.3323
G1 X130.737 Y123.853 E.09289
G1 X130.082 Y126.804 E.09478
G1 X129.236 Y129.667 E.0936
M73 Q2 S8
G1 X127.962 Y133.014 E.11229
G1 X127.581 Y133.669 E.02376
M73 P2 R8
G1 X126.824 Y134.363 E.0322
G1 X126.035 Y134.707 E.02699
G1 X125.099 Y134.776 E.02943
G1 X124.242 Y134.522 E.02803
G1 X123.629 Y134.118 E.02302
G1 X123.099 Y133.527 E.02489
G1 X122.601 Y132.553 E.0343
G1 X121.793 Y130.695 E.06353
G1 X120.753 Y127.873 E.0943
G1 X119.922 Y125.047 E.09236
G1 X119.267 Y122.099 E.09469
G1 X118.727 Y118.213 E.12301
G1 X114.992 Y78.745 E1.24302
G1 X114.99 Y78.002 E.0233
G1 X115.291 Y76.995 E.03295
M204 S1000
;WIPE_START
G1 F8640
G1 X115.308 Y76.937 E-.01396
G1 X115.963 Y76.056 E-.25349
G1 X116.864 Y75.457 E-.24982
G1 X117.787 Y75.206 E-.22086
G1 X118.055 Y75.207 E-.06187
;WIPE_END
G1 Z.6 F720
; printing object Articulated_Slug-round_tail.stl id:0 copy 0
G1 X118.012 Y78.481 F10800
G1 Z.2 F720
G1 E.8 F2100
M204 S800
;TYPE:Perimeter
;WIDTH:0.423075
G1 F1200
G1 X117.97 Y78.431 E.00206
G1 X117.996 Y78.247 E.00587
G1 X118.18 Y78.172 E.00628
G1 X118.349 Y78.309 E.00688
G1 X118.422 Y78.56 E.00826
;WIDTH:0.418782
G1 X118.394 Y78.755 E.00616
G1 X118.167 Y78.664 E.00764
;WIDTH:0.423075
G1 X118.051 Y78.527 E.00567
M204 S1000
;WIPE_START
G1 F8640
G1 X118.012 Y78.481 E-.01393
G1 X117.97 Y78.431 E-.01508
G1 X117.996 Y78.247 E-.04291
G1 X118.18 Y78.172 E-.04588
G1 X118.349 Y78.309 E-.05023
G1 X118.422 Y78.56 E-.06036
G1 X118.394 Y78.755 E-.04549
G1 X118.167 Y78.664 E-.05647
G1 X118.051 Y78.527 E-.04145
;WIPE_END
G1 E-.4282 F2100
G1 Z.6 F720
G1 X131.584 Y78.75 F10800
G1 Z.2 F720
G1 E.8 F2100
M204 S800
;WIDTH:0.428355
G1 F1200
G1 X131.629 Y78.399 E.01134
;WIDTH:0.429741
G1 X131.748 Y78.272 E.0056
G1 X131.893 Y78.235 E.00481
G1 X132.007 Y78.325 E.00467
G1 X132.02 Y78.462 E.00443
G1 X131.939 Y78.622 E.00577
;WIDTH:0.428355
G1 X131.622 Y78.781 E.01137
M204 S1000
;WIPE_START
G1 F8640
G1 X131.584 Y78.75 E-.01132
G1 X131.629 Y78.399 E-.08171
G1 X131.748 Y78.272 E-.04019
G1 X131.893 Y78.235 E-.03455
G1 X132.007 Y78.325 E-.03354
G1 X132.02 Y78.462 E-.03178
G1 X131.939 Y78.622 E-.04141
G1 X131.622 Y78.781 E-.08189
;WIPE_END
G1 E-.44361 F2100
G1 Z.6 F720
G1 X126.796 Y93.283 F10800
G1 Z.2 F720
G1 E.8 F2100
M204 S800
;WIDTH:0.419999
G1 F1200
G1 X126.797 Y90.848 E.07635
G1 X126.787 Y90.741 E.00337
G1 X126.587 Y90.408 E.01218
G1 X126.231 Y90.282 E.01184
G1 X123.787 Y90.282 E.07663
M73 Q3 S8
G1 X123.431 Y90.408 E.01184
G1 X123.231 Y90.741 E.01218
G1 X123.22 Y93.285 E.07977
G1 X122.208 Y93.494 E.0324
M73 P3 R8
G1 X121.687 Y93.652 E.01707
G1 X121.827 Y93.185 E.01529
G1 X122.839 Y87.885 E.16918
G1 X123.55 Y87.437 E.02635
G1 X123.724 Y87.035 E.01373
G1 X124.11 Y87.265 E.01409
G1 X125.133 Y87.222 E.0321
G1 X125.927 Y87.269 E.02494
G1 X126.318 Y87.006 E.01477
G1 X126.483 Y87.444 E.01468
G1 X127.204 Y87.901 E.02677
G1 X128.21 Y93.14 E.16727
G1 X128.363 Y93.651 E.01672
G1 X127.909 Y93.516 E.01485
G1 X126.855 Y93.296 E.03376
M204 S1000
;WIPE_START
G1 F8640
G1 X126.796 Y93.283 E-.01395
G1 X126.797 Y90.848 E-.56225
G1 X126.787 Y90.741 E-.02481
G1 X126.587 Y90.408 E-.08969
G1 X126.231 Y90.282 E-.0872
G1 X126.135 Y90.282 E-.0221
;WIPE_END
G1 Z.6 F720
G1 X123.647 Y90.744 F10800
G1 Z.2 F720
G1 E.8 F2100
M204 S800
;TYPE:External perimeter
G1 F1200
G1 X123.598 Y90.845 E.00352
G1 X123.597 Y93.612 E.08676
G1 X123.104 Y93.684 E.01562
G1 X122.317 Y93.855 E.02525
G1 X121.649 Y94.057 E.02188
G1 X121.112 Y94.251 E.0179
G1 X121.098 Y94.088 E.00513
G1 X121.304 Y93.615 E.01618
G1 X121.457 Y93.114 E.01642
G1 X122.497 Y87.666 E.1739
G1 X122.843 Y87.424 E.01324
G1 X123.288 Y87.165 E.01614
;WIDTH:0.468489
G1 X123.319 Y87.074 E.0034
;WIDTH:0.516979
G1 X123.35 Y86.983 E.00379
;WIDTH:0.565469
G1 X123.381 Y86.892 E.00418
G1 X122.532 Y85.547 E.06911
;WIDTH:0.51998
G1 X121.683 Y84.202 E.06309
;WIDTH:0.474491
G1 X120.834 Y82.857 E.05708
;WIDTH:0.429002
G1 X120.825 Y82.843 E.00053
;WIDTH:0.42867
G1 X118.911 Y79.899 E.11263
;WIDTH:0.421219
G1 X118.897 Y79.875 E.00087
;WIDTH:0.420695
G1 X118.512 Y79.241 E.0233
;WIDTH:0.419868
G1 X118.394 Y79.135 E.00497
;WIDTH:0.419999
G1 X118.215 Y79.111 E.00566
G1 X117.871 Y78.911 E.01248
G1 X117.603 Y78.562 E.0138
G1 X117.571 Y78.374 E.00598
G1 X117.652 Y78.069 E.00989
G1 X117.77 Y77.927 E.00579
G1 X117.955 Y77.841 E.0064
G1 X118.162 Y77.794 E.00666
G1 X118.433 Y77.86 E.00875
G1 X118.667 Y78.09 E.01029
G1 X118.759 Y78.299 E.00716
G1 X118.798 Y78.723 E.01335
G1 X118.749 Y78.875 E.00501
G1 X118.787 Y79.062 E.00598
;WIDTH:0.421219
G1 X119.228 Y79.692 E.02419
;WIDTH:0.42867
G1 X121.148 Y82.633 E.11266
;WIDTH:0.429002
G1 X121.158 Y82.646 E.00053
;WIDTH:0.474491
G1 X122.045 Y83.967 E.0571
;WIDTH:0.51998
G1 X122.932 Y85.287 E.06308
;WIDTH:0.565469
G1 X123.819 Y86.607 E.0691
G1 X123.896 Y86.676 E.00449
;WIDTH:0.516979
G1 X123.973 Y86.746 E.0041
;WIDTH:0.468489
G1 X124.051 Y86.815 E.00369
;WIDTH:0.419999
G1 X124.221 Y86.896 E.0059
G1 X125.011 Y86.833 E.02485
G1 X125.819 Y86.899 E.02542
G1 X125.99 Y86.818 E.00593
;WIDTH:0.468507
G1 X126.065 Y86.752 E.00354
;WIDTH:0.517015
G1 X126.14 Y86.685 E.00396
;WIDTH:0.565522
G1 X126.215 Y86.619 E.00434
G1 X127.094 Y85.301 E.06884
;WIDTH:0.519904
G1 X127.974 Y83.983 E.06285
;WIDTH:0.474285
G1 X128.853 Y82.665 E.05682
;WIDTH:0.428666
G1 X128.868 Y82.642 E.00088
;WIDTH:0.428152
G1 X130.772 Y79.705 E.11212
;WIDTH:0.421198
G1 X130.788 Y79.683 E.00086
;WIDTH:0.42068
G1 X131.247 Y78.986 E.02621
;WIDTH:0.419999
G1 X131.2 Y78.849 E.00454
G1 X131.232 Y78.393 E.01433
G1 X131.395 Y78.052 E.01185
G1 X131.652 Y77.874 E.0098
G1 X131.953 Y77.847 E.00948
G1 X132.132 Y77.911 E.00596
G1 X132.349 Y78.127 E.0096
G1 X132.427 Y78.416 E.00939
G1 X132.389 Y78.56 E.00467
G1 X132.273 Y78.814 E.00876
G1 X132.025 Y79.035 E.01042
G1 X131.613 Y79.169 E.01358
G1 X131.472 Y79.277 E.00557
;WIDTH:0.421198
G1 X131.09 Y79.911 E.02328
;WIDTH:0.428152
G1 X129.191 Y82.851 E.11211
;WIDTH:0.428666
G1 X129.177 Y82.875 E.00089
;WIDTH:0.474285
G1 X128.336 Y84.217 E.05681
;WIDTH:0.519904
G1 X127.495 Y85.56 E.06285
;WIDTH:0.565522
G1 X126.654 Y86.903 E.06886
;WIDTH:0.569045
G1 X126.638 Y86.929 E.00134
G1 X126.688 Y87.021 E.00458
;WIDTH:0.519363
G1 X126.738 Y87.113 E.00415
;WIDTH:0.469681
G1 X126.788 Y87.204 E.00368
;WIDTH:0.419999
G1 X127.546 Y87.682 E.0281
G1 X128.58 Y93.069 E.17199
G1 X128.73 Y93.563 E.01619
G1 X128.917 Y93.956 E.01365
G1 X128.913 Y94.248 E.00916
G1 X128.278 Y94.019 E.02117
G1 X127.755 Y93.868 E.01707
G1 X126.948 Y93.686 E.02594
G1 X126.419 Y93.609 E.01676
G1 X126.42 Y90.848 E.08657
G1 X126.35 Y90.701 E.0051
M73 Q4 S8
G1 X126.231 Y90.659 E.00396
G1 X123.787 Y90.659 E.07663
G1 X123.679 Y90.697 E.00359
M73 P4 R8
M204 S1000
;WIPE_START
G1 F8640
G1 X123.647 Y90.744 E-.01313
G1 X123.598 Y90.845 E-.02592
G1 X123.597 Y93.612 E-.63891
G1 X123.104 Y93.684 E-.11504
G1 X123.074 Y93.69 E-.007
;WIPE_END
G1 Z.6 F720
G1 X127.242 Y88.998 F10800
G1 Z.2 F720
G1 E.8 F2100
M204 S800
;TYPE:Solid infill
;WIDTH:0.436607
G1 F1200
G1 X125.857 Y87.613 E.06412
G1 X125.259 Y87.572 E.01962
G1 X127.16 Y89.473 E.08801
G1 X127.293 Y90.162 E.02297
G1 X124.706 Y87.576 E.11974
G1 X124.183 Y87.609 E.01715
G1 X127.639 Y91.065 E.15999
M204 S1000
G1 X127.639 Y91.065 F10800
G1 X126.967 Y90.95
M204 S800
G1 F1200
G1 X127.557 Y91.541 E.02734
G1 X127.69 Y92.23 E.02297
G1 X127.136 Y91.676 E.02565
G1 X127.136 Y92.233 E.01823
G1 X127.822 Y92.919 E.03176
G1 X127.869 Y93.167 E.00826
G1 X127.408 Y93.062 E.01548
G1 X126.966 Y92.62 E.02046
M204 S1000
;WIPE_START
G1 F8640
G1 X127.408 Y93.062 E-.14433
G1 X127.869 Y93.167 E-.10917
G1 X127.822 Y92.919 E-.05828
G1 X127.136 Y92.233 E-.22401
G1 X127.136 Y91.676 E-.12861
G1 X127.551 Y92.091 E-.1356
;WIPE_END
G1 Z.6 F720
G1 X126.129 Y90.112 F10800
G1 Z.2 F720
G1 E.8 F2100
M204 S800
G1 F1200
G1 X123.737 Y87.72 E.11074
G1 X123.398 Y87.938 E.01319
G1 X125.402 Y89.943 E.0928
G1 X124.846 Y89.943 E.0182
G1 X123.121 Y88.217 E.07988
G1 X123.03 Y88.684 E.01557
G1 X124.289 Y89.943 E.05828
G1 X123.74 Y89.95 E.01797
G1 X122.94 Y89.151 E.03701
G1 X122.85 Y89.617 E.01554
G1 X123.328 Y90.095 E.02213
G1 X123.211 Y90.137 E.00407
G1 X123.062 Y90.386 E.0095
G1 X122.76 Y90.084 E.01398
G1 X122.67 Y90.55 E.01554
G1 X122.888 Y90.768 E.01009
G1 X122.881 Y91.319 E.01804
G1 X122.58 Y91.017 E.01396
G1 X122.489 Y91.484 E.01557
G1 X122.881 Y91.875 E.01812
G1 X122.881 Y92.432 E.01823
G1 X122.399 Y91.95 E.02231
G1 X122.309 Y92.417 E.01557
G1 X122.881 Y93.001 E.02676
G1 X122.432 Y93.097 E.01503
G1 X122.074 Y92.738 E.0166
M204 S1000
;WIPE_START
G1 F8640
G1 X122.432 Y93.097 E-.11707
G1 X122.881 Y93.001 E-.10602
G1 X122.309 Y92.417 E-.18875
G1 X122.399 Y91.95 E-.10982
G1 X122.881 Y92.432 E-.1574
G1 X122.881 Y91.909 E-.12094
;WIPE_END
G1 Z.6 F720
G1 X124.972 Y95.291 F10800
G1 Z.2 F720
G1 E.8 F2100
M204 S800
;TYPE:Perimeter
;WIDTH:0.419999
G1 F1200
G1 X124.995 Y95.255 E.00134
G1 X125.103 Y95.432 E.0065
G1 X125.354 Y95.515 E.00829
G1 X126.26 Y95.591 E.02851
G1 X127.197 Y95.76 E.02985
G1 X127.767 Y95.919 E.01855
G1 X128.465 Y96.155 E.0231
G1 X128.465 Y96.563 E.01279
G1 X128.465 Y100.477 E.12272
G1 X127.945 Y100.322 E.01701
G1 X126.785 Y100.079 E.03716
G1 X126.785 Y97.645 E.07632
G1 X126.699 Y97.345 E.00979
G1 X126.551 Y97.186 E.00681
G1 X126.414 Y97.114 E.00485
G1 X126.219 Y97.079 E.00621
G1 X123.67 Y97.089 E.07992
G1 X123.44 Y97.189 E.00786
G1 X123.297 Y97.341 E.00654
G1 X123.209 Y97.645 E.00992
G1 X123.209 Y100.081 E.07638
G1 X122.196 Y100.288 E.03242
G1 X121.549 Y100.475 E.02112
G1 X121.549 Y96.157 E.13539
G1 X122.025 Y95.979 E.01593
G1 X122.785 Y95.767 E.02474
G1 X123.632 Y95.608 E.02702
G1 X124.649 Y95.508 E.03204
M73 Q5 S8
G1 X124.885 Y95.43 E.00779
G1 X124.94 Y95.342 E.00325
M204 S1000
G1 X124.94 Y95.342 F10800
G1 X124.726 Y95.053
M204 S800
;TYPE:External perimeter
;WIDTH:0.446964
G1 F1200
M73 P5 R8
G1 X124.795 Y94.948 E.00422
G1 X124.795 Y92.704 E.07539
G1 X125.2 Y92.704 E.01361
G1 X125.2 Y94.945 E.07529
G1 X125.302 Y95.111 E.00655
;WIDTH:0.419999
G1 X125.386 Y95.139 E.00278
G1 X126.309 Y95.217 E.02904
G1 X127.281 Y95.392 E.03097
G1 X128.176 Y95.642 E.02914
G1 X128.842 Y95.894 E.02233
G1 X128.842 Y96.563 E.02098
G1 X128.842 Y101.012 E.1395
G1 X128.424 Y100.858 E.01397
G1 X127.825 Y100.68 E.01959
G1 X126.944 Y100.484 E.0283
G1 X126.408 Y100.405 E.01699
G1 X126.408 Y97.645 E.08654
G1 X126.33 Y97.492 E.00538
G1 X126.219 Y97.456 E.00366
G1 X123.775 Y97.456 E.07663
G1 X123.663 Y97.493 E.0037
G1 X123.586 Y97.645 E.00534
G1 X123.586 Y100.407 E.0866
G1 X123.088 Y100.48 E.01578
G1 X122.301 Y100.65 E.02524
G1 X121.648 Y100.839 E.02131
G1 X121.172 Y101.014 E.0159
G1 X121.172 Y95.895 E.1605
G1 X122.141 Y95.555 E.0322
G1 X123.108 Y95.323 E.03118
G1 X123.666 Y95.226 E.01776
G1 X124.691 Y95.107 E.03235
;WIDTH:0.446964
G1 X124.693 Y95.103 E.00015
M204 S1000
;WIPE_START
G1 F8640
G1 X124.726 Y95.053 E-.01383
G1 X124.795 Y94.948 E-.02901
G1 X124.795 Y92.704 E-.51815
G1 X125.2 Y92.704 E-.09352
G1 X125.2 Y93.334 E-.14549
;WIPE_END
G1 Z.6 F720
G1 X128.295 Y97.079 F10800
G1 Z.2 F720
G1 E.8 F2100
M204 S800
;TYPE:Solid infill
;WIDTH:0.438484
G1 F1200
G1 X127.379 Y96.163 E.04261
G1 X127.121 Y96.091 E.00881
G1 X126.665 Y96.009 E.01524
G1 X128.125 Y97.469 E.06791
G1 X128.125 Y98.028 E.01839
G1 X126.007 Y95.91 E.09852
G1 X125.397 Y95.859 E.02013
G1 X126.287 Y96.749 E.0414
G1 X126.529 Y96.792 E.00808
G1 X126.754 Y96.912 E.00839
G1 X126.994 Y97.169 E.01157
G1 X127.11 Y97.572 E.01379
G1 X128.125 Y98.588 E.04724
G1 X128.125 Y99.147 E.01839
G1 X127.124 Y98.146 E.04656
G1 X127.124 Y98.706 E.01842
G1 X128.125 Y99.707 E.04656
G1 X128.125 Y100.023 E.01039
G1 X127.801 Y99.942 E.01098
G1 X126.955 Y99.095 E.03938
M204 S1000
;WIPE_START
G1 F8640
G1 X127.801 Y99.942 E-.27642
G1 X128.125 Y100.023 E-.07711
G1 X128.125 Y99.707 E-.07297
G1 X127.124 Y98.706 E-.32687
G1 X127.124 Y98.504 E-.04663
;WIPE_END
G1 Z.6 F720
G1 X125.887 Y96.909 F10800
G1 Z.2 F720
G1 E.8 F2100
M204 S800
G1 F1200
G1 X124.803 Y95.824 E.05045
G1 X124.301 Y95.882 E.01662
G1 X125.158 Y96.74 E.03989
G1 X124.599 Y96.74 E.01839
G1 X123.792 Y95.933 E.03754
G1 X123.313 Y96.013 E.01597
G1 X124.039 Y96.74 E.03379
G1 X123.761 Y96.74 E.00914
G1 X123.523 Y96.783 E.00795
G1 X122.844 Y96.103 E.03161
G1 X122.406 Y96.225 E.01495
G1 X123.168 Y96.987 E.03544
G1 X123.004 Y97.163 E.00791
G1 X122.954 Y97.333 E.00583
G1 X121.98 Y96.358 E.04533
G1 X121.889 Y96.392 E.0032
G1 X121.889 Y96.826 E.01427
G1 X122.87 Y97.807 E.04563
G1 X122.869 Y98.367 E.01842
G1 X121.889 Y97.386 E.04561
G1 X121.889 Y97.945 E.01839
G1 X122.869 Y98.926 E.04561
G1 X122.869 Y99.485 E.01839
G1 X121.889 Y98.505 E.04558
G1 X121.889 Y99.064 E.01839
G1 X122.664 Y99.839 E.03605
G1 X122.203 Y99.938 E.01551
G1 X121.719 Y99.454 E.02251
M204 S1000
;WIPE_START
G1 F8640
G1 X122.203 Y99.938 E-.15805
G1 X122.664 Y99.839 E-.10887
G1 X121.889 Y99.064 E-.25307
G1 X121.889 Y98.505 E-.12907
G1 X122.351 Y98.967 E-.15094
;WIPE_END
G1 Z.6 F720
G1 X124.974 Y102.088 F10800
G1 Z.2 F720
M73 P6 R8
M73 Q6 S8
G1 E.8 F2100
M204 S800
;TYPE:Perimeter
;WIDTH:0.419999
G1 F1200
G1 X124.998 Y102.049 E.00144
G1 X125.106 Y102.225 E.00647
G1 X125.352 Y102.306 E.00812
G1 X126.26 Y102.386 E.02858
G1 X127.083 Y102.528 E.02619
G1 X127.947 Y102.76 E.02805
G1 X128.465 Y102.952 E.01732
G1 X128.465 Y103.469 E.01621
G1 X128.465 Y107.271 E.11921
G1 X127.446 Y107.001 E.03305
G1 X126.785 Y106.873 E.02111
G1 X126.785 Y104.44 E.07628
G1 X126.699 Y104.139 E.00982
G1 X126.512 Y103.956 E.0082
G1 X126.219 Y103.874 E.00954
G1 X123.888 Y103.874 E.07309
G1 X123.585 Y103.907 E.00956
G1 X123.297 Y104.136 E.01154
G1 X123.209 Y104.44 E.00992
G1 X123.209 Y106.876 E.07638
G1 X122.197 Y107.083 E.03239
G1 X121.549 Y107.27 E.02115
G1 X121.549 Y102.951 E.13542
G1 X122.023 Y102.774 E.01586
G1 X122.966 Y102.521 E.03061
G1 X123.792 Y102.38 E.02627
G1 X124.642 Y102.306 E.02675
G1 X124.889 Y102.225 E.00815
G1 X124.942 Y102.139 E.00317
M204 S1000
G1 X124.942 Y102.139 F10800
G1 X124.727 Y101.849
M204 S800
;TYPE:External perimeter
;WIDTH:0.446964
G1 F1200
G1 X124.795 Y101.743 E.00423
