; generated by PrusaSlicer 2.9.0 on 2025-01-15 at 03:13:50 UTC


;
;
; 

; external perimeters extrusion width = 0.45mm
; perimeters extrusion width = 0.45mm
; infill extrusion width = 0.45mm
; solid infill extrusion width = 0.45mm
; top infill extrusion width = 0.40mm
; first layer extrusion width = 0.42mm

M73 P0 R47
M73 Q0 S48
M201 X1000 Y1000 Z200 E5000 ; sets maximum accelerations, mm/sec^2
M203 X200 Y200 Z12 E120 ; sets maximum feedrates, mm / sec
M204 S1250 T1250 ; sets acceleration (S) and retract acceleration (R), mm/sec^2
M205 X8.00 Y8.00 Z0.40 E4.50 ; sets the jerk limits, mm/sec
M205 S0 T0 ; sets the minimum extruding and travel feed rate, mm/sec

; printing object Low Poly Egyptian Cat.stl id:0 copy 0
; stop printing object Low Poly Egyptian Cat.stl id:0 copy 0

;TYPE:Custom
M862.3 P "MK3S" ; printer model check
M862.1 P0.4 ; nozzle diameter check
M115 U3.13.0 ; tell printer latest fw version
G90 ; use absolute coordinates
M83 ; extruder relative mode
M104 S215 ; set extruder temp
M140 S60 ; set bed temp
M190 S60 ; wait for bed temp
M109 S215 ; wait for extruder temp
G28 W ; home all without mesh bed level
G80 ; mesh bed leveling

G1 Z0.2 F720
G1 Y-3 F1000 ; go outside print area
G92 E0
G1 X60 E9 F1000 ; intro line
G1 X100 E12.5 F1000 ; intro line

G92 E0
M221 S95

; Don't change E values below. Excessive value can damage the printer.
M907 E430 ; set extruder motor current
G21 ; set units to millimeters
G90 ; use absolute coordinates
M83 ; use relative distances for extrusion
M900 K0.05 ; Filament gcode LA 1.5
M900 K30 ; Filament gcode LA 1.0
M107
;LAYER_CHANGE
;Z:0.2
;HEIGHT:0.2
G1 E-.8 F2100
G1 Z.6 F720
G1 X116.936 Y91.744 F10800
G1 Z.2 F720
G1 E.8 F2100
M204 S800
;TYPE:Skirt/Brim
;WIDTH:0.42
G1 F1200
G3 X120.155 Y90.743 I2.429 J2.136 E.11118
G3 X123.331 Y89.812 I2.39 J2.271 E.10871
G1 X125.001 Y90.491 E.05652
G1 X126.843 Y89.767 E.06206
G3 X129.201 Y90.234 I.607 J3.124 E.07729
G1 X131.327 Y92.111 E.08892
G3 X132.075 Y94.489 I-2.488 J2.09 E.08022
G3 X131.435 Y97.251 I-9.561 J-.762 E.08922
G1 X129.711 Y99.591 E.09113
G1 X129.18 Y100.066 E.02234
G1 X129.328 Y100.33 E.00949
G3 X131.2 Y100.37 I.887 J2.277 E.06025
G1 X133.81 Y102.106 E.09828
G3 X135.031 Y104.242 I-2.189 J2.668 E.07888
G1 X135.584 Y118.07 E.43391
G3 X134.4 Y121.061 I-2.87 J.593 E.10677
M73 Q0 S47
G1 X126.62 Y127.501 E.31667
G3 X124.143 Y127.95 I-1.803 J-2.888 E.08085
G1 X115.287 Y125.382 E.28911
G3 X113.693 Y124.148 I2.03 J-4.267 E.06369
G1 X112.153 Y121.808 E.08783
G1 X111.802 Y120.747 E.03504
G1 X111.186 Y109.993 E.33774
G1 X111.182 Y108.726 E.03973
G3 X113.501 Y97.288 I251.492 J45.04 E.36596
G1 X113.747 Y96.737 E.01892
G1 X116.904 Y91.795 E.18387
M204 S1000
G1 X116.904 Y91.795 F10800
G1 X117.222 Y91.998
M204 S800
G1 F1200
G1 X117.239 Y91.971 E.001
G3 X120.262 Y91.136 I2.177 J1.992 E.10367
G3 X122.587 Y90.072 I2.463 J2.311 E.08222
G3 X125 Y90.897 I-1.519 J8.383 E.08026
G1 X126.905 Y90.14 E.06427
G3 X128.969 Y90.532 I.55 J2.731 E.06754
G1 X131.026 Y92.34 E.08587
G3 X131.701 Y94.442 I-2.161 J1.853 E.07109
G3 X131.116 Y97.047 I-9.685 J-.804 E.08398
G1 X129.419 Y99.35 E.0897
G3 X127.938 Y100.167 I-2.025 J-1.922 E.05388
G3 X125.612 Y100.036 I-.886 J-5.019 E.0737
G1 X125 Y99.643 E.0228
G3 X123.211 Y100.237 I-1.626 J-1.905 E.0606
G1 X122.568 Y100.874 E.02838
G1 X122.044 Y102.619 E.05713
G1 X123.608 Y106.518 E.13172
G1 X126.296 Y106.518 E.08428
G1 X127.851 Y101.857 E.15406
G3 X128.871 Y100.875 I1.984 J1.039 E.04517
G3 X130.655 Y100.586 I1.331 J2.572 E.05763
G1 X131.057 Y100.72 E.01329
G1 X133.587 Y102.41 E.0954
G3 X134.655 Y104.281 I-1.944 J2.351 E.06904
G1 X135.209 Y118.119 E.43423
G3 X134.171 Y120.761 I-2.479 J.551 E.09444
G1 X126.399 Y127.194 E.31633
G3 X124.235 Y127.584 I-1.576 J-2.544 E.0706
G1 X115.413 Y125.026 E.288
G3 X113.997 Y123.924 I1.854 J-3.843 E.05668
G1 X112.482 Y121.621 E.08643
G1 X112.177 Y120.701 E.03039
G1 X111.563 Y109.976 E.33683
G1 X111.556 Y108.778 E.03756
G3 X113.865 Y97.388 I250.374 J44.835 E.36442
G1 X114.072 Y96.929 E.01579
G1 X117.189 Y92.048 E.18158
M204 S1000
G1 X117.189 Y92.048 F10800
G1 X117.507 Y92.251
M204 S800
G1 F1200
G1 X117.54 Y92.199 E.00193
G3 X119.276 Y91.397 I1.789 J1.592 E.06168
G1 X120.369 Y91.529 E.03452
G3 X121.951 Y90.518 I3.329 J3.467 E.05925
G3 X123.089 Y90.528 I.547 J2.604 E.03596
G1 X125 Y91.304 E.06467
G1 X126.97 Y90.512 E.06657
G3 X128.739 Y90.831 I.492 J2.33 E.05779
G1 X130.757 Y92.605 E.08425
G3 X131.326 Y94.396 I-1.847 J1.573 E.0605
G3 X130.775 Y96.885 I-9.452 J-.786 E.08017
G1 X129.129 Y99.109 E.08675
G3 X127.864 Y99.797 I-1.717 J-1.651 E.04587
G3 X125.739 Y99.68 I-.816 J-4.566 E.06733
G1 X124.998 Y99.186 E.02792
G3 X123.062 Y99.854 I-1.691 J-1.764 E.06626
G1 X122.234 Y100.674 E.03654
G1 X121.645 Y102.637 E.06426
G1 X123.353 Y106.895 E.14385
G1 X126.568 Y106.895 E.1008
G1 X128.183 Y102.038 E.16049
G3 X129.01 Y101.226 I1.631 J.835 E.03697
G3 X130.91 Y101.068 I1.116 J1.915 E.06179
G1 X133.363 Y102.714 E.09262
G3 X134.279 Y104.319 I-1.699 J2.034 E.05919
G1 X134.833 Y118.171 E.43467
G3 X133.942 Y120.46 I-2.087 J.505 E.08198
G1 X126.178 Y126.887 E.31602
G3 X124.328 Y127.218 I-1.348 J-2.2 E.06031
G1 X115.54 Y124.67 E.28689
G3 X114.301 Y123.699 I1.683 J-3.423 E.04971
G1 X112.81 Y121.434 E.08502
G1 X112.552 Y120.655 E.02573
G1 X111.939 Y109.959 E.33592
G1 X111.93 Y108.83 E.0354
G3 X114.229 Y97.489 I249.242 J44.628 E.36285
G1 X114.397 Y97.121 E.01268
G1 X117.475 Y92.302 E.17929
M204 S1000
G1 X117.475 Y92.302 F10800
G1 X117.787 Y92.498
M204 S800
G1 F1200
G1 X117.805 Y92.469 E.00107
G3 X119.253 Y91.774 I1.517 J1.304 E.05182
G1 X120.477 Y91.922 E.03866
G3 X122.025 Y90.889 I3.676 J3.83 E.05865
G1 X122.532 Y90.826 E.01602
G1 X122.97 Y90.886 E.01386
G1 X125 Y91.711 E.0687
G1 X127.038 Y90.883 E.06897
G3 X128.509 Y91.132 I.431 J1.931 E.04796
G1 X130.487 Y92.87 E.08256
G3 X130.951 Y94.351 I-1.531 J1.293 E.04997
G3 X130.436 Y96.72 I-9.315 J-.787 E.07623
G1 X128.84 Y98.866 E.08385
G3 X127.794 Y99.426 I-1.411 J-1.378 E.03779
G3 X125.871 Y99.326 I-.749 J-4.132 E.06092
G1 X125 Y98.727 E.03314
G3 X123.475 Y99.493 I-1.91 J-1.902 E.05444
G1 X122.915 Y99.468 E.01758
G1 X121.9 Y100.474 E.04481
G1 X121.246 Y102.655 E.07139
G1 X123.098 Y107.272 E.15597
G1 X126.84 Y107.272 E.11733
G1 X128.516 Y102.216 E.16701
G3 X129.15 Y101.577 I1.278 J.635 E.02871
G3 X130.521 Y101.329 I1.044 J1.862 E.0445
G1 X130.722 Y101.396 E.00664
G1 X133.14 Y103.019 E.09131
G3 X133.903 Y104.357 I-1.457 J1.718 E.04929
G1 X134.458 Y118.225 E.43517
G3 X133.714 Y120.16 I-1.698 J.457 E.06951
M73 P1 R47
M73 Q1 S47
G1 X125.958 Y126.579 E.31567
G3 X124.422 Y126.853 I-1.122 J-1.855 E.05004
G1 X115.705 Y124.33 E.28453
G3 X114.604 Y123.475 I1.458 J-3.009 E.04403
G1 X113.139 Y121.248 E.08358
G1 X112.927 Y120.608 E.02114
G1 X112.307 Y108.846 E.3693
G3 X114.593 Y97.591 I251.946 J45.309 E.36013
G1 X117.755 Y92.548 E.18663
M204 S1000
G1 X117.755 Y92.548 F10800
G1 X118.074 Y92.749
M204 S800
G1 F1200
G1 X118.107 Y92.698 E.0019
G3 X119.232 Y92.151 I1.197 J1.032 E.04033
G1 X120.585 Y92.315 E.04273
G3 X122.101 Y91.259 I4.516 J4.866 E.05812
G1 X122.852 Y91.246 E.02355
G1 X125 Y92.118 E.07269
G1 X127.156 Y91.243 E.07295
G3 X128.281 Y91.433 I.316 J1.547 E.0366
G1 X130.216 Y93.134 E.08078
G3 X130.576 Y94.306 I-1.213 J1.014 E.03948
G3 X130.097 Y96.552 I-9.338 J-.818 E.07219
G1 X128.55 Y98.623 E.08105
G3 X127.757 Y99.05 I-1.123 J-1.136 E.02863
G3 X126.055 Y98.995 I-.722 J-3.978 E.0538
G1 X125 Y98.27 E.04014
G1 X123.932 Y99.004 E.04063
G3 X122.77 Y99.081 I-.743 J-2.395 E.03685
G1 X121.567 Y100.274 E.05312
G1 X120.847 Y102.673 E.07853
G1 X122.843 Y107.649 E.1681
G1 X127.113 Y107.649 E.13388
G1 X128.958 Y102.207 E.18017
G3 X130.574 Y101.743 I1.179 J1.062 E.05556
G1 X132.916 Y103.322 E.08856
G3 X133.527 Y104.395 I-1.206 J1.399 E.03948
G1 X134.083 Y118.284 E.43583
G3 X133.485 Y119.86 I-1.313 J.403 E.0569
G1 X125.737 Y126.273 E.31535
G3 X124.513 Y126.487 I-.895 J-1.513 E.03982
G1 X115.83 Y123.974 E.28342
G3 X114.908 Y123.249 I1.298 J-2.601 E.03703
G1 X113.467 Y121.061 E.08214
G1 X113.302 Y120.562 E.01648
G1 X112.685 Y108.862 E.36736
G3 X114.945 Y97.728 I262.588 J47.513 E.35624
G1 X118.042 Y92.8 E.18249
M204 S1000
G1 X118.042 Y92.8 F10800
G1 X118.361 Y93.001
M204 S800
G1 F1200
G1 X118.407 Y92.928 E.00271
G3 X119.213 Y92.529 I.878 J.759 E.02896
G1 X120.693 Y92.707 E.04674
G1 X121.995 Y91.705 E.05151
G3 X122.733 Y91.604 I.525 J1.094 E.02374
G1 X125 Y92.525 E.07672
G1 X127.273 Y91.602 E.07692
G1 X127.48 Y91.579 E.00653
G1 X128.052 Y91.734 E.01858
G1 X129.943 Y93.396 E.07894
G3 X130.201 Y94.262 I-.892 J.738 E.02911
G3 X129.76 Y96.382 I-9.654 J-.904 E.06804
G1 X128.261 Y98.381 E.07834
G1 X127.835 Y98.645 E.01571
G3 X126.237 Y98.662 I-.842 J-3.855 E.05046
G1 X125 Y97.813 E.04704
G1 X123.763 Y98.662 E.04704
G3 X122.624 Y98.695 I-.647 J-2.699 E.03598
G1 X121.233 Y100.073 E.06139
G1 X120.448 Y102.69 E.08567
G1 X122.588 Y108.027 E.18029
G1 X127.385 Y108.027 E.15041
G1 X129.218 Y102.494 E.18276
G3 X130.417 Y102.086 I.923 J.746 E.04189
G1 X132.689 Y103.624 E.08602
G3 X133.152 Y104.435 I-.941 J1.074 E.02983
G1 X133.708 Y118.349 E.43661
G3 X133.256 Y119.56 I-.935 J.341 E.04411
G1 X125.519 Y125.964 E.31491
G3 X124.604 Y126.12 I-.668 J-1.155 E.02972
G1 X115.955 Y123.618 E.2823
G3 X115.21 Y123.023 I1.159 J-2.216 E.03008
G1 X113.796 Y120.874 E.08066
G1 X113.677 Y120.516 E.01183
G1 X113.062 Y108.877 E.36544
G3 X115.297 Y97.863 I274.109 J49.901 E.3524
G1 X118.329 Y93.051 E.17833
M204 S1000
G1 X118.329 Y93.051 F10800
G1 X118.648 Y93.253
M204 S800
G1 F1200
G1 X118.708 Y93.157 E.00355
G3 X119.237 Y92.906 I.561 J.497 E.01886
G1 X120.8 Y93.101 E.04939
G1 X122.206 Y92.018 E.05565
G1 X122.564 Y91.957 E.01139
G1 X124.741 Y92.826 E.0735
G1 X125 Y93.122 E.01233
G1 X125.259 Y92.826 E.01233
G1 X127.391 Y91.961 E.07214
G1 X127.775 Y92.011 E.01214
G1 X129.668 Y93.657 E.07865
G3 X129.826 Y94.219 I-.566 J.462 E.01883
G1 X129.445 Y96.174 E.06245
G1 X127.972 Y98.138 E.07697
G1 X127.71 Y98.289 E.00948
G3 X126.365 Y98.306 I-.724 J-3.966 E.04237
G1 X125 Y97.351 E.05223
G1 X123.635 Y98.306 E.05223
G3 X122.478 Y98.309 I-.585 J-3.331 E.03646
G1 X120.9 Y99.873 E.06966
G1 X120.049 Y102.708 E.09281
G1 X122.333 Y108.404 E.19242
G1 X127.657 Y108.404 E.16693
G1 X129.618 Y102.613 E.1917
G1 X130.26 Y102.436 E.02088
G1 X132.462 Y103.926 E.08336
G1 X132.712 Y104.263 E.01316
G1 X132.776 Y104.474 E.00691
G1 X133.334 Y118.411 E.43733
G3 X133.028 Y119.26 I-.573 J.273 E.03148
G1 X125.298 Y125.657 E.3146
G3 X124.694 Y125.754 I-.441 J-.821 E.01954
G1 X116.08 Y123.261 E.28117
G1 X115.513 Y122.797 E.02297
G1 X114.125 Y120.688 E.07916
G1 X114.052 Y120.47 E.00721
G1 X113.439 Y108.893 E.3635
G3 X115.651 Y97.995 I286.3 J52.433 E.34869
G1 X118.616 Y93.303 E.17403
M204 S1000
;WIPE_START
G1 F8640
G1 X118.648 Y93.253 E-.01371
G1 X118.708 Y93.157 E-.02614
G3 X119.237 Y92.906 I.56 J.497 E-.1389
G1 X120.8 Y93.101 E-.3637
G1 X121.684 Y92.421 E-.25755
;WIPE_END
G1 Z.6 F720
G1 X123.208 Y100.737 F10800
G1 Z.2 F720
G1 E.8 F2100
M204 S800
G1 F1200
G3 X123.647 Y100.614 I.432 J.699 E.01448
G2 X125.004 Y100.097 I-.261 J-2.726 E.04608
G2 X126.431 Y100.621 I1.754 J-2.571 E.04815
G1 X128.545 Y100.505 E.06638
G2 X127.501 Y101.715 I2.816 J3.484 E.05038
G1 X126.024 Y106.141 E.1463
G1 X123.863 Y106.141 E.06776
G1 X122.443 Y102.601 E.11959
G1 X122.901 Y101.075 E.04996
G3 X123.158 Y100.77 I.739 J.361 E.01263
M204 S1000
;WIPE_START
G1 F8640
G1 X123.208 Y100.737 E-.01383
G3 X123.647 Y100.614 I.433 J.7 E-.10667
G2 X125.004 Y100.097 I-.261 J-2.726 E-.33936
G2 X126.369 Y100.614 I1.754 J-2.571 E-.34014
;WIPE_END
G1 Z.6 F720
; printing object Low Poly Egyptian Cat.stl id:0 copy 0
G1 X124.23 Y124.292 F10800
G1 Z.2 F720
G1 E.8 F2100
M204 S800
;TYPE:Perimeter
;WIDTH:0.419999
G1 F1200
G1 X116.693 Y122.111 E.24601
G1 X116.516 Y122.001 E.00653
G1 X115.313 Y120.173 E.06861
G1 X114.721 Y109.837 E.32461
G1 X114.711 Y109.015 E.02578
G3 X116.856 Y98.441 I293.296 J54.007 E.33831
G1 X119.539 Y94.227 E.15663
G2 X121.121 Y94.396 I2.495 J-15.915 E.0499
G1 X121.346 Y94.291 E.00779
G1 X122.592 Y93.331 E.04932
G1 X123.769 Y93.809 E.03983
G1 X123.864 Y96.592 E.08731
G1 X123.188 Y97.072 E.026
G1 X122.822 Y97.051 E.01149
G1 X122.76 Y96.983 E.00289
G1 X122.424 Y96.897 E.01087
G1 X122.163 Y96.98 E.00859
G1 X121.704 Y97.28 E.01719
G1 X119.873 Y99.094 E.08081
G1 X119.73 Y99.334 E.00876
G1 X118.852 Y102.262 E.09584
G2 X118.607 Y102.912 I2.416 J1.278 E.02184
G2 X118.983 Y103.477 I.629 J-.01 E.02248
G1 X121.156 Y108.892 E.18294
G1 X121.233 Y109.324 E.01376
G2 X121.757 Y109.678 I.549 J-.248 E.02087
G1 X128.243 Y109.678 E.20336
G2 X128.738 Y109.386 I-.042 J-.636 E.01869
G1 X128.848 Y108.867 E.01663
G1 X130.43 Y104.091 E.15775
G1 X131.513 Y104.824 E.041
G1 X132.057 Y118.417 E.42654
G1 X124.762 Y124.446 E.29673
G1 X124.288 Y124.308 E.01548
M204 S1000
G1 X124.288 Y124.308 F10800
G1 X124.126 Y124.654
M204 S800
;TYPE:External perimeter
G1 F1200
G1 X116.428 Y122.427 E.25126
G1 X116.229 Y122.251 E.00833
G1 X114.942 Y120.296 E.07339
G1 X114.344 Y109.85 E.32806
G1 X114.333 Y108.981 E.02725
M73 P2 R47
M73 Q2 S47
G3 X116.502 Y98.295 I296.066 J54.526 E.3419
M73 P2 R46
G1 X119.35 Y93.823 E.16624
G1 X120.977 Y94.03 E.05142
G1 X121.116 Y93.992 E.00452
G1 X122.534 Y92.9 E.05612
G1 X124.138 Y93.551 E.05428
G1 X124.238 Y96.789 E.10157
G1 X123.299 Y97.456 E.03611
G1 X122.693 Y97.421 E.01903
G2 X122.398 Y97.283 I-.272 J.198 E.01066
G1 X121.969 Y97.547 E.01579
G1 X120.139 Y99.362 E.08081
G1 X120.091 Y99.442 E.00293
G1 X119.213 Y102.37 E.09584
G1 X118.984 Y102.927 E.01888
G1 X119.038 Y103.067 E.0047
G1 X119.284 Y103.214 E.00899
G1 X121.523 Y108.794 E.18852
G2 X121.626 Y109.247 I1.052 E.01469
G1 X121.757 Y109.301 E.00444
G1 X128.243 Y109.301 E.20336
G2 X128.408 Y109.203 I-.079 J-.322 E.0061
G1 X128.479 Y108.782 E.01339
G1 X130.229 Y103.499 E.1745
G1 X131.883 Y104.627 E.06277
G1 X132.445 Y118.582 E.4379
G1 X124.849 Y124.863 E.30904
G1 X124.183 Y124.671 E.02173
M204 S1000
;WIPE_START
G1 F8640
G1 X124.126 Y124.654 E-.01373
G1 X120.855 Y123.708 E-.78627
;WIPE_END
G1 Z.6 F720
G1 X130.399 Y104.725 F10800
G1 Z.2 F720
G1 E.8 F2100
M204 S800
;TYPE:Solid infill
;WIDTH:0.423458
G1 F1200
G1 X131.202 Y105.528 E.03593
G1 X131.224 Y106.089 E.01776
G1 X130.399 Y105.263 E.03694
G1 X130.265 Y105.668 E.0135
G1 X131.247 Y106.649 E.04392
G1 X131.269 Y107.21 E.01776
G1 X130.131 Y106.072 E.05092
G1 X129.997 Y106.476 E.01347
G1 X131.291 Y107.77 E.0579
G1 X131.314 Y108.331 E.01777
G1 X129.863 Y106.88 E.06493
G1 X129.729 Y107.285 E.0135
G1 X131.336 Y108.892 E.07191
G1 X131.359 Y109.452 E.01773
G1 X129.596 Y107.689 E.07889
G1 X129.462 Y108.093 E.01347
G1 X131.381 Y110.013 E.08589
G1 X131.404 Y110.573 E.01773
G1 X129.328 Y108.497 E.0929
G1 X129.194 Y108.902 E.0135
G1 X131.426 Y111.134 E.09988
G1 X131.448 Y111.695 E.01776
G1 X129.104 Y109.35 E.10491
G3 X128.917 Y109.701 I-.685 J-.139 E.01276
G1 X131.471 Y112.255 E.11429
G1 X131.493 Y112.816 E.01776
G1 X128.614 Y109.936 E.12885
G3 X128.156 Y110.017 I-.408 J-.975 E.01484
G1 X131.516 Y113.376 E.15033
G1 X131.538 Y113.937 E.01776
G1 X127.618 Y110.017 E.17541
G1 X127.08 Y110.017 E.01702
G1 X131.561 Y114.497 E.20049
G1 X131.583 Y115.058 E.01776
G1 X126.542 Y110.017 E.22558
G1 X126.004 Y110.017 E.01702
G1 X131.606 Y115.619 E.25068
G1 X131.628 Y116.179 E.01773
G1 X125.466 Y110.017 E.27574
G1 X124.928 Y110.017 E.01702
G1 X131.65 Y116.74 E.30082
G1 X131.673 Y117.3 E.01773
G1 X124.389 Y110.017 E.32592
G1 X123.851 Y110.017 E.01702
G1 X131.695 Y117.861 E.35101
G1 X131.711 Y118.262 E.0127
G1 X131.627 Y118.331 E.00344
G1 X123.313 Y110.017 E.37204
G1 X122.775 Y110.017 E.01702
M73 Q2 S46
G1 X131.333 Y118.575 E.38296
G1 X131.038 Y118.818 E.01209
G1 X122.067 Y109.847 E.40144
M204 S1000
;WIPE_START
G1 F8640
G1 X124.517 Y112.297 E-.8
;WIPE_END
G1 Z.6 F720
G1 X122.511 Y93.608 F10800
G1 Z.2 F720
G1 E.8 F2100
M204 S800
G1 F1200
G1 X123.455 Y94.552 E.04224
G1 X123.474 Y95.109 E.01763
G1 X122.328 Y93.963 E.05128
G1 X122.024 Y94.197 E.01214
G1 X123.493 Y95.666 E.06574
G1 X123.511 Y96.223 E.01763
G1 X121.72 Y94.431 E.08017
G1 X121.403 Y94.652 E.01223
G1 X123.315 Y96.565 E.08558
G1 X123.089 Y96.726 E.00878
