; generated by PrusaSlicer 2.9.0 on 2025-01-15 at 03:13:05 UTC


;
;
; 

; external perimeters extrusion width = 0.68mm
; perimeters extrusion width = 0.68mm
; infill extrusion width = 0.68mm
; solid infill extrusion width = 0.68mm
; top infill extrusion width = 0.60mm
; first layer extrusion width = 0.65mm

; external perimeters extrusion width = 0.68mm
; perimeters extrusion width = 0.68mm
; infill extrusion width = 0.68mm
; solid infill extrusion width = 0.68mm
; top infill extrusion width = 0.60mm
; first layer extrusion width = 0.65mm

M73 P0 R56
M73 Q0 S57
M201 X1000 Y1000 Z200 E5000 ; sets maximum accelerations, mm/sec^2
M203 X200 Y200 Z12 E120 ; sets maximum feedrates, mm / sec
M204 S1250 T1250 ; sets acceleration (S) and retract acceleration (R), mm/sec^2
M205 X8.00 Y8.00 Z0.40 E4.50 ; sets the jerk limits, mm/sec
M205 S0 T0 ; sets the minimum extruding and travel feed rate, mm/sec

; printing object Low Poly Egyptian Cat.stl id:0 copy 0
; stop printing object Low Poly Egyptian Cat.stl id:0 copy 0

;TYPE:Custom
M862.3 P "MK3S" ; printer model check
M862.1 P0.6 ; nozzle diameter check
M115 U3.13.3 ; tell printer latest fw version
G90 ; use absolute coordinates
M83 ; extruder relative mode
M104 S215 ; set extruder temp
M140 S60 ; set bed temp
M190 S60 ; wait for bed temp
M109 S215 ; wait for extruder temp
G28 W ; home all without mesh bed level
G80 X99.9054 Y76.9801 W44.4133 H70.363 ; mesh bed levelling

G1 Z0.2 F720
G1 Y-3 F1000 ; go outside print area
G92 E0
G1 X60 E9 F1000 ; intro line
G1 X100 E12.5 F1000 ; intro line

G92 E0
M221 S95
G21 ; set units to millimeters
G90 ; use absolute coordinates
M83 ; use relative distances for extrusion
M900 K0.04 ; Filament gcode LA 1.5
M900 K18 ; Filament gcode LA 1.0
M107
;LAYER_CHANGE
;Z:0.2
;HEIGHT:0.2
G1 E-.8 F2100
G1 Z.6 F720
G1 X111.108 Y81.062 F10800
G1 Z.2 F720
G1 E.8 F1500
M204 S800
;TYPE:Skirt/Brim
;WIDTH:0.65
G1 F1200
G3 X113.951 Y79.588 I3.108 J2.517 E.16632
G1 X116.31 Y79.843 E.11977
G1 X118.376 Y78.278 E.13083
G3 X121.388 Y77.934 I1.943 J3.658 E.15667
M73 Q0 S56
G1 X125 Y79.4 E.19678
G1 X128.706 Y77.906 E.2017
G1 X129.915 Y77.776 E.06138
G3 X131.956 Y78.491 I-.485 J4.657 E.11016
G1 X135.742 Y81.824 E.25462
G3 X136.793 Y84.99 I-2.947 J2.736 E.17364
G1 X136.17 Y88.666 E.18821
G1 X135.752 Y89.703 E.05644
G1 X132.662 Y93.869 E.26183
G3 X130.345 Y95.127 I-3.038 J-2.833 E.13543
G3 X127.29 Y95.2 I-1.897 J-15.554 E.1545
G3 X125.002 Y93.99 I1.302 J-5.232 E.13194
G3 X122.228 Y95.262 I-3.331 J-3.601 E.15665
G1 X121.425 Y95.231 E.04056
G1 X119.772 Y96.871 E.11754
G1 X118.623 Y100.699 E.20175
G1 X121.825 Y108.679 E.43404
G1 X128.022 Y108.68 E.31282
G1 X131.125 Y99.367 E.49552
G3 X136.003 Y97.641 I3.42 J1.908 E.28534
G1 X140.737 Y100.81 E.28757
G3 X142.315 Y103.582 I-2.667 J3.353 E.16498
G1 X143.372 Y130.007 E1.33497
G3 X141.848 Y133.797 I-3.659 J.73 E.2182
G1 X127.149 Y145.963 E.96317
G3 X123.935 Y146.561 I-2.318 J-3.515 E.16948
G1 X107.069 Y141.663 E.88655
G3 X105.139 Y140.151 I2.538 J-5.228 E.1247
G1 X102.242 Y135.75 E.26597
G1 X101.777 Y134.345 E.07471
G1 X100.567 Y112.314 E1.11378
G3 X104.851 Y91.073 I470.16 J83.771 E1.09391
G1 X105.162 Y90.386 E.03807
G1 X111.059 Y81.138 E.55366
M204 S1000
G1 X111.059 Y81.138 F10800
G1 X111.571 Y81.464
M204 S800
G1 F1200
G1 X111.599 Y81.421 E.00259
G3 X114.004 Y80.194 I2.601 J2.127 E.14025
G1 X116.484 Y80.474 E.12598
G1 X118.642 Y78.825 E.1371
G3 X121.192 Y78.51 I1.674 J3.067 E.13282
G1 X125 Y80.056 E.20746
G1 X128.825 Y78.503 E.20839
G1 X129.74 Y78.38 E.0466
G3 X131.585 Y78.972 I-.191 J3.761 E.09892
G1 X135.288 Y82.227 E.24887
G3 X136.19 Y84.917 I-2.463 J2.322 E.14778
G1 X135.577 Y88.53 E.18499
G1 X135.206 Y89.437 E.04947
G1 X132.195 Y93.481 E.25451
G3 X130.227 Y94.531 I-2.547 J-2.402 E.1146
G3 X127.426 Y94.607 I-1.832 J-15.819 E.14163
G1 X126.859 Y94.449 E.02971
G3 X125 Y93.246 I4.697 J-9.302 E.11199
G3 X122.632 Y94.596 I-4.15 J-4.526 E.13875
G3 X121.188 Y94.612 I-.783 J-5.494 E.0731
G1 X119.234 Y96.549 E.13889
G1 X117.981 Y100.728 E.22023
G1 X121.413 Y109.284 E.46535
G1 X128.461 Y109.284 E.35578
G1 X131.658 Y99.66 E.51191
G3 X135.767 Y98.201 I2.881 J1.6 E.2405
G1 X140.375 Y101.298 E.28026
G3 X141.709 Y103.641 I-2.265 J2.842 E.13943
G1 X142.767 Y130.076 E1.33548
G3 X141.475 Y133.317 I-3.05 J.662 E.18689
G1 X126.792 Y145.47 E.96213
G3 X124.087 Y145.973 I-1.954 J-2.979 E.14259
G1 X107.34 Y141.119 E.88016
G3 X105.629 Y139.791 I2.181 J-4.578 E.11018
G1 X102.771 Y135.449 E.2624
G1 X102.381 Y134.271 E.06264
G1 X101.174 Y112.336 E1.10893
G3 X105.436 Y91.236 I474.644 J84.897 E1.08671
G1 X105.685 Y90.695 E.03006
G1 X111.523 Y81.54 E.5481
M204 S1000
G1 X111.523 Y81.54 F10800
G1 X112.028 Y81.862
M204 S800
G1 F1200
G1 X112.047 Y81.832 E.00179
G3 X113.982 Y80.802 I2.15 J1.708 E.11382
G1 X116.659 Y81.105 E.13599
G1 X118.978 Y79.332 E.14735
G3 X120.997 Y79.086 I1.331 J2.512 E.105
G1 X125 Y80.711 E.21808
G1 X129.015 Y79.081 E.21874
G1 X129.826 Y78.987 E.04121
G3 X131.211 Y79.452 I-.304 J3.201 E.0744
G1 X134.868 Y82.666 E.24576
G3 X135.587 Y84.84 I-2.024 J1.876 E.11919
M73 P0 R55
G1 X134.984 Y88.394 E.18197
G1 X134.661 Y89.167 E.04229
G1 X131.729 Y93.091 E.24727
G3 X130.165 Y93.927 I-2.059 J-1.97 E.09103
G3 X127.517 Y94.007 I-1.809 J-16.019 E.13388
G1 X127.055 Y93.873 E.02428
G3 X125 Y92.502 I7.445 J-13.379 E.12484
G3 X122.892 Y93.893 I-8.203 J-10.13 E.12769
G3 X120.951 Y93.992 I-1.181 J-4.103 E.09897
G1 X118.697 Y96.226 E.1602
G1 X117.338 Y100.757 E.23879
G1 X121.002 Y109.889 E.49669
G1 X128.9 Y109.89 E.39868
G1 X132.222 Y99.887 E.53206
M73 P1 R55
M73 Q1 S56
G3 X135.526 Y98.76 I2.313 J1.373 E.19177
G1 X140.014 Y101.787 E.27326
G3 X141.104 Y103.701 I-1.876 J2.336 E.11385
G1 X142.163 Y130.149 E1.33614
G3 X141.106 Y132.835 I-2.443 J.59 E.15521
G1 X126.434 Y144.977 E.96135
G3 X124.237 Y145.384 I-1.59 J-2.452 E.11573
G1 X107.544 Y140.546 E.87732
G3 X106.118 Y139.43 I1.897 J-3.894 E.09209
G1 X103.3 Y135.149 E.25872
G1 X102.985 Y134.196 E.05067
G1 X101.782 Y112.359 E1.10398
G3 X106.003 Y91.457 I492.313 J88.543 E1.07649
G1 X106.209 Y91.003 E.02517
G1 X111.98 Y81.938 E.54245
M204 S1000
G1 X111.98 Y81.938 F10800
G1 X112.493 Y82.262
M204 S800
G1 F1200
G1 X112.538 Y82.191 E.00424
G3 X114.037 Y81.408 I1.641 J1.315 E.08786
G1 X116.833 Y81.738 E.14212
G1 X119.25 Y79.876 E.15401
G3 X120.334 Y79.595 I1.15 J2.199 E.05702
G1 X120.805 Y79.663 E.02402
G1 X125 Y81.366 E.22854
G1 X129.203 Y79.66 E.22897
G3 X130.841 Y79.936 I.482 J2.142 E.08599
G1 X134.446 Y83.104 E.24226
G3 X134.984 Y84.767 I-1.568 J1.425 E.09095
G1 X134.392 Y88.255 E.17859
G1 X134.118 Y88.893 E.03505
G1 X131.264 Y92.698 E.2401
G3 X130.104 Y93.322 I-1.577 J-1.541 E.06752
G3 X127.614 Y93.407 I-1.822 J-16.919 E.12588
G1 X126.979 Y93.163 E.03434
G1 X125 Y91.757 E.12254
G3 X122.699 Y93.317 I-12.82 J-16.425 E.14043
G3 X120.716 Y93.37 I-1.109 J-4.368 E.10096
G1 X118.16 Y95.904 E.18168
G1 X116.696 Y100.786 E.25728
G1 X120.591 Y110.495 E.52807
G1 X129.339 Y110.495 E.44159
G1 X132.759 Y100.172 E.54895
G3 X133.442 Y99.483 I1.489 J.794 E.04967
G3 X135.22 Y99.285 I1.104 J1.831 E.09317
G1 X139.655 Y102.278 E.27008
G3 X140.499 Y103.763 I-1.599 J1.891 E.08803
G1 X141.558 Y130.23 E1.33709
G3 X140.736 Y132.353 I-1.838 J.509 E.12314
G1 X126.08 Y144.483 E.96034
G3 X124.389 Y144.796 I-1.229 J-1.912 E.08903
G1 X107.81 Y139.999 E.87122
G3 X106.606 Y139.068 I1.541 J-3.235 E.07742
G1 X103.829 Y134.848 E.25501
G1 X103.588 Y134.121 E.03866
G1 X102.389 Y112.382 E1.09903
G3 X106.589 Y91.62 I497.681 J89.858 E1.06935
G1 X112.445 Y82.338 E.554
M204 S1000
G1 X112.445 Y82.338 F10800
G1 X112.958 Y82.662
M204 S800
G1 F1200
G1 X113.027 Y82.553 E.00651
G3 X114.085 Y82.014 I1.134 J.919 E.06173
G1 X117.006 Y82.371 E.14855
G1 X119.59 Y80.381 E.16464
G3 X120.616 Y80.241 I.71 J1.382 E.05329
G1 X124.707 Y81.902 E.22288
G2 X125.293 Y81.902 I.293 J-.198 E.03484
G1 X129.392 Y80.238 E.22331
G3 X130.172 Y80.277 I.304 J1.725 E.03976
G1 X130.474 Y80.421 E.01689
G1 X134.022 Y83.539 E.23843
G3 X134.38 Y84.695 I-1.111 J.978 E.06293
G1 X133.8 Y88.118 E.17525
G1 X133.611 Y88.558 E.02417
G1 X130.798 Y92.308 E.23663
G3 X130.038 Y92.718 I-1.1 J-1.129 E.04415
G1 X127.959 Y92.839 E.10512
G1 X127.493 Y92.741 E.02404
G1 X125 Y91.012 E.15315
G1 X122.507 Y92.741 E.15315
G3 X120.481 Y92.748 I-1.031 J-4.932 E.10297
G1 X117.623 Y95.582 E.20317
G1 X116.053 Y100.815 E.27579
G1 X120.18 Y111.101 E.55946
G1 X129.778 Y111.101 E.4845
G1 X133.361 Y100.336 E.57271
G3 X134.901 Y99.812 I1.214 J1.044 E.08613
G1 X139.292 Y102.765 E.26711
G3 X139.894 Y103.822 I-1.193 J1.379 E.0626
G1 X140.954 Y130.32 E1.33866
G3 X140.369 Y131.869 I-1.237 J.418 E.09054
G1 X125.724 Y143.99 E.95962
G3 X124.538 Y144.207 I-.867 J-1.38 E.06234
G1 X108.011 Y139.426 E.86847
G3 X107.094 Y138.705 I1.278 J-2.57 E.0593
G1 X104.358 Y134.548 E.25121
G1 X104.192 Y134.047 E.02664
G1 X102.997 Y112.405 E1.09413
G3 X107.155 Y91.84 I518.45 J94.134 E1.05917
G1 X112.91 Y82.738 E.5436
M204 S1000
G1 X112.91 Y82.738 F10800
G1 X113.423 Y83.063
M204 S800
G1 F1200
G1 X113.514 Y82.919 E.0086
G3 X114.126 Y82.621 I.631 J.518 E.03544
G1 X117.178 Y83.005 E.15528
G1 X119.929 Y80.886 E.17529
G1 X120.345 Y80.809 E.02136
G1 X124.436 Y82.448 E.22247
G3 X125 Y83.376 I-1.513 J1.554 E.05541
G3 X125.564 Y82.448 I2.077 J.626 E.05541
G1 X129.666 Y80.807 E.22302
G1 X130.105 Y80.905 E.02271
G1 X133.6 Y83.976 E.23485
G3 X133.776 Y84.626 I-.667 J.53 E.03495
G1 X133.207 Y87.981 E.17177
G1 X133.104 Y88.222 E.01323
G1 X130.282 Y91.96 E.23642
G1 X129.965 Y92.114 E.01779
G1 X127.95 Y92.231 E.10189
G1 X127.685 Y92.164 E.0138
G1 X125.261 Y90.453 E.14977
G1 X125 Y90.178 E.01914
G1 X124.739 Y90.453 E.01914
G1 X122.315 Y92.164 E.14977
G1 X122.05 Y92.231 E.0138
G1 X120.246 Y92.126 E.09122
G1 X117.086 Y95.259 E.22462
G1 X115.411 Y100.844 E.29433
G1 X119.769 Y111.706 E.59079
G1 X130.217 Y111.706 E.5274
M73 Q1 S55
G1 X133.867 Y100.688 E.5859
M73 P2 R55
M73 Q2 S55
G3 X134.715 Y100.4 I.779 J.899 E.04635
G1 X138.927 Y103.25 E.25672
G3 X139.289 Y103.888 I-.766 J.857 E.03769
G1 X140.351 Y130.427 E1.34073
G3 X140 Y131.386 I-.674 J.297 E.05696
G1 X125.369 Y143.495 E.95869
G3 X124.682 Y143.617 I-.503 J-.839 E.03601
G1 X108.212 Y138.852 E.86548
G1 X107.581 Y138.341 E.04099
G1 X104.887 Y134.248 E.24735
G1 X104.796 Y133.972 E.01467
G1 X103.604 Y112.428 E1.08918
G3 X107.723 Y92.055 I540.03 J98.59 E1.04928
G1 X113.374 Y83.139 E.53285
M204 S1000
;WIPE_START
G1 F8640
G1 X113.423 Y83.063 E-.02088
G1 X113.514 Y82.919 E-.03933
G3 X114.126 Y82.621 I.631 J.518 E-.16212
G1 X116.608 Y82.933 E-.57767
;WIPE_END
G1 Z.6 F720
; printing object Low Poly Egyptian Cat.stl id:0 copy 0
G1 X124.485 Y141.753 F10800
G1 Z.2 F720
G1 E.8 F1500
M204 S800
;TYPE:Perimeter
;WIDTH:0.649999
G1 F1200
G1 X108.953 Y137.259 E.8162
G1 X106.511 Y133.557 E.22387
G1 X105.35 Y113.307 E1.02387
G1 X105.341 Y112.527 E.03938
G1 X107.661 Y100.528 E.61691
G1 X109.36 Y92.675 E.40558
G1 X114.612 Y84.427 E.49359
G1 X117.295 Y84.77 E.13654
G2 X117.966 Y84.588 I.064 J-1.093 E.03571
G1 X120.427 Y82.693 E.15679
G1 X123.07 Y83.766 E.14399
G1 X123.254 Y89.379 E.28349
G1 X121.713 Y90.473 E.0954
G1 X120.619 Y90.41 E.05532
G2 X120.296 Y90.258 I-.344 J.315 E.01849
G2 X119.706 Y90.386 I-.066 J1.121 E.03086
G1 X119.185 Y90.735 E.03165
G1 X115.715 Y94.175 E.24665
G2 X115.484 Y94.56 I.816 J.751 E.02282
G1 X113.807 Y100.151 E.29465
G2 X113.503 Y101.039 I3.863 J1.819 E.04748
G2 X113.945 Y101.852 I.969 J-.001 E.0487
G1 X118.177 Y112.398 E.57361
G2 X118.29 Y112.913 I2.146 J-.197 E.02668
G2 X118.757 Y113.366 I.964 J-.528 E.03334
G1 X119.111 Y113.439 E.01825
G1 X124.997 Y113.462 E.29712
G1 X130.889 Y113.439 E.29742
G2 X131.742 Y112.836 I-.036 J-.956 E.05578
G1 X131.827 Y112.363 E.02426
G1 X135.027 Y102.707 E.51349
G1 X137.574 Y104.431 E.15525
G1 X138.609 Y130.294 E1.30658
G1 X124.683 Y141.811 E.91222
G1 X124.571 Y141.778 E.00589
M204 S1000
G1 X124.571 Y141.778 F10800
G1 X124.316 Y142.337
M204 S800
;TYPE:External perimeter
G1 F1200
G1 X108.649 Y137.803 E.8233
G1 X108.481 Y137.655 E.0113
G1 X105.914 Y133.755 E.23569
G1 X104.743 Y113.328 E1.03282
G1 X104.733 Y112.473 E.04316
G1 X107.066 Y100.406 E.62041
G1 X108.79 Y92.441 E.41137
G1 X114.306 Y83.776 E.5185
G1 X117.401 Y84.17 E.15749
G1 X117.596 Y84.107 E.01034
G1 X120.332 Y81.999 E.17435
G1 X123.664 Y83.352 E.18153
G1 X123.871 Y89.685 E.31985
G1 X121.891 Y91.092 E.12261
G1 X120.433 Y91.007 E.07372
G2 X120.051 Y90.888 I-.258 J.157 E.02207
G1 X119.612 Y91.166 E.02623
G1 X116.142 Y94.606 E.24665
G1 X116.065 Y94.734 E.00754
G1 X114.388 Y100.326 E.2947
G1 X114.11 Y101.063 E.03976
G1 X114.174 Y101.263 E.0106
G1 X114.432 Y101.435 E.01565
G1 X118.769 Y112.241 E.58777
G1 X118.819 Y112.597 E.01815
G2 X119.114 Y112.832 I.337 J-.12 E.02005
G1 X124.999 Y112.855 E.29707
G1 X130.886 Y112.832 E.29717
M73 P2 R54
G2 X131.145 Y112.685 I-.046 J-.382 E.01544
G1 X131.234 Y112.224 E.0237
G1 X134.703 Y101.755 E.55672
G1 X138.168 Y104.1 E.2112
G1 X139.227 Y130.571 E1.33729
G1 X124.822 Y142.483 E.94356
G1 X124.403 Y142.362 E.02201
M204 S1000
;WIPE_START
G1 F8640
G1 X124.316 Y142.337 E-.0209
G1 X121.075 Y141.399 E-.7791
;WIPE_END
G1 Z.6 F720
G1 X122.875 Y85.228 F10800
G1 Z.2 F720
G1 E.8 F1500
M204 S800
;TYPE:Solid infill
;WIDTH:0.657699
G1 F1200
G1 X121.218 Y83.571 E.11979
G1 X120.507 Y83.283 E.03921
G1 X120.255 Y83.477 E.01626
G1 X122.622 Y85.844 E.17112
G1 X122.651 Y86.743 E.04598
G1 X119.763 Y83.855 E.20878
G1 X119.272 Y84.234 E.03171
G1 X122.681 Y87.642 E.24641
G1 X122.71 Y88.541 E.04598
G1 X118.781 Y84.612 E.28404
G1 X118.29 Y84.99 E.03168
G1 X122.548 Y89.248 E.30782
G1 X122.039 Y89.609 E.0319
G1 X117.693 Y85.263 E.31419
G3 X116.786 Y85.225 I-.348 J-2.544 E.04665
G1 X121.505 Y89.944 E.34115
G1 X120.8 Y89.903 E.0361
G2 X120.459 Y89.768 I-.342 J.366 E.01919
G1 X115.789 Y85.098 E.33761
G1 X114.871 Y84.98 E.04731
G1 X114.844 Y85.022 E.00255
G1 X119.661 Y89.839 E.34824
G2 X119.104 Y90.151 I1.506 J3.344 E.03268
G1 X114.506 Y85.553 E.3324
G1 X114.168 Y86.084 E.03218
G1 X118.636 Y90.552 E.32301
G1 X118.199 Y90.985 E.03145
G1 X113.83 Y86.616 E.31585
G1 X113.491 Y87.147 E.0322
G1 X117.763 Y91.418 E.3088
G1 X117.326 Y91.851 E.03145
G1 X113.153 Y87.678 E.30168
G1 X112.815 Y88.209 E.03218
G1 X116.89 Y92.284 E.2946
G1 X116.453 Y92.717 E.03145
G1 X112.477 Y88.741 E.28744
G1 X112.139 Y89.272 E.03218
G1 X116.017 Y93.15 E.28035
G1 X115.581 Y93.583 E.03141
M73 P3 R54
G1 X111.8 Y89.803 E.2733
G1 X111.462 Y90.334 E.03218
M73 Q3 S55
G1 X115.167 Y94.039 E.26785
G2 X114.916 Y94.657 I1.901 J1.134 E.03423
G1 X111.124 Y90.866 E.2741
G1 X110.786 Y91.397 E.03218
G1 X114.715 Y95.326 E.28404
G1 X114.515 Y95.995 E.03569
G1 X110.448 Y91.928 E.29402
G1 X110.109 Y92.459 E.0322
G1 X114.314 Y96.664 E.30399
G1 X114.114 Y97.333 E.03569
G1 X109.811 Y93.03 E.31108
G1 X109.657 Y93.745 E.03739
G1 X113.913 Y98.002 E.30772
G1 X113.712 Y98.67 E.03566
G1 X109.502 Y94.46 E.30435
G1 X109.347 Y95.175 E.0374
G1 X113.512 Y99.339 E.30107
G1 X113.311 Y100.008 E.03571
G1 X109.192 Y95.889 E.29778
G1 X109.038 Y96.604 E.03739
G1 X113.062 Y100.629 E.29094
G2 X113.053 Y101.488 I1.322 J.444 E.04464
G1 X108.883 Y97.319 E.30143
G1 X108.728 Y98.034 E.0374
G1 X113.954 Y103.26 E.3778
G1 X114.537 Y104.712 E.07998
G1 X108.574 Y98.748 E.43112
G1 X108.419 Y99.463 E.0374
G1 X115.12 Y106.164 E.48444
G1 X115.703 Y107.616 E.07998
G1 X108.264 Y100.178 E.53775
G1 X108.115 Y100.898 E.03759
G1 X116.285 Y109.068 E.59064
G1 X116.868 Y110.521 E.08003
G1 X107.974 Y101.626 E.64301
G1 X107.833 Y102.355 E.03796
G1 X117.941 Y112.463 E.73074
M204 S1000
;WIPE_START
G1 F8640
G1 X115.491 Y110.013 E-.8
;WIPE_END
G1 Z.6 F720
G1 X135.03 Y103.469 F10800
G1 Z.2 F720
G1 E.8 F1500
M204 S800
G1 F1200
G1 X137.102 Y105.541 E.14979
G1 X137.138 Y106.446 E.0463
G1 X135.03 Y104.338 E.15239
G1 X134.813 Y104.991 E.03518
G1 X137.174 Y107.352 E.17068
G1 X137.21 Y108.258 E.04635
G1 X134.597 Y105.644 E.18894
G1 X134.381 Y106.297 E.03516
G1 X137.247 Y109.163 E.20719
G1 X137.283 Y110.069 E.04635
G1 X134.164 Y106.95 E.22548
G1 X133.948 Y107.603 E.03516
G1 X137.319 Y110.975 E.24374
G1 X137.355 Y111.88 E.0463
G1 X133.731 Y108.256 E.26199
G1 X133.515 Y108.909 E.03516
G1 X137.392 Y112.786 E.28028
