; generated by PrusaSlicer 2.9.0 on 2025-01-15 at 02:51:34 UTC


;
;
; 

; external perimeters extrusion width = 0.45mm
; perimeters extrusion width = 0.45mm
; infill extrusion width = 0.45mm
; solid infill extrusion width = 0.45mm
; top infill extrusion width = 0.40mm
; support material extrusion width = 0.35mm
; first layer extrusion width = 0.42mm

M73 P0 R48
M73 Q0 S48
M201 X1000 Y1000 Z200 E5000 ; sets maximum accelerations, mm/sec^2
M203 X200 Y200 Z12 E120 ; sets maximum feedrates, mm / sec
M204 S1250 T1250 ; sets acceleration (S) and retract acceleration (R), mm/sec^2
M205 X8.00 Y8.00 Z0.40 E4.50 ; sets the jerk limits, mm/sec
M205 S0 T0 ; sets the minimum extruding and travel feed rate, mm/sec

; printing object book_worm.stl id:0 copy 0
; stop printing object book_worm.stl id:0 copy 0

;TYPE:Custom
M862.3 P "MK3S" ; printer model check
M862.1 P0.4 ; nozzle diameter check
M115 U3.13.3 ; tell printer latest fw version
G90 ; use absolute coordinates
M83 ; extruder relative mode
M104 S215 ; set extruder temp
M140 S60 ; set bed temp
M190 S60 ; wait for bed temp
M109 S215 ; wait for extruder temp
G28 W ; home all without mesh bed level
G80 X82.9302 Y87.4895 W93.1884 H35.504 ; mesh bed levelling

G1 Z0.2 F720
G1 Y-3 F1000 ; go outside print area
G92 E0
G1 X60 E9 F1000 ; intro line
G1 X100 E12.5 F1000 ; intro line

G92 E0
M221 S95

; Don't change E values below. Excessive value can damage the printer.
M907 E430 ; set extruder motor current
G21 ; set units to millimeters
G90 ; use absolute coordinates
M83 ; use relative distances for extrusion

M900 K0.05 ; Filament gcode LA 1.5
M900 K30 ; Filament gcode LA 1.0




M107
;LAYER_CHANGE
;Z:0.2
;HEIGHT:0.2
G1 E-.8 F2100
G1 Z.6 F720
G1 X85.566 Y99.872 F10800
G1 Z.2 F720
G1 E.8 F2100
M204 S800
;TYPE:Skirt/Brim
;WIDTH:0.42
G1 F1200
G1 X86.811 Y98.944 E.04869
G1 X88.227 Y98.209 E.05002
G1 X90.022 Y97.609 E.05934
G1 X91.439 Y97.339 E.04523
G1 X157.816 Y87.756 E2.10278
G1 X159.378 Y87.705 E.049
G1 X160.486 Y87.846 E.03502
G1 X161.736 Y88.207 E.04079
G1 X167.557 Y90.397 E.195
G1 X169.174 Y91.257 E.05742
G1 X170.261 Y92.142 E.04395
G1 X173.609 Y95.512 E.14894
G1 X174.512 Y96.617 E.04474
G1 X175.414 Y98.35 E.06126
G1 X175.82 Y99.863 E.04912
G1 X175.931 Y101.373 E.04747
G1 X175.348 Y109.031 E.24081
G1 X175.144 Y110.606 E.0498
G1 X174.607 Y112.142 E.05102
G1 X172.121 Y116.308 E.15211
G1 X170.947 Y117.736 E.05796
G1 X169.84 Y118.646 E.04493
G1 X166.734 Y120.632 E.11559
G1 X165.387 Y121.395 E.04854
G1 X164.068 Y121.862 E.04387
G1 X161.105 Y122.564 E.09547
G1 X159.87 Y122.775 E.03928
G1 X158.013 Y122.754 E.05823
G1 X91.343 Y112.644 E2.11429
G1 X89.746 Y112.319 E.0511
G1 X88.225 Y111.79 E.05049
G1 X87.107 Y111.233 E.03916
G1 X85.848 Y110.368 E.04789
G1 X84.505 Y108.985 E.06044
G1 X83.93 Y108.105 E.03296
G1 X83.36 Y106.737 E.04647
G1 X83.118 Y105.263 E.04683
G1 X83.239 Y103.753 E.0475
G1 X83.715 Y102.319 E.04737
G1 X84.504 Y101.015 E.04779
G1 X85.525 Y99.916 E.04703
M204 S1000
;WIPE_START
G1 F8640
G1 X85.566 Y99.872 E-.01389
G1 X86.811 Y98.944 E-.35855
G1 X88.227 Y98.209 E-.36838
G1 X88.47 Y98.128 E-.05918
;WIPE_END
G1 Z.6 F720
; printing object book_worm.stl id:0 copy 0
G1 X159.27 Y89.891 F10800
G1 Z.2 F720
G1 E.8 F2100
M204 S800
;TYPE:Support material
G1 F1200
G1 X159.892 Y89.952 E.0196
G1 X160.965 Y90.255 E.03496
G1 X161.985 Y90.78 E.03597
G1 X162.88 Y91.497 E.03596
G1 X163.462 Y92.195 E.02849
G1 X164.495 Y92.06 E.03266
G1 X165.713 Y92.146 E.03828
G1 X166.787 Y92.445 E.03496
G1 X167.81 Y92.968 E.03602
G1 X168.708 Y93.684 E.03601
G1 X169.446 Y94.564 E.03601
G1 X170.039 Y95.723 E.04082
G1 X171.193 Y96.327 E.04084
G1 X172.056 Y97.054 E.03538
G1 X172.792 Y97.97 E.03684
G1 X173.316 Y98.972 E.03545
G1 X173.641 Y100.068 E.03584
M73 P0 R47
G1 X173.748 Y101.207 E.03587
G1 X173.634 Y102.347 E.03592
G1 X173.301 Y103.443 E.03592
G1 X172.762 Y104.455 E.03595
G1 X171.983 Y105.412 E.03869
G1 X172.692 Y106.564 E.04241
G1 X173.048 Y107.663 E.03622
G1 X173.171 Y108.811 E.0362
G1 X173.055 Y109.952 E.03596
G1 X172.702 Y111.065 E.03661
G1 X172.137 Y112.063 E.03596
G1 X171.389 Y112.913 E.0355
G1 X171.076 Y113.155 E.01241
G1 X170.779 Y114.159 E.03283
G1 X170.25 Y115.172 E.03583
G1 X169.535 Y116.065 E.03587
G1 X168.661 Y116.803 E.03587
G1 X167.661 Y117.359 E.03587
G1 X166.712 Y117.666 E.03127
G1 X166.458 Y117.997 E.01308
G1 X165.609 Y118.755 E.03569
G1 X164.633 Y119.34 E.03568
G1 X163.564 Y119.733 E.03571
G1 X162.439 Y119.918 E.03575
G1 X161.894 Y119.905 E.01709
G1 X160.601 Y120.435 E.04381
G1 X159.51 Y120.616 E.03468
G1 X158.892 Y120.616 E.01938
G1 X158.341 Y120.59 E.0173
G1 X157.227 Y120.35 E.03573
G1 X156.177 Y119.906 E.03574
G1 X155.228 Y119.272 E.03578
G1 X154.375 Y118.427 E.03765
G1 X153.79 Y117.576 E.03238
G1 X153.528 Y117.046 E.01854
G1 X153.308 Y116.483 E.01895
G1 X153.053 Y115.369 E.03583
G1 X153.059 Y113.74 E.05108
G1 X153.318 Y112.644 E.03531
G1 X153.776 Y111.615 E.03532
G1 X154.623 Y110.476 E.0445
G1 X155.564 Y110.653 E.03002
G1 X156.905 Y110.736 E.04213
G1 X158.212 Y110.653 E.04106
G1 X159.514 Y110.406 E.04155
G1 X160.771 Y109.989 E.04152
G1 X161.855 Y109.447 E.038
G1 X162.827 Y108.756 E.03739
G1 X163.655 Y107.909 E.03714
G1 X164.225 Y107.039 E.03261
G1 X164.601 Y106.055 E.03303
G1 X164.733 Y105.028 E.03247
G1 X164.614 Y104 E.03245
G1 X164.226 Y102.964 E.03469
G1 X163.625 Y102.052 E.03425
G1 X162.827 Y101.244 E.03561
G1 X161.856 Y100.554 E.03735
G1 X160.771 Y100.011 E.03804
G1 X159.515 Y99.594 E.04149
G1 X158.212 Y99.346 E.04159
G1 X156.873 Y99.264 E.04206
G1 X155.563 Y99.347 E.04116
G1 X154.685 Y99.513 E.02802
G1 X153.921 Y98.513 E.03946
G1 X153.444 Y97.486 E.0355
G1 X153.178 Y96.387 E.03545
G1 X153.137 Y95.347 E.03263
G1 X153.311 Y94.184 E.03687
G1 X153.699 Y93.119 E.03554
G1 X154.289 Y92.15 E.03557
G1 X155.06 Y91.316 E.03561
G1 X155.981 Y90.65 E.03564
G1 X157.017 Y90.179 E.03568
G1 X158.128 Y89.922 E.03575
G1 X159.214 Y89.888 E.03407
M204 S1000
G1 X159.214 Y89.888 F10800
G1 X173.182 Y103.25
M204 S800
G1 F1200
G1 X173.182 Y99.715 E.11084
G1 X173 Y99.1 E.02011
G1 X172.763 Y98.647 E.01603
G1 X172.763 Y103.731 E.15941
G1 X172.344 Y104.431 E.02558
G1 X172.344 Y97.95 E.20321
G1 X171.925 Y97.43 E.02094
G1 X171.925 Y104.945 E.23563
G1 X171.54 Y105.418 E.01912
G1 X171.925 Y105.909 E.01956
G1 X171.925 Y111.748 E.18308
G1 X171.506 Y112.266 E.02089
G1 X171.506 Y97.035 E.47756
G1 X171.087 Y96.682 E.01718
G1 X171.087 Y112.717 E.50277
G1 X170.782 Y112.953 E.01209
G1 X170.668 Y113.336 E.01253
G1 X170.668 Y96.424 E.53026
G1 X170.25 Y96.192 E.01499
G1 X170.25 Y114.44 E.57215
G1 X169.831 Y115.153 E.02593
M73 P1 R47
M73 Q1 S48
G1 X169.831 Y96.012 E.60015
G1 X169.412 Y95.212 E.02832
G1 X169.412 Y115.676 E.64163
G1 X168.993 Y116.079 E.01823
G1 X168.993 Y94.551 E.675
G1 X168.574 Y94.052 E.02043
G1 X168.574 Y116.432 E.70171
G1 X168.155 Y116.696 E.01553
G1 X168.155 Y93.677 E.72174
G1 X167.736 Y93.343 E.0168
G1 X167.736 Y116.929 E.73952
G1 X167.317 Y117.113 E.01435
G1 X167.317 Y93.097 E.753
G1 X166.898 Y92.883 E.01475
G1 X166.898 Y117.249 E.76398
G1 X166.479 Y117.413 E.01411
G1 X166.479 Y92.712 E.77448
G1 X166.06 Y92.595 E.01364
G1 X166.06 Y117.898 E.79336
G1 X165.641 Y118.271 E.01759
M73 Q1 S47
G1 X165.641 Y92.48 E.80866
G1 X165.222 Y92.44 E.0132
G1 X165.222 Y118.591 E.81995
G1 X164.803 Y118.842 E.01531
G1 X164.803 Y106.482 E.38754
G1 X164.384 Y107.415 E.03207
G1 X164.384 Y119.07 E.36543
G1 X163.965 Y119.224 E.014
G1 X163.965 Y108.055 E.3502
G1 X163.546 Y108.512 E.01944
G1 X163.546 Y119.378 E.3407
G1 X163.127 Y119.461 E.01339
G1 X163.127 Y108.941 E.32985
G1 X162.708 Y109.258 E.01647
G1 X162.708 Y119.53 E.32207
G1 X162.289 Y119.575 E.01321
G1 X162.289 Y109.557 E.31411
G1 X161.87 Y109.819 E.01549
G1 X161.87 Y119.565 E.30558
G1 X161.451 Y119.759 E.01448
G1 X161.451 Y110.028 E.30511
G1 X161.032 Y110.237 E.01468
G1 X161.032 Y119.914 E.30342
G1 X160.613 Y120.068 E.014
G1 X160.613 Y110.401 E.3031
G1 X160.194 Y110.539 E.01383
G1 X160.194 Y120.158 E.3016
G1 X159.775 Y120.228 E.01332
G1 X159.775 Y110.679 E.2994
G1 X159.356 Y110.782 E.01353
G1 X159.356 Y120.277 E.29771
G1 X158.937 Y120.277 E.01314
G1 X158.937 Y110.861 E.29523
G1 X158.518 Y110.942 E.01338
G1 X158.518 Y120.259 E.29213
G1 X158.099 Y120.199 E.01327
G1 X158.099 Y111 E.28843
G1 X157.68 Y111.026 E.01316
G1 X157.68 Y120.112 E.28489
G1 X157.261 Y120 E.0136
G1 X157.261 Y111.052 E.28056
G1 X156.842 Y111.074 E.01316
G1 X156.842 Y119.837 E.27476
G1 X156.423 Y119.645 E.01445
G1 X156.423 Y111.047 E.26958
G1 X156.004 Y111.021 E.01316
G1 X156.004 Y119.399 E.26269
G1 X155.585 Y119.11 E.01596
G1 X155.585 Y110.995 E.25444
G1 X155.166 Y110.925 E.01332
G1 X155.166 Y118.755 E.2455
G1 X154.747 Y118.327 E.01878
G1 X154.747 Y110.845 E.23459
G1 X154.328 Y111.389 E.02153
G1 X154.328 Y117.76 E.19976
G1 X153.909 Y117.051 E.02582
G1 X153.909 Y112.106 E.15505
G1 X153.49 Y113.314 E.04009
G1 X153.49 Y116.485 E.09942
M204 S1000
G1 X153.49 Y116.485 F10800
M73 Q2 S47
G1 X172.763 Y110.317
M204 S800
G1 F1200
M73 P2 R47
G1 X172.715 Y107.734 E.081
G1 X172.344 Y106.639 E.03625
G1 X172.344 Y111.352 E.14777
M204 S1000
G1 X172.344 Y111.352 F10800
G1 X164.803 Y104.142
M204 S800
G1 F1200
G1 X164.803 Y92.414 E.36772
G1 X164.384 Y92.417 E.01314
G1 X164.384 Y102.582 E.31872
G1 X163.965 Y101.943 E.02396
G1 X163.965 Y92.472 E.29696
G1 X163.546 Y92.527 E.01325
G1 X163.546 Y101.487 E.28093
G1 X163.127 Y101.059 E.01878
G1 X163.127 Y92.323 E.27391
G1 X162.708 Y91.821 E.0205
G1 X162.708 Y100.741 E.27968
G1 X162.289 Y100.442 E.01614
G1 X162.289 Y91.459 E.28166
G1 X161.87 Y91.123 E.01684
G1 X161.87 Y100.181 E.28401
G1 X161.451 Y99.971 E.0147
G1 X161.451 Y90.887 E.28482
G1 X161.032 Y90.671 E.01478
G1 X161.032 Y99.762 E.28504
G1 X160.613 Y99.599 E.0141
G1 X160.613 Y90.508 E.28504
G1 X160.194 Y90.39 E.01365
G1 X160.194 Y99.459 E.28435
G1 X159.775 Y99.321 E.01383
G1 X159.775 Y90.282 E.28341
G1 X159.356 Y90.24 E.0132
G1 X159.356 Y99.218 E.2815
G1 X158.937 Y99.137 E.01338
G1 X158.937 Y90.214 E.27977
G1 X158.518 Y90.225 E.01314
G1 X158.518 Y99.057 E.27692
G1 X158.099 Y98.999 E.01326
G1 X158.099 Y90.27 E.27369
G1 X157.68 Y90.336 E.0133
G1 X157.68 Y98.973 E.27081
G1 X157.261 Y98.946 E.01316
G1 X157.261 Y90.46 E.26607
G1 X156.842 Y90.607 E.01392
G1 X156.842 Y98.925 E.26081
G1 X156.423 Y98.952 E.01316
G1 X156.423 Y90.798 E.25566
G1 X156.004 Y91.037 E.01512
G1 X156.004 Y98.978 E.24898
G1 X155.585 Y99.005 E.01316
G1 X155.585 Y91.322 E.2409
G1 X155.166 Y91.685 E.01738
G1 X155.166 Y99.074 E.23168
G1 X154.805 Y99.144 E.01153
G1 X154.747 Y99.066 E.00305
G1 X154.747 Y92.125 E.21763
G1 X154.328 Y92.693 E.02213
G1 X154.328 Y98.495 E.18192
G1 X153.909 Y97.682 E.02868
G1 X153.909 Y93.494 E.13131
G1 X153.524 Y94.859 E.04447
G1 X153.49 Y96.956 E.06576
M204 S1000
;WIPE_START
G1 F8640
G1 X153.524 Y94.859 E-.48427
G1 X153.896 Y93.543 E-.31573
;WIPE_END
G1 Z.6 F720
G1 X96.196 Y102.246 F10800
G1 Z.2 F720
G1 E.8 F2100
M204 S800
;TYPE:Perimeter
;WIDTH:0.419999
G1 F1200
G1 X91.648 Y102.256 E.1426
G1 X91.449 Y102.335 E.00671
G1 X91.224 Y102.617 E.01131
G1 X91.189 Y102.812 E.00621
G1 X91.189 Y106.298 E.1093
G1 X91.217 Y107.436 E.03569
G1 X91.44 Y107.728 E.01152
G1 X91.755 Y107.824 E.01033
G1 X96.189 Y107.824 E.13902
G1 X96.209 Y108.097 E.00858
G1 X96.209 Y108.907 E.0254
G1 X95.428 Y109.175 E.02589
G1 X94.29 Y109.393 E.03633
G1 X93.11 Y109.467 E.03707
G1 X91.93 Y109.393 E.03707
G1 X90.789 Y109.174 E.03643
G1 X89.728 Y108.822 E.03505
G1 X88.781 Y108.349 E.03319
G1 X87.981 Y107.778 E.03082
G1 X87.348 Y107.131 E.02838
G1 X86.894 Y106.439 E.02595
G1 X86.626 Y105.724 E.02394
G1 X86.538 Y104.999 E.0229
G1 X86.626 Y104.276 E.02284
G1 X86.894 Y103.56 E.02397
G1 X87.348 Y102.867 E.02598
G1 X87.98 Y102.223 E.02829
G1 X88.782 Y101.65 E.0309
G1 X89.728 Y101.178 E.03315
G1 X90.789 Y100.826 E.03505
G1 X91.93 Y100.607 E.03643
G1 X93.11 Y100.532 E.03707
G1 X94.29 Y100.607 E.03707
G1 X95.428 Y100.825 E.03633
G1 X96.209 Y101.092 E.02588
G1 X96.203 Y102.193 E.03452
M204 S1000
G1 X96.203 Y102.193 F10800
G1 X96.568 Y102.623
M204 S800
;TYPE:External perimeter
G1 F1200
G1 X92.034 Y102.623 E.14216
G1 X91.653 Y102.653 E.01198
G1 X91.566 Y102.812 E.00568
G1 X91.566 Y107.258 E.1394
G1 X91.65 Y107.415 E.00558
G1 X91.752 Y107.447 E.00335
G1 X96.566 Y107.447 E.15094
G1 X96.586 Y108.025 E.01813
G1 X96.586 Y109.177 E.03612
G1 X95.525 Y109.54 E.03516
G1 X94.337 Y109.767 E.03792
G1 X93.11 Y109.845 E.03855
G1 X91.882 Y109.767 E.03858
G1 X90.694 Y109.54 E.03792
G1 X89.584 Y109.172 E.03667
G1 X88.586 Y108.673 E.03499
G1 X87.735 Y108.065 E.03279
G1 X87.053 Y107.369 E.03055
G1 X86.556 Y106.611 E.02842
G1 X86.257 Y105.814 E.02669
G1 X86.158 Y104.999 E.02574
G1 X86.257 Y104.186 E.02568
G1 X86.555 Y103.389 E.02668
G1 X87.053 Y102.629 E.02849
G1 X87.734 Y101.935 E.03049
G1 X88.587 Y101.326 E.03286
G1 X89.584 Y100.828 E.03494
G1 X90.694 Y100.46 E.03667
G1 X91.882 Y100.232 E.03793
G1 X93.11 Y100.154 E.03858
G1 X94.338 Y100.232 E.03858
G1 X95.525 Y100.46 E.0379
G1 X96.586 Y100.823 E.03516
G1 X96.571 Y102.565 E.05462
M204 S1000
G1 X96.571 Y102.565 F10800
G1 X96.038 Y101.983
M204 S800
;TYPE:Solid infill
;WIDTH:0.421131
G1 F1200
G1 X95.178 Y101.123 E.03825
G1 X94.517 Y100.996 E.02117
G1 X95.427 Y101.907 E.04049
G1 X94.892 Y101.907 E.01682
G1 X93.909 Y100.923 E.04374
G1 X93.338 Y100.887 E.01799
G1 X94.358 Y101.907 E.04536
G1 X93.823 Y101.907 E.01682
G1 X92.811 Y100.895 E.04501
G1 X92.306 Y100.925 E.01591
G1 X93.288 Y101.907 E.04367
G1 X92.753 Y101.907 E.01682
G1 X91.82 Y100.974 E.04149
G1 X91.371 Y101.06 E.01438
G1 X92.218 Y101.907 E.03767
G1 X91.692 Y101.916 E.01654
G1 X90.922 Y101.146 E.03425
G1 X90.516 Y101.274 E.01339
G1 X91.282 Y102.041 E.03409
G1 X91.25 Y102.057 E.00113
G1 X91.034 Y102.327 E.01087
G1 X90.114 Y101.407 E.04092
G1 X89.858 Y101.492 E.00848
G1 X89.729 Y101.557 E.00454
G1 X90.868 Y102.696 E.05066
G1 X90.85 Y102.798 E.00326
G1 X90.85 Y103.212 E.01302
G1 X89.372 Y101.735 E.06571
G1 X89.015 Y101.913 E.01255
G1 X90.85 Y103.747 E.08159
G1 X90.85 Y104.282 E.01682
G1 X88.696 Y102.129 E.09578
G1 X88.384 Y102.351 E.01204
G1 X90.85 Y104.817 E.10967
G1 X90.85 Y105.352 E.01682
G1 X88.091 Y102.594 E.12268
G1 X87.826 Y102.864 E.0119
G1 X90.85 Y105.887 E.13447
G1 X90.85 Y106.422 E.01682
G1 X87.572 Y103.144 E.14579
G1 X87.36 Y103.467 E.01215
G1 X91.019 Y107.126 E.16273
M204 S1000
;WIPE_START
G1 F8640
G1 X88.569 Y104.676 E-.8
;WIPE_END
G1 Z.6 F720
M73 P2 R46
G1 X95.631 Y107.994 F10800
G1 Z.2 F720
G1 E.8 F2100
M204 S800
G1 F1200
G1 X95.87 Y108.232 E.01061
G1 X95.87 Y108.665 E.01362
G1 X95.793 Y108.691 E.00256
G1 X95.266 Y108.163 E.02346
G1 X94.731 Y108.163 E.01682
G1 X95.395 Y108.827 E.02953
G1 X94.953 Y108.92 E.0142
G1 X94.196 Y108.163 E.03367
G1 X93.661 Y108.163 E.01682
G1 X94.504 Y109.006 E.03749
G1 X94.247 Y109.055 E.00823
G1 X94.032 Y109.069 E.00678
G1 X93.126 Y108.163 E.04029
G1 X92.591 Y108.163 E.01682
G1 X93.529 Y109.101 E.04172
G1 X93.11 Y109.127 E.0132
G1 X93.014 Y109.121 E.00302
G1 X91.887 Y107.994 E.05012
M204 S1000
;WIPE_START
G1 F8640
G1 X93.014 Y109.121 E-.36802
G1 X93.11 Y109.127 E-.02221
G1 X93.529 Y109.101 E-.09693
G1 X92.591 Y108.163 E-.3063
G1 X92.619 Y108.163 E-.00654
;WIPE_END
G1 Z.6 F720
G1 X92.625 Y109.267 F10800
G1 Z.2 F720
G1 E.8 F2100
M204 S800
G1 F1200
G1 X87.164 Y103.806 E.24288
G1 X87.019 Y104.195 E.01306
G1 X91.856 Y109.033 E.21515
G1 X91.195 Y108.906 E.02117
G1 X86.924 Y104.636 E.18993
G1 X86.88 Y104.999 E.0115
G1 X86.897 Y105.144 E.00459
G1 X90.462 Y108.708 E.15853
G1 X89.858 Y108.508 E.02001
G1 X89.595 Y108.377 E.00924
G1 X87.016 Y105.797 E.11472
G1 X87.199 Y106.285 E.01639
G1 X87.613 Y106.917 E.02376
G1 X88.905 Y108.222 E.05775
M204 S1000
;WIPE_START
G1 F8640
G1 X87.613 Y106.917 E-.42403
G1 X87.199 Y106.285 E-.17445
G1 X87.016 Y105.797 E-.12034
G1 X87.265 Y106.046 E-.08118
;WIPE_END
G1 Z.6 F720
G1 X98.621 Y105.695 F10800
G1 Z.2 F720
G1 E.8 F2100
M204 S800
;TYPE:Perimeter
;WIDTH:0.419999
G1 F1200
G1 X98.611 Y105.671 E.00082
G1 X98.464 Y105.562 E.00574
G1 X98.203 Y105.498 E.00843
G1 X95.408 Y105.498 E.08764
G1 X95.405 Y104.572 E.02903
G1 X98.203 Y104.572 E.08773
G1 X98.464 Y104.508 E.00843
G1 X98.611 Y104.399 E.00574
