; generated by PrusaSlicer 2.9.0 on 2025-01-10 at 23:50:05 UTC


;
;
; 

; external perimeters extrusion width = 0.60mm
; perimeters extrusion width = 0.60mm
; infill extrusion width = 0.60mm
; solid infill extrusion width = 0.60mm
; top infill extrusion width = 0.60mm
; first layer extrusion width = 0.60mm

M73 P0 R7
M73 C4
M73 Q0 S7
M73 D4
M201 X1000 Y1000 Z200 E5000 ; sets maximum accelerations, mm/sec^2
M203 X200 Y200 Z12 E120 ; sets maximum feedrates, mm / sec
M204 S1250 T1250 ; sets acceleration (S) and retract acceleration (R), mm/sec^2
M205 X8.00 Y8.00 Z0.40 E4.50 ; sets the jerk limits, mm/sec
M205 S0 T0 ; sets the minimum extruding and travel feed rate, mm/sec

; printing object bookshark.stl id:0 copy 0
; stop printing object bookshark.stl id:0 copy 0

;TYPE:Custom
M862.3 P "MK3S" ; printer model check
M862.1 P0.4 ; nozzle diameter check
M115 U3.13.3 ; tell printer latest fw version
G90 ; use absolute coordinates
M83 ; extruder relative mode
M104 S215 ; set extruder temp
M140 S60 ; set bed temp
M190 S60 ; wait for bed temp
M109 S215 ; wait for extruder temp
G28 W ; home all without mesh bed level
G80 X66.9493 Y88.1935 W116.101 H33.6131 ; mesh bed levelling

G1 Z0.2 F720
G1 Y-3 F1000 ; go outside print area
G92 E0
G1 X60 E9 F1000 ; intro line
G1 X100 E12.5 F1000 ; intro line

G92 E0
M221 S95

; Don't change E values below. Excessive value can damage the printer.

M907 E538 ; set extruder motor current
G21 ; set units to millimeters
G90 ; use absolute coordinates
M83 ; use relative distances for extrusion

M900 K0.05 ; Filament gcode LA 1.5
M900 K30 ; Filament gcode LA 1.0




M107
;LAYER_CHANGE
;Z:0.2
;HEIGHT:0.2
G1 E-.8 F2100
M73 P1 R7
M73 Q1 S7
G1 Z.6 F720
; printing object bookshark.stl id:0 copy 0
G1 X165.004 Y111.932 F10800
G1 Z.2 F720
G1 E.8 F2100
M204 S800
;TYPE:External perimeter
;WIDTH:0.599999
G1 F1200
G1 X164.732 Y111.702 E.0165
G1 X164.406 Y111.183 E.02839
G1 X164.258 Y110.594 E.02813
G1 X164.3 Y109.987 E.02818
G1 X164.527 Y109.424 E.02812
G1 X164.917 Y108.958 E.02815
G1 X165.432 Y108.635 E.02816
G1 X166.008 Y108.5 E.0274
G1 X166.447 Y108.494 E.02034
G1 X166.987 Y108.652 E.02606
G1 X167.419 Y108.912 E.02336
G1 X167.706 Y109.2 E.01883
G1 X167.932 Y109.554 E.01945
G1 X168.101 Y110.048 E.02418
G1 X168.136 Y110.529 E.02234
G1 X168.065 Y110.98 E.02115
G1 X167.894 Y111.196 E.01276
G1 X166.512 Y111.749 E.06895
;WIDTH:0.62819
G1 X166.01 Y111.965 E.0266
;WIDTH:0.65638
G1 X165.446 Y112.197 E.03111
;WIDTH:0.654656
G1 X165.33 Y112.153 E.00631
;WIDTH:0.627328
G1 X165.213 Y112.109 E.00607
;WIDTH:0.599999
G1 X165.05 Y111.971 E.00989
M204 S1000
;WIPE_START
G1 F8640
G1 X165.004 Y111.932 E-.01393
G1 X164.732 Y111.702 E-.08225
G1 X164.406 Y111.183 E-.14152
G1 X164.258 Y110.594 E-.14023
G1 X164.3 Y109.987 E-.14049
G1 X164.527 Y109.424 E-.14017
G1 X164.917 Y108.958 E-.14031
G1 X164.921 Y108.955 E-.0011
;WIPE_END
G1 Z.6 F720
G1 X96.257 Y96.471 F10800
G1 Z.2 F720
M73 Q2 S7
G1 E.8 F2100
M204 S800
;TYPE:Perimeter
G1 F1200
G1 X96.413 Y96.628 E.01025
G1 X96.795 Y96.823 E.01987
G1 X97.228 Y96.892 E.02031
G1 X149.671 Y96.9 E2.42923
G1 X151.368 Y96.96 E.07866
M73 P2 R7
G1 X153.061 Y97.081 E.07862
G1 X154.748 Y97.263 E.0786
G1 X156.435 Y97.505 E.07894
G1 X157.259 Y97.646 E.03872
G1 X158.936 Y97.98 E.07921
G1 X159.751 Y98.165 E.03871
G1 X161.408 Y98.588 E.07922
G1 X162.212 Y98.817 E.03872
G1 X163.838 Y99.326 E.07892
G1 X165.09 Y99.768 E.0615
G1 X164.238 Y100.239 E.04509
G1 X163.321 Y100.615 E.04591
G1 X162.709 Y100.799 E.0296
G1 X162.072 Y100.938 E.0302
G1 X161.426 Y101.028 E.03021
G1 X160.774 Y101.068 E.03026
G1 X160.08 Y101.057 E.03215
G1 X159.741 Y101.093 E.01579
G1 X159.398 Y101.223 E.01699
G1 X159.115 Y101.424 E.01608
G1 X158.913 Y101.657 E.01428
G1 X158.705 Y102.118 E.02343
G1 X158.565 Y102.769 E.03084
G1 X158.59 Y103.161 E.01819
G1 X158.744 Y103.568 E.02016
G1 X159.052 Y103.939 E.02234
G1 X159.382 Y104.147 E.01807
G1 X160.167 Y104.495 E.03978
G1 X161.013 Y104.788 E.04147
M73 Q3 S7
G1 X161.854 Y105.003 E.04021
G1 X162.852 Y105.161 E.0468
G1 X163.601 Y105.223 E.03481
G1 X164.366 Y105.227 E.03544
G1 X165.538 Y105.12 E.05451
G1 X166.257 Y104.995 E.0338
G1 X167.502 Y104.647 E.05988
G1 X168.322 Y104.322 E.04086
G1 X169.111 Y103.931 E.04079
G1 X169.889 Y103.458 E.04218
G1 X170.599 Y102.925 E.04112
G1 X171.137 Y102.466 E.03276
M73 P3 R7
G1 X171.842 Y102.838 E.03692
G1 X173.276 Y103.665 E.07668
G1 X174.682 Y104.542 E.07676
G1 X176.061 Y105.471 E.07702
G1 X176.726 Y105.945 E.03783
G1 X178.055 Y106.944 E.07701
G1 X179.354 Y107.994 E.07737
G1 X180.145 Y108.675 E.04835
G1 X178.432 Y109.082 E.08156
G1 X174.488 Y109.955 E.18711
G1 X170.532 Y110.767 E.18707
G1 X169.187 Y111.021 E.0634
G1 X169.237 Y110.7 E.01505
G1 X169.227 Y110.045 E.03034
G1 X169.155 Y109.689 E.01682
G1 X168.987 Y109.195 E.02417
G1 X168.611 Y108.549 E.03462
G1 X168.196 Y108.113 E.02788
G1 X167.672 Y107.748 E.02958
G1 X167.341 Y107.596 E.01687
G1 X166.842 Y107.442 E.02419
G1 X166.496 Y107.381 E.01627
G1 X165.848 Y107.395 E.03002
G1 X165.291 Y107.511 E.02635
G1 X164.861 Y107.678 E.02137
G1 X164.413 Y107.945 E.02416
G1 X164.079 Y108.224 E.02016
G1 X163.736 Y108.616 E.02413
G1 X163.503 Y108.984 E.02018
G1 X163.298 Y109.463 E.02413
G1 X163.191 Y109.886 E.02021
G1 X163.143 Y110.405 E.02414
G1 X163.171 Y110.84 E.02019
G1 X163.256 Y111.213 E.01772
G1 X163.448 Y111.753 E.02655
G1 X163.614 Y112.031 E.015
G1 X158.594 Y112.832 E.23547
G1 X154.595 Y113.396 E.18707
G1 X150.585 Y113.898 E.1872
G1 X148.584 Y114.124 E.09328
G1 X144.563 Y114.533 E.18722
G1 X140.539 Y114.878 E.18708
G1 X136.51 Y115.161 E.18709
G1 X132.478 Y115.381 E.18705
G1 X128.439 Y115.538 E.18723
G1 X126.426 Y115.593 E.09328
G1 X122.385 Y115.656 E.18721
G1 X97.23 Y115.663 E1.16521
G1 X96.858 Y115.714 E.01739
M73 P4 R7
M73 Q4 S7
G1 X96.431 Y115.914 E.02184
G1 X96.071 Y116.281 E.02381
G1 X95.915 Y116.593 E.01616
G1 X95.836 Y117.061 E.02199
G1 X95.843 Y119.098 E.09436
G1 X94.871 Y118.539 E.05194
G1 X93.225 Y117.529 E.08945
G1 X92.426 Y117.012 E.04408
G1 X90.817 Y115.918 E.09013
G1 X90.035 Y115.36 E.0445
G1 X88.467 Y114.185 E.09076
G1 X87.706 Y113.588 E.0448
G1 X86.187 Y112.338 E.09112
G1 X84.7 Y111.039 E.09146
G1 X83.975 Y110.377 E.04548
G1 X83.259 Y109.704 E.04552
G1 X81.845 Y108.313 E.09188
G1 X80.472 Y106.88 E.09193
G1 X79.81 Y106.157 E.04541
G1 X78.499 Y104.661 E.09214
G1 X77.872 Y103.911 E.04528
G1 X76.634 Y102.361 E.09189
G1 X76.044 Y101.586 E.04512
G1 X74.884 Y99.987 E.09151
G1 X74.33 Y99.184 E.04519
G1 X73.793 Y98.377 E.0449
G1 X72.828 Y96.855 E.08348
G1 X71.917 Y95.315 E.08288
G1 X71.059 Y93.755 E.08247
G1 X70.254 Y92.177 E.08206
G1 X69.67 Y90.936 E.06353
G1 X70.576 Y91.294 E.04512
G1 X72.095 Y91.833 E.07466
G1 X73.651 Y92.322 E.07555
G1 X74.436 Y92.538 E.03771
G1 X74.909 Y93.597 E.05372
G1 X75.123 Y93.935 E.01853
G1 X75.457 Y94.219 E.02031
G1 X75.779 Y94.363 E.01634
G1 X76.097 Y94.419 E.01496
G1 X76.604 Y94.393 E.02352
G1 X77.028 Y94.29 E.02021
G1 X77.332 Y94.116 E.01623
G1 X77.592 Y93.86 E.0169
G1 X77.849 Y93.325 E.02749
G1 X78.677 Y93.488 E.03909
G1 X80.231 Y93.727 E.07283
G1 X81.03 Y93.827 E.0373
G1 X82.659 Y93.987 E.07582
G1 X84.114 Y94.074 E.06752
G1 X85.108 Y95.516 E.08113
G1 X85.474 Y95.785 E.02104
G1 X85.804 Y95.903 E.01623
G1 X86.254 Y95.928 E.02088
G1 X86.752 Y95.849 E.02336
G1 X87.162 Y95.658 E.02095
G1 X87.456 Y95.388 E.01849
G1 X87.696 Y94.956 E.02289
G1 X87.991 Y94.089 E.04242
G1 X88.529 Y94.069 E.02494
M73 Q5 S7
G1 X90.183 Y93.952 E.07681
G1 X91.828 Y93.774 E.07664
G1 X92.621 Y93.659 E.03712
G1 X93.398 Y94.395 E.04958
G1 X93.652 Y94.529 E.0133
G1 X94.096 Y94.629 E.02108
G1 X94.581 Y94.57 E.02263
G1 X94.982 Y94.41 E.02
G1 X95.561 Y93.961 E.03394
;WIDTH:0.617548
G1 X95.827 Y93.367 E.0311
G1 X95.836 Y94.052 E.03273
;WIDTH:0.599999
G1 X95.836 Y95.499 E.06703
M73 P5 R7
G1 X95.922 Y95.981 E.02268
G1 X96.096 Y96.309 E.0172
G1 X96.214 Y96.428 E.00776
M204 S1000
;WIPE_START
G1 F8640
G1 X96.257 Y96.471 E-.01404
G1 X96.413 Y96.628 E-.0511
G1 X96.795 Y96.823 E-.09903
G1 X97.228 Y96.892 E-.10124
G1 X99.543 Y96.892 E-.53459
;WIPE_END
G1 Z.6 F720
G1 X95.838 Y93.071 F10800
G1 Z.2 F720
G1 E.8 F2100
M204 S800
;WIDTH:0.617548
G1 F1200
G1 X95.827 Y93.367 E.01415
M204 S1000
;WIPE_START
G1 F8640
G1 X95.838 Y93.071 E-.06839
G1 X95.827 Y93.367 E-.06839
;WIPE_END
G1 E-.66322 F2100
G1 Z.6 F720
G1 X96.63 Y96.077 F10800
G1 Z.2 F720
G1 E.8 F2100
M204 S800
;WIDTH:0.599999
G1 F1200
G1 X96.641 Y96.093 E.0009
G1 X96.907 Y96.27 E.0148
G1 X97.228 Y96.335 E.01517
G1 X149.681 Y96.342 E2.42969
G1 X151.398 Y96.404 E.07959
M73 P5 R6
G1 X153.11 Y96.526 E.0795
G1 X154.818 Y96.71 E.07957
G1 X156.521 Y96.955 E.0797
G1 X157.36 Y97.099 E.03943
M73 Q6 S7
G1 X159.052 Y97.435 E.07991
G1 X159.882 Y97.624 E.03943
G1 X161.553 Y98.05 E.07988
G1 X162.371 Y98.283 E.0394
G1 X164.014 Y98.797 E.07974
G1 X165.633 Y99.369 E.07954
M73 Q6 S6
G1 X166.253 Y99.613 E.03086
M73 P6 R6
G1 X165.966 Y99.844 E.01707
G1 X165.399 Y100.233 E.03185
G1 X164.53 Y100.714 E.04601
G1 X163.446 Y101.159 E.05428
G1 X162.793 Y101.351 E.03153
G1 X162.107 Y101.496 E.03248
G1 X161.413 Y101.587 E.03242
G1 X160.716 Y101.624 E.03233
G1 X159.868 Y101.636 E.03928
G1 X159.662 Y101.713 E.01019
G1 X159.371 Y101.974 E.01811
G1 X159.246 Y102.251 E.01408
G1 X159.12 Y102.812 E.02663
G1 X159.165 Y103.155 E.01602
G1 X159.335 Y103.44 E.01537
G1 X159.61 Y103.639 E.01572
G1 X160.353 Y103.97 E.03768
G1 X161.154 Y104.249 E.03929
G1 X161.949 Y104.454 E.03803
G1 X162.901 Y104.606 E.04466
G1 X163.604 Y104.666 E.03268
G1 X164.369 Y104.67 E.03544
G1 X165.448 Y104.57 E.05019
G1 X166.111 Y104.457 E.03115
G1 X167.3 Y104.127 E.05716
G1 X168.077 Y103.822 E.03867
G1 X168.826 Y103.453 E.03868
G1 X169.555 Y103.012 E.03947
G1 X170.551 Y102.257 E.05789
G1 X171.04 Y101.786 E.03145
G1 X172.112 Y102.351 E.05613
G1 X173.563 Y103.187 E.07757
G1 X174.985 Y104.075 E.07766
G1 X176.379 Y105.013 E.07783
G1 X177.055 Y105.495 E.03846
G1 X178.398 Y106.505 E.07784
G1 X179.715 Y107.571 E.07848
G1 X180.344 Y108.107 E.03828
G1 X181.305 Y108.971 E.05986
G1 X178.556 Y109.625 E.13089
G1 X174.605 Y110.5 E.18745
G1 X170.64 Y111.314 E.18749
G1 X167.72 Y111.866 E.13765
G1 X168.101 Y111.713 E.01902
G1 X168.616 Y111.066 E.03831
G1 X168.694 Y110.43 E.02968
G1 X168.628 Y109.869 E.02617
G1 X168.363 Y109.179 E.03424
G1 X168.057 Y108.756 E.02418
G1 X167.67 Y108.405 E.0242
G1 X167.151 Y108.12 E.02743
G1 X166.47 Y107.937 E.03266
G1 X165.962 Y107.94 E.02353
G1 X165.404 Y108.056 E.0264
G1 X165.147 Y108.157 E.01279
G1 X164.624 Y108.474 E.02833
G1 X164.226 Y108.901 E.02704
G1 X164.015 Y109.204 E.0171
G1 X163.81 Y109.683 E.02413
G1 X163.745 Y109.936 E.0121
G1 X163.698 Y110.456 E.02419
G1 X163.799 Y111.09 E.02974
G1 X163.927 Y111.468 E.01849
G1 X164.194 Y111.917 E.0242
G1 X164.373 Y112.128 E.01282
G1 X164.708 Y112.411 E.02031
G1 X162.676 Y112.755 E.09546
G1 X158.676 Y113.383 E.18755
G1 X154.668 Y113.948 E.18749
G1 X150.651 Y114.451 E.18753
G1 X148.644 Y114.678 E.09356
G1 X144.615 Y115.087 E.18759
G1 X140.583 Y115.433 E.18745
M73 Q7 S6
G1 X136.545 Y115.717 E.18751
G1 X132.504 Y115.937 E.18746
M73 P7 R6
G1 X128.458 Y116.095 E.18756
G1 X126.438 Y116.15 E.0936
G1 X122.389 Y116.213 E.18758
G1 X97.23 Y116.22 E1.1654
G1 X96.918 Y116.28 E.01472
G1 X96.644 Y116.459 E.01516
G1 X96.441 Y116.778 E.01751
G1 X96.393 Y117.059 E.0132
G1 X96.407 Y120.041 E.13813
G1 X95.414 Y119.498 E.05242
G1 X94.586 Y119.017 E.04436
G1 X92.928 Y118 E.0901
G1 X92.118 Y117.476 E.04469
G1 X90.498 Y116.375 E.09073
G1 X89.706 Y115.81 E.04506
G1 X88.128 Y114.627 E.09135
G1 X87.357 Y114.022 E.0454
G1 X85.826 Y112.763 E.09182
G1 X84.329 Y111.455 E.09208
G1 X83.596 Y110.786 E.04597
G1 X82.873 Y110.106 E.04598
G1 X81.449 Y108.705 E.09253
G1 X80.065 Y107.261 E.09265
G1 X79.395 Y106.529 E.04597
G1 X78.076 Y105.023 E.09273
G1 X77.441 Y104.264 E.04584
G1 X76.194 Y102.703 E.09255
G1 X75.597 Y101.918 E.04568
G1 X74.429 Y100.309 E.0921
G1 X73.326 Y98.681 E.09109
G1 X72.353 Y97.146 E.08418
G1 X71.433 Y95.591 E.08369
G1 X70.566 Y94.016 E.08328
M73 Q8 S6
G1 X69.752 Y92.418 E.08307
G1 X68.565 Y89.867 E.13033
G1 X69.271 Y90.178 E.03574
G1 X70.763 Y90.769 E.07434
G1 X72.246 Y91.296 E.0729
M73 P8 R6
G1 X73.801 Y91.785 E.07551
G1 X74.838 Y92.071 E.04983
G1 X75.28 Y93.062 E.05026
G1 X75.546 Y93.573 E.02669
G1 X75.746 Y93.743 E.01216
G1 X76.131 Y93.863 E.01868
G1 X76.559 Y93.837 E.01986
G1 X76.895 Y93.737 E.01624
G1 X77.129 Y93.545 E.01402
G1 X77.3 Y93.219 E.01705
G1 X77.445 Y92.677 E.02599
G1 X78.761 Y92.937 E.06214
G1 X80.301 Y93.174 E.07217
G1 X81.085 Y93.273 E.0366
G1 X82.699 Y93.432 E.07512
G1 X84.421 Y93.531 E.0799
G1 X85.507 Y95.127 E.08942
G1 X85.726 Y95.288 E.01259
G1 X86.013 Y95.374 E.01388
G1 X86.486 Y95.336 E.02198
G1 X86.729 Y95.265 E.01173
G1 X86.979 Y95.087 E.01422
G1 X87.168 Y94.776 E.01686
G1 X87.587 Y93.545 E.06023
G1 X88.489 Y93.514 E.04181
G1 X90.123 Y93.398 E.07588
G1 X91.749 Y93.223 E.07575
G1 X92.816 Y93.068 E.04994
G1 X93.58 Y93.826 E.04985
G1 X93.787 Y93.979 E.01192
G1 X94.044 Y94.064 E.01254
G1 X94.418 Y94.038 E.01737
G1 X94.768 Y93.896 E.0175
G1 X95.115 Y93.626 E.02037
G1 X95.27 Y93.269 E.01803
G1 X95.282 Y92.62 E.03007
G1 X96.393 Y92.375 E.0527
G1 X96.393 Y95.499 E.14471
G1 X96.477 Y95.865 E.01739
G1 X96.595 Y96.029 E.00936
M204 S1000
G1 X96.595 Y96.029 F10800
G1 X97.023 Y95.673
M204 S800
;TYPE:External perimeter
G1 F1200
G1 X97.042 Y95.706 E.00176
G1 X97.229 Y95.778 E.00928
G1 X149.691 Y95.785 E2.43011
G1 X151.427 Y95.847 E.08047
M73 P9 R6
M73 Q9 S6
G1 X153.16 Y95.971 E.08048
G1 X154.887 Y96.157 E.08046
G1 X156.608 Y96.405 E.08054
G1 X157.461 Y96.551 E.04009
G1 X159.168 Y96.89 E.08061
G1 X160.012 Y97.082 E.04009
G1 X161.698 Y97.512 E.0806
G1 X162.531 Y97.749 E.04012
G1 X164.19 Y98.269 E.08053
G1 X165.828 Y98.847 E.08046
G1 X167.299 Y99.426 E.07323
G1 X166.874 Y99.827 E.02707
G1 X166.299 Y100.291 E.03423
G1 X165.692 Y100.708 E.03411
G1 X164.799 Y101.202 E.04727
G1 X163.607 Y101.692 E.0597
G1 X162.912 Y101.895 E.03354
G1 X162.184 Y102.048 E.03446
G1 X161.225 Y102.157 E.04471
G1 X160.707 Y102.181 E.02402
G1 X159.994 Y102.178 E.03303
G1 X159.829 Y102.291 E.00926
G1 X159.683 Y102.811 E.02502
G1 X159.699 Y102.992 E.00842
G1 X159.839 Y103.131 E.00914
G1 X160.539 Y103.445 E.03554
G1 X161.295 Y103.71 E.03711
G1 X162.045 Y103.905 E.0359
G1 X162.95 Y104.051 E.04246
G1 X163.607 Y104.109 E.03055
G1 X164.199 Y104.112 E.02742
G1 X164.751 Y104.084 E.0256
G1 X165.358 Y104.02 E.02827
G1 X165.961 Y103.92 E.02831
G1 X167.098 Y103.608 E.05461
G1 X167.832 Y103.322 E.03649
G1 X168.54 Y102.974 E.03654
G1 X169.221 Y102.566 E.03677
G1 X170.165 Y101.856 E.05471
G1 X170.944 Y101.105 E.05012
G1 X172.381 Y101.863 E.07526
G1 X173.85 Y102.709 E.07852
G1 X175.288 Y103.607 E.07853
G1 X176.696 Y104.555 E.07863
G1 X177.385 Y105.046 E.03919
G1 X178.741 Y106.066 E.0786
G1 X180.06 Y107.133 E.07859
G1 X181.339 Y108.242 E.07841
G1 X182.446 Y109.273 E.07007
G1 X178.681 Y110.168 E.17926
G1 X174.721 Y111.045 E.18788
G1 X170.748 Y111.86 E.18787
G1 X166.759 Y112.614 E.18805
;WIDTH:0.62819
G1 X166.218 Y112.696 E.02663
;WIDTH:0.65638
G1 X165.553 Y112.8 E.03433
;WIDTH:0.654656
G1 X165.16 Y112.883 E.02043
;WIDTH:0.627328
G1 X164.767 Y112.967 E.01953
;WIDTH:0.599999
G1 X162.766 Y113.305 E.094
G1 X158.758 Y113.934 E.18793
G1 X154.742 Y114.5 E.18786
G1 X150.717 Y115.004 E.1879
M73 Q10 S6
G1 X148.703 Y115.232 E.09389
G1 X144.667 Y115.642 E.18791
M73 P10 R6
G1 X140.626 Y115.989 E.18787
G1 X136.58 Y116.273 E.18788
G1 X132.53 Y116.493 E.18788
G1 X128.476 Y116.651 E.18793
G1 X126.45 Y116.707 E.09388
G1 X122.394 Y116.77 E.1879
G1 X97.23 Y116.778 E1.16563
G1 X97.154 Y116.788 E.00355
G1 X96.997 Y116.901 E.00896
G1 X96.95 Y117.057 E.00755
G1 X96.961 Y119.997 E.13619
G1 X97.019 Y120.486 E.02281
G1 X97.131 Y120.879 E.01893
G1 X97.1 Y121.055 E.00828
G1 X95.14 Y119.983 E.10348
G1 X94.3 Y119.495 E.045
G1 X92.632 Y118.472 E.09064
G1 X91.81 Y117.941 E.04533
G1 X90.18 Y116.832 E.09132
G1 X89.377 Y116.259 E.04569
G1 X87.789 Y115.069 E.09192
G1 X87.008 Y114.456 E.04599
G1 X85.466 Y113.188 E.09248
G1 X83.957 Y111.87 E.09281
G1 X83.217 Y111.195 E.0464
G1 X82.487 Y110.507 E.04647
G1 X81.052 Y109.096 E.09322
